/* XPM */
static char *_5403f418f1847e38fad2069cfa41db7p4ub6r61hRtXKLFb[] = {
/* columns rows colors chars-per-pixel */
"250 250 192 2 ",
"   c #7FAFD8",
".  c #81ABCF",
"X  c #95AFCF",
"o  c #8EB2CF",
"O  c #9FB7C6",
"+  c #9FB8C6",
"@  c #94B4CE",
"#  c #9CB6CD",
"$  c #95B8CE",
"%  c #9DB9CD",
"&  c #83AFD6",
"*  c #8BAFD3",
"=  c #81AFD8",
"-  c #85B1D6",
";  c #8BB2D4",
":  c #8EB8D2",
">  c #81B1D9",
",  c #8BB3D8",
"<  c #8DB8D9",
"1  c #93B4D3",
"2  c #9BB6D2",
"3  c #95B9D3",
"4  c #9CB9D3",
"5  c #92B6D9",
"6  c #9CB6D8",
"7  c #94BADA",
"8  c #9CBCDA",
"9  c #A3B7C6",
"0  c #A4BBC6",
"q  c #ABBCC6",
"w  c #A2B6CD",
"e  c #ABB7CC",
"r  c #A4BACC",
"t  c #ABBDCD",
"y  c #B2BDC6",
"u  c #B2BECC",
"i  c #A2B6D1",
"p  c #A4BBD2",
"a  c #ABBDD2",
"s  c #A3BEDA",
"d  c #ABBDD8",
"f  c #B1BFD2",
"g  c #9EC1CF",
"h  c #9EC0D1",
"j  c #A7C1C6",
"k  c #ABC2C6",
"l  c #A6C1CA",
"z  c #ADC1CC",
"x  c #AEC8CA",
"c  c #B3C2C6",
"v  c #B9C5C5",
"b  c #B3C3CD",
"n  c #BAC5CD",
"m  c #B5C9CD",
"M  c #BCCACD",
"N  c #A5C1D3",
"B  c #ADC1D3",
"V  c #ACC8D4",
"C  c #A4C2DA",
"Z  c #ACC4DB",
"A  c #AFCADE",
"S  c #B4C3D3",
"D  c #BAC6D3",
"F  c #B6C9D3",
"G  c #BCCAD4",
"H  c #B4C5D9",
"J  c #BAC6D8",
"K  c #B4C9DB",
"L  c #BCCBD9",
"P  c #BFD1D6",
"I  c #BDD1DC",
"U  c #A0C0E0",
"Y  c #ACC4E0",
"T  c #AFC8E0",
"R  c #B2C5E0",
"E  c #B3CBE2",
"W  c #BBCDE2",
"Q  c #BED2E2",
"!  c #C0C7CD",
"~  c #C2CCCE",
"^  c #C9CECF",
"/  c #C5D1CE",
"(  c #CAD1CE",
")  c #D0D1CE",
"_  c #C2C6D3",
"`  c #C3CDD4",
"'  c #CACED3",
"]  c #C3CED9",
"[  c #C9CFDA",
"{  c #C5D1D5",
"}  c #CBD3D5",
"|  c #CED9D6",
" . c #C5D2DA",
".. c #CBD5DA",
"X. c #C7D8DB",
"o. c #CED9DC",
"O. c #D2D5D5",
"+. c #D4D9D6",
"@. c #D9DCD7",
"#. c #D2D6DB",
"$. c #D8D7D8",
"%. c #D4DBDC",
"&. c #D8DCDD",
"*. c #DADDDD",
"=. c #D9DFDD",
"-. c #D8DCDE",
";. c #D9DFDF",
":. c #DADFDF",
">. c #E1DFDE",
",. c #D7E0DD",
"<. c #D7E0DE",
"1. c #D8E0DF",
"2. c #DBE2DE",
"3. c #DCE1DE",
"4. c #DCE0DF",
"5. c #DDE2DF",
"6. c #E2E3DE",
"7. c #E9E7DF",
"8. c #E4E9DE",
"9. c #EAE8DE",
"0. c #C1CFE3",
"q. c #C4D3E2",
"w. c #CBD5E2",
"e. c #C4D8E3",
"r. c #CDD9E2",
"t. c #C6D5EB",
"y. c #CAD7E8",
"u. c #C7D8E9",
"i. c #CDDBEA",
"p. c #D3D6E2",
"a. c #D6DBE1",
"s. c #D5DCE1",
"d. c #DADEE1",
"f. c #DADFE1",
"g. c #D3DDE9",
"h. c #DADEEB",
"j. c #E0DEE2",
"k. c #E1DFEA",
"l. c #D6E1E3",
"z. c #DBE0E0",
"x. c #DDE1E3",
"c. c #DDE2E2",
"v. c #DFE5E2",
"b. c #D4E0EA",
"n. c #DCE3EA",
"m. c #DEE5F0",
"M. c #DFE9F1",
"N. c #E1E2E2",
"B. c #E1E5E2",
"V. c #E2E5E3",
"C. c #E3E7E4",
"Z. c #E9E6E4",
"A. c #E4E8E3",
"S. c #E5E9E5",
"D. c #E7EAE5",
"F. c #E7ECE6",
"G. c #EBEBE5",
"H. c #E9EBE7",
"J. c #E9ECE7",
"K. c #ECECE7",
"L. c #E3E6EA",
"P. c #E9E7EA",
"I. c #E6EAE9",
"U. c #EAEBE8",
"Y. c #EBEDEA",
"T. c #EDEFEA",
"R. c #F1EEE6",
"E. c #F1EEEB",
"W. c #EEF0E6",
"Q. c #EEF0EA",
"!. c #EEF1EC",
"~. c #F2F1E6",
"^. c #F9F4E7",
"/. c #F7F8E7",
"(. c #F3F3EC",
"). c #F9F5ED",
"_. c #F6F8ED",
"`. c #FAFAED",
"'. c #E4E7F0",
"]. c #E5EBF2",
"[. c #ECEDF2",
"{. c #F2EEF2",
"}. c #F8ECF1",
"|. c #EEF1F2",
" X c #F4F5F1",
".X c #F9F6F2",
"XX c #F6F8F2",
"oX c #FAFBF4",
"OX c #F6F5F8",
"+X c #F9F7F8",
"@X c #F6F9F9",
"#X c #FDFFFB",
/* pixels */
"> > > > > > > > > > > > > > > > > > > > > > > > > > > > > > > > > > > > > > > > > > > > > > > > > > > > > > > > > > > > > > > > > > > > > > > > > > > > > > > > > > > > > > ; 1 @ ; ; o # a a r p w 2 @ @ w B F `  ...| %.;.f.f.x.N.V.V.S.S.H.J.Y.Y.Y.Y.Q.Y.Y.Y.J.J.J.S.S.A.V.v.v.x.v.x.4.x.x.x.x.x.x.x.x.x.z.;.;.%.%...] G J F z t F D ` ..o.o.%.%.%.#.%.%.%.%.%.%.%.#.....] G a # 2 4 1 ; - - ; r b ` | %.<.;.;.1.%.%..... ...[ n t q b b b b b b b b z t # ; ; 1 % t b m b b b b z m { | } { { { G M n b z t w @ ",
"> > > > > > > > > > > > > > > > > > > > > > > > > > > > > > > > > > > > > > > > > > > > > > > > > > > > > > > > > > > > > > > > > > > > > > > > > > > > > > > > > > > > > - ; ; - > > - ; 1 ; ; ; ; - - - ; @ t J L G [  .#.;.;.z.z.v.v.V.S.S.H.U.Y.J.Q.Y.Y.K.J.Y.J.Y.F.S.S.S.V.v.v.V.N.4.1.4.4.4.x.4.4.x.x.1.1.z.f.#.} ` F z b u b M M G M G {  .......#...| #.#...} { } } } { [ G D D F a 2 o @ w b { | %.%.<.1.1.1.;.%.;.%.;.a. .` n n M n n n n M n n b z z z b m M G G F n b b t b F M G F M ~ M n b q 9 % @ - ",
"> > > > > > > > > > > > > > > > > > > > > > > > > > > > > > > > > > > > > > > > > > > > > > > > > > > > > > > > > > > > > > > > > > > > > > > > > > > > > > > > > > > > > > > > > > > > > > > > > > > > - ; 2 a S S a S G { #.%.%.%.1.4.4.V.C.S.H.H.J.H.Y.Y.Y.Y.Y.J.J.H.H.S.S.C.V.V.N.x.x.x.4.4.z.4.x.x.x.4.4.1.;.%.#...] t + w t t b b t 0 r r r S F ` { { { } { [ ` ` ` { { } } { } ....` D t t b G } %.%.#.#.%.<.%.f.;.;.z.4.z.%.%.' G F n n b b n M G G F G ` ` ` ` ` G n n b b b t b n n b b b c u t + # ; - > ",
"> > > > > > > > > > > > > > > > > > > > > > > > > > > > > > > > > > > > > > > > > > > > > > > > > > > > > > > > > > > > > > > > > > > > > > > > > > > > > > > > > > > > > > > > > > > > > > > > > > > - ; 2 2 # # # 2 # a J ]  .....#.%.%.4.N.V.V.C.S.S.F.U.H.H.S.S.S.S.S.S.S.S.S.V.V.V.N.N.x.x.z.1.x.x.4.4.4.1.%.%...` F # @ @ % r r r + 1 ; ; ; 1 4 r b b b b L ` G ` ` { | #.#.......#...` G G `  .........#.%.%.%.#.%.z.f.x.4.4.%.+.{ L F u t b b ` [ ` ` ` { { { { { F b b b v b b b b t 0 w r 0 + 1 ; - - > > ",
"> > > > > > > > > > > > > > > > > > > > > > > > > > > > > > > > > > > > > > > > > > > > > > > > > > > > > > > > > > > > > > > > > > > > > > > > > > > > > > > > > > > > > > > > > > > > > > > > > > > - ; 1 1 ; ; ; ; ; 2 i a F L _ `  ...%.;.x.v.V.V.S.S.S.S.S.S.S.S.S.S.S.S.S.V.V.V.V.V.v.x.x.x.;.;.%.%.;.;.;.;.%..._ b r 1 ; ; @ # @ ; - > > > - 1 # t S b b D `  .{ ` ..%.%.#.#.| #.%.#.} ' [ ' { { ` { { ..#.%.%.;.;.4.x.x.v.x.x.1.#.` D u S M { ....` ` { } | | } { G n n b b b b z w + # # # # ; - > > > > > ",
"> > > > > > > > > > > > > > > > > > > > > > > > > > > > > > > > > > > > > > > > > > > > > > > > > > > > > > > > > > > > > > > > > > > > > > > > > > > > > > > > > > > > > > > > > > > > > > > > > > > > > - - - > > > - - ; # t b b F G ` } #.%.<.z.4.v.v.V.V.V.C.S.S.S.S.S.S.S.S.C.C.V.V.V.N.x.x.;.;.%.%.%.f.f.;.%.{ ] ` a 2 ; - - ; - > > > > > - @ w a b D G  .#.#...#.%.;.1.1.4.;.4.x.;.%..... .{ G F G { | #.%.%.%.1.4.N.v.V.V.V.v.1.%.{  ...#.#.#.#. .G ` } O.| | { { G G M b F b 0 + @ ; ; ; ; - > > > > > > ",
"> > > > > > > > > > > > > > > > > > > > > > > > > > > > > > > > > > > > > > > > > > > > > > > > > > > > > > > > > > > > > > > > > > > > > > > > > > > > > > > > > > > > > > > > > > > > > > > > > > > > > > > > > > > > > - 1 w b S S F D ` { } ..#.#.%.z.x.N.N.v.V.V.V.C.S.S.S.I.C.S.S.V.V.V.x.x.z.%.%.%.%.%.;.%.%.{ _ G S i ; - > > > > > > > > ; @ # a n [ } %.%.%.%.;.4.x.x.x.x.x.x.1.;.%.%.o...{ L D G ` ..#.%.#.%.%.1.4.v.V.V.V.v.v.V.4.4.4.1.;.;.;.%.{ { ..#.......} { ` G b F F t # o - > > > > - ; ; ; ; - ",
"> > > > > > > > > > > > > > > > > > > > > > > > > > > > > > > > > > > > > > > > > > > > > > > > > > > > > > > > > > > > > > > > > > > > > > > > > > > > > > > > > > > > > > > > > > > > > > > > > > > > > > > > > > > > - ; @ + t t z t S J F F L ` [  .#.%.;.x.x.v.V.V.V.C.S.S.S.S.S.S.C.V.v.x.z.%.%.%.%.%.;.;.%.| { _ D t # ; > > > > > > > > - ; # t F ` { ..#.%.%.1.4.x.x.N.V.x.N.V.4.;.%.%...} .. .` ` { } ..#...| %.<.1.4.V.V.V.V.V.V.V.V.V.V.V.v.4.x.z.%.%.%.%.%.#...{ ` G L { ` S p @ ; > > > - ; @ w w % o ",
"> > > > > > > > > > > > > > > > > > > > > > > > > > > > > > > > > > > > > > > > > > > > > > > > > > > > > > > > > > > > > > > > > > > > > > > > > > > > > > > > > > > > > > > > > > > > > > > > > > > > > > > > > > > > - 1 # w r r r t t t t b S b F G  .#.%.;.;.4.x.N.N.V.C.C.V.C.C.C.V.v.x.f.%.%.%.%.%.%.%.%.%.%.{ ` S @ ; - > > > > > > > > > ; w S M ` { | #.%.%.;.1.v.V.V.V.V.V.N.x.;.;.%.#...{  .{ ` [ { {  ...#.;.1.4.4.v.v.4.V.V.A.A.A.S.S.A.S.S.V.V.v.1.%.%.%.%.|  .{ { { .. .` S % ; - > > - ; $ w t w # ",
"> > > > > > > > > > > > > > > > > > > > > = > > > > > > > > > > = = > > > > > > > > > > > > > > > > > > > > > > > > > > > > > > > > > > > > > > > > > > > > > > > > > > > > > > > > > > > > > > > > > > > > > > > > > > ; 1 # r r r t t t t t u t u u G { ....#.%.%.;.x.x.N.C.V.V.C.C.V.V.x.z.%.%.......#.#.#.%.%.%.{ F 4 ; - > > > > > > > > > > ; i S F F ` { ..| %.%.1.x.V.V.V.V.V.V.x.x.z.%.#...{ { { {  . . . ...%.1.1.4.x.6.v.1.4.V.A.S.S.S.S.S.S.S.S.C.V.v.x.1.;.%.#. . . ...{ ` F S w ; - - > - ; @ w B 9 r ",
"> > > > > > > > > > > > > > > > > > > > > = > > > > > > > > > > = = > > > > > > > > > > > > > > > > > > > > > > > > > > > > > > > > > > > > > > > > > > > > > > > > > > > > > > > > > > > > > > > > > > > > > > > > > - ; ; 1 # w r t t t t t u u S n D ` [  . .o.%.%.z.f.x.V.V.V.V.V.V.N.x.;.%...L F F { ..| %.#.#.{ B 1 - > > > > > > > > > > - ; r S F F ` { | | #.%.;.4.V.V.A.A.V.V.V.v.x.%.%...{ { ...... ... .| %.;.4.4.6.V.v.x.4.4.V.V.S.S.S.C.C.C.C.V.V.V.x.1.;.%.%..... .{ ` M b t # ; - > > - ; # B S b b ",
"> > > > > > > > > > > > - - ; ; 5 ; - - > - ; ; ; , 5 5 ; & > > - - - & > > > > > > > > > > > > > > > > > > > > > > > > > > > > > > > > > > > > > > > > > > > > > > > > > > > > > > > > > > > > > > > > > > > > > > > > - - ; ; 1 # w r r t u b b S D D D ` _ ] ..#.%.f.f.x.x.x.V.V.V.V.N.x.;.| { F t t b _  .....X.L r 1 - - > > > > > > > > > - 1 r t S b G ` { ..#.%.;.4.V.V.V.A.S.S.V.V.v.z.%...} | #.#.#.#...{ { +.%.1.4.4.4.v.x.x.x.V.V.V.V.C.C.V.C.C.V.V.v.4.;.%.%.%.%.| { { ` n t # 1 ; ; - > > ; % B t F { ",
"> > > > > > ; ; ; ; , 5 3 4 p H H H C 8 4 p Z K K L L H p 1 1 3 8 8 3 ; ; - - > > > > > > > > > > > > > > > > > > > > > > > > > > > > > > > > > > > > > > > > > > > > > > > > > > > > > > > > > > > > > > > > > > > > > > > > - ; ; @ % w t t t b S F D D D G ` ..#.%.%.;.4.x.x.V.V.V.V.x.x.;.%.{ G u t a S G ` {  .L r 1 ; - > > > > > > > - - ; @ + r t u D _ { ..#.%.%.;.4.x.V.V.A.S.S.V.v.x.a.%.#.| ........| { { } #.%.;.1.1.v.x.v.4.v.v.v.V.V.V.v.V.C.v.v.x.;.#.#.#.%.%.#...{ ` b % ; - - ; ; - - ; r F F M ..",
"> > > > - ; 1 i i p H H L ] ..s.s.s.s.r...o.s.f.f.;.%. .J H J L ] L J B p 4 5 & > - ; ; ; - > > > > > > > > > > > > > > > > > > > > > > > - > > > > > > > > > > > > > > > > > > > > > > > > > > > > > > > > > > > > > > > > > > > - - ; 1 2 2 # p a S F S u F ` ..o.%.%.;.x.x.N.N.V.V.V.N.x.;.%. ._ b t 0 t t z S F a 2 ; ; - > > > > > - ; 1 @ # # w r 0 t b G [ ..| #.%.%.%.1.1.v.V.V.V.V.V.x.f.%.%... .' { { ..} { { { ..%.#.%.;.1.1.4.4.4.x.4.v.V.V.V.V.v.v.x.%.#.#.%.#.%.%.| { L z # ; ; ; ; 1 ; ; @ B J ` { | ",
"> > > - ; 1 i S J ] o.#.s.a.%.;.1.z.z.f.x.x.x.V.V.N.f.%.o.o.s.s.o... .{ L J p * ; 1 # 2 1 ; - > > > > > > > > > > > > > > > > > > > - - ; ; ; - - - > > > > > > > > > > > > > > > > > > > > > > > > > > > > > > > > > > > > > > > > > - ; ; ; ; 1 2 a z S S b L ..o.%.%.;.x.x.N.V.V.V.N.N.x.%.#.{ F b u 0 w # # 2 4 1 ; - - > > > > > ; @ # w r t r r 0 u f b F [ { ..| | | | %.%.1.4.v.V.V.N.4.1.%.#... .` G ` { { { { ` { { | #.#.%.%.%.;.;.;.x.x.x.V.x.x.v.v.4.1.%.%.%.#.#.#...` G b w @ 1 @ @ # # # + r S F { ..",
"> > - ; 3 i B L  .o.%.a.a.f.f.z.z.x.x.x.x.V.C.S.I.I.V.N.x.f.f.f.a.#.#. .L t p 2 p t t 2 1 ; - > > > > > > > > > > > > > > > > > ; 1 3 4 p p 8 1 1 1 ; - > > > > > > > > > > > > > > > > > > > > > > > > > > > > > > > > > > > > > > > > > > > > - ; 1 w r t b D  ...%.%.%.z.x.N.V.V.V.V.V.x.1.#.{ D S S t # 1 ; - - - > > > > > > > - ; # w 0 t t t u b D n b G ` ` { { } ....| %.%.%.;.1.4.x.1.1.%.#...{ ` ` ` ` { ` ` ` ` ` { } ..| | #.#.#.%.;.;.1.1.1.1.x.4.4.1.%.%.%.%.#...{ ` G b r # @ @ # # + % + w t b L  .",
"- - ; 2 a S J ] o.%.;.z.z.x.x.x.x.x.V.V.V.S.U.Y.Y.H.S.V.V.x.f.x.x.x.;.o.L a a a a a i 1 - > > > > > > > > > > > > > > > > > > ; 4 a H G ] [ ] S a a p 6 ; > > > > > > > > > > > > > > > > > > > > > > - ; ; ; - - > > > > > > > > > > > > > > > > > ; @ # t b D L ..| %.%.;.x.V.V.V.V.V.V.v.4.%...[ G S r @ ; > > > > > > > > > > > - ; @ # w w r t b D D G b b b M G ` [ { ....| | #.%.%.;.;.;.%.%..... .[ [ [ ` ` ` ` ` G ` { } ......| | | #.%.%.%.#.%.%.1.4.4.1.;.;.%.%...` ` ` G F t + @ @ # r r w w r b F L ..",
"- ; 6 a S G ] o.%.f.f.x.x.x.x.V.V.V.V.V.C.I.Y.Y.Y.S.S.S.V.V.x.x.V.V.x.%...J p i 2 1 ; - > > > > > > > > > > > > > > > > > - - 3 p J L  .o.%.o. .L G J B 8 ; >   > > > > > - ; ; , ; ; > > > > - - ; ; ; 1 # # 1 ; - - - - > > > > > > > > > > > > - ; 1 i a t F F ` { ..%.;.x.x.V.V.V.V.V.V.x.z.%.#. .G w 1 - > > > > > > > > > > > > - ; ; ; 1 1 # w t b D b z t b b M G [ {  .{ { ......#.#.#.#.#...{ [ [ [ { ` ` ` ` ` ` { ....} ..{ { { } ..{ ..} } ..#.%.;.%.%.%.%.%.#.{ M M G G G b w @ @ w t z t t b b ` `  .",
"- ; 8 J G L ..o.%.f.f.x.x.v.v.V.V.V.V.S.I.I.I.U.U.U.U.I.S.V.v.V.V.V.x.a...H 1 1 2 1 ; > > > > > > - - - - > > > > > = > > - ; 1 w a L  .a.f.%.%.#.s. .L L s ; - , , , - ; 1 2 2 p a 8 5 ; ; 1 1 2 2 2 1 2 w r % 1 ; - > > > > > > > > > > > > > ; ; @ w t t r r a b F { ..%.%.1.x.V.V.V.C.A.V.x.f.%.#.` a 1 - > > > > > - ; ; ; ; ; - > > > - - - ; ; @ r t t t t b b b b G ` ` ` [ { { { { { { { {  . .' [ ` { { ` ] ] [ { ..o.| ..{ ` G G ` G n G G G ` { #.%.%...| | ....[ G n G F M b t w w r 0 z b S G L ` [ ] ",
"> * 8 J ]  ...%.%.;.x.x.V.V.V.V.V.V.C.I.L.I.I.I.U.U.Y.U.I.I.V.V.C.V.x.a.] p ; 1 a 2 ; - ; & ; , 3 6 8 8 8 3 1 ; - > > > - ; 2 i a S ` #.x.V.v.x.x.x.f.%.%.r.K N Z K Z p B S J H J L L B p a a a a a # 1 ; 1 1 1 ; - > > > > > > > > > > > > - ; 1 2 # t t w # @ # t J ` { { #.%.f.x.V.V.V.C.V.N.4.;.#. .G p 1 ; ; - - - ; 2 i 2 # p 1 ; ; ; ; ; ; ; ; @ + r t t t t u u b F G ` [ [ ` ` _ L D D G ` {  .[ ` ` ` G ` ]  . .....} ..{ ` G G G F b t t b b b G { .... .{ { ....[ G F F F F b b u t 0 t b F J L L { [ { ",
"= & 2 J ....o.%.%.z.x.x.V.V.V.C.C.C.I.I.P.U.U.Y.Y.Y.Y.Y.Y.Y.I.S.I.C.x.z.o.L Z S J a i 2 6 8 p H L ] ] ] L H a 1 - > > - ; 8 B F J ] #.z.V.I.U.U.U.I.L.V.C.C.x.s.s.x.%.%.s.%.a.s. .] ] G F S S S a p 2 ; ; - - > > > > > > > > > > > > > > - 1 # r a t t r w 2 1 @ w S G ` _ ..%.%.4.V.V.V.V.V.N.4.;.%.%...L S p 1 ; - ; # a S u t z w # # # # # # # @ @ @ w 0 t t t t t b b G ` ` G D S u a r t S F G ` ` G n b b F L {  .{ { ` G ` L G G F D u t t u t u b D ` { [ ` ` ` { { [ L F G G n b t t e u b F L { {  .{ ` ",
"; 1 i G ....#.%.f.f.x.x.x.V.V.V.V.S.S.I.U.U.Y.Y.Y.Y.Y.T.Y.Y.Y.F.I.C.x.x.x.a.a.#.o. ._ ] G J _ o.s.f.f.a.#...L p ; - - ; 1 B L `  .o.%.x.S.Y.T.T.T.T.Y.Y.Y.Y.Y.C.L.V.C.S.S.C.x.a...L D D b f a t r # ; ; - - - > > > > > > > > > > > > > - ; # t t a a t r a p 1 1 2 t b G ` o.%.%.%.z.x.N.V.V.x.x.;.;.%.%.#. .L t # @ % t z S f t r r w w w r r # @ 1 ; ; @ w t r r 0 t b b D G G D t t # @ 1 # w z b n F F F F b D L { ] _ L F F L L L G M D b b u e t t t t J L D D D D G [ { ` G G L S t r r t b S G L { {  .{ ` ",
"2 i S ] ]  .%.%.f.x.x.x.x.x.x.V.V.V.S.I.U.Y.Y.Y.T.Q.Y.!.Q.Y.Y.U.U.I.V.v.v.x.x.f.f.%.%.%.#. . .%.f.x.x.x.f.%.o.L p 3 1 1 4 J [  ...o.;.N.S.Y.T.!. X!.(. X!.(.!.Y.U.I.U.Y.Y.U.x.z.o.D S D S a a a r i 2 3 4 4 4 3 ; - > > > > > > > > > > - ; # t u S t t t u t # 2 p t S D ` ......%.%.;.4.4.4.x.x.4.4.4.z.;.#...G F S F b z t p 2 1 1 1 1 @ # 2 @ ; - - ; ; $ % + + w 0 t t t b t p 2 1 1 ; ; ; @ r t z t t S D D D G F J D F b F F F J F D b b b u t r w # # p S S b b z z F L ` G F b r # # p S D G ]  ...o.o.{ ` ",
"B a L  .]  .#.%.f.z.z.x.x.x.x.v.V.V.C.I.U.Y.Y.Y.Q.(.(.(.(.Y.Y.U.U.I.I.V.V.N.x.x.x.f.;.;.%.%.%.;.;.f.x.x.f.f.%.%.] a p p B D L  .%.;.x.V.I.Y.(. X XXX X X X(.(.(.T.T.T.T.T.U.V.x.a. ...` G J J J J L L L L ] ] G p 5 - > > > > > > > - ; ; 1 # t b t r r t t t t a J J G [ {  .[ `  ...#.%.;.;.;.x.x.x.x.x.4.%...{ [ G D b t w @ ; - - - - ; ; ; ; - - - - - ; ; 1 # # w # # # # 1 ; ; - - - - - @ w t t # # % t S F F b S S b u t t z B S b n n b t r w # 1 ; @ p a a a r r t b D n b 0 w # + t G `  ...%.%.%.%...L ",
"` ] ] .. .o.%.f.f.z.z.z.z.x.x.x.V.V.S.S.F.Y.Y.Y.!.(.(.(.(.Q.Y.Y.U.U.U.S.V.V.V.V.x.x.f.z.1.1.f.%.%.;.;.;.;.f.x.;.#.] L ] ] L _ #.f.N.C.S.I.T.(. XXXXXXX X X(.(.(.T. X X!.!.Y.U.C.V.z.z.%.#.#.%.#.%.%.%.%.%.%.%...] Z 3 - > > > > ; 5 2 4 4 # # a b b t w t t t t b D L  ... .] L L `  ...#.%.%.;.x.x.x.x.x.f.%...[ ` G n b t r @ ; - - - - - > > - > > - ; ; - - ; 1 1 1 ; ; ; ; - > > - ; ; ; ; @ w p # ; ; ; @ r b b b b z t t t t r r t b b b b f t t r # ; ; 1 2 2 2 # r t b b S z r w r t b L  .o.%.;.x.x.1.%.G ",
"..o...%.o.%.;.f.f.x.x.x.x.x.x.x.N.V.S.S.Y.Y.Y.!.Q.!.(.(.(.(.!.Y.Y.H.H.S.S.S.C.V.N.N.x.x.x.x.z.z.%.;.;.4.x.N.N.x.%.%.%.o...] o.f.N.V.S.U.T.(. X XXXXX X(.(.!.(.Y.Y.T.Y.Y.Q.T.Y.U.I.C.V.N.x.x.x.x.x.x.z.f.;.;.%.%.%...H 1 ; - ; ; 8 p B S a t a S S F S B B b S b F F ` .... .[ L G `  .....| #.%.f.x.V.V.x.;.%...[ ` ` F D b t # 1 ; ; ; ; - > > > > - ; ; - - > - - - - - > > > > > - ; 1 1 ; ; ; 1 1 ; - > - ; w t t b b z 0 0 t t r w a S F F F S F F b t 4 ; ; - - ; 1 2 r t z S F b t e u b F  .%.%.4.V.v.z.%.` ",
"%.%.#.%.%.;.%.;.1.x.x.x.x.x.x.x.N.V.C.S.J.Q.Q.!.Q.Q.(.(.(.(.!.T.Y.Y.H.H.U.H.S.C.V.N.N.N.x.x.x.x.z.f.x.N.V.C.C.N.4.;.;.%.%.#.a.x.V.S.I.Y.!.(.!.!.(.(.(.Q.Y.Y.Q.Y.Y.Y.Y.Q.!.!.!.!.T.U.I.V.V.V.V.V.V.V.N.x.x.x.4.;.1.a...H p 1 1 2 a S D F D S J J D D G G J F L G L `  . .{ { ] _ _ ` [ { { { { ` #.x.V.V.N.x.;.%...{ [ [ _ D b t p # @ o 1 ; - > > - ; ; - > > > > > > > - - > > > - ; 1 1 ; - - - - - - > > - 1 w t t t r p w r t u t t S L ` ` ` ` G D u z t % ; - > > ; @ # w t B b b b t z b F ..%.;.4.v.v.v.z.%.",
"%.%.%.%.%.%.f.1.z.z.x.z.z.z.z.x.x.V.V.S.U.Y.Q.!.!.(.(.(.(.(.Y.T.Y.Y.Y.Y.H.H.H.S.C.V.N.V.N.N.N.N.N.N.V.C.C.C.C.V.N.x.f.%.%.%.f.x.V.I.U.Y.T.T.T.T.Y.Y.Y.Y.Y.Y.Y.Y.Y.Y.Y.Q.(.(.(.(.T.U.U.C.V.V.V.V.V.V.V.V.N.N.x.x.1.%.%...L H a a S S b n F D J J J D _ ` `  . . . .} ..{ ` ` ` L L L F G ` [ ` ` ..;.N.V.N.x.4.;.%.......{ ` D b b 0 w # # # ; - - 1 @ @ - > > > >   > > - - - - ; ; 1 1 ; - > > > > > > > > ; @ # # # # @ 1 @ # r f b b F ` { ......{ G b F b t 2 ; > > - ; @ @ # w r t t z b F { ..%.;.x.v.v.v.x.x.",
"o.%.%.%.%.%.z.z.z.x.x.1.1.z.f.z.x.x.V.S.U.Y.Q.!.!.(.!.!.Q.(.Y.Y.Y.Y.K.K.K.H.S.I.V.V.V.V.V.V.V.V.V.V.S.C.S.S.S.V.V.x.x.;.;.1.x.V.V.I.Y.Y.Y.Y.Y.Y.Y.Y.H.Y.Y.Y.Y.Y.Y.Y.Y.!.(. X(.!.Y.I.S.S.C.A.V.V.V.C.L.V.V.V.C.N.x.z.%.%...] F D S S b b S S S S S D _ [ ............ .` L _ ` L G F S F L ` { ..%.4.N.N.V.V.N.;.;.%.%.#.|  ._ D b t u u t p 1 ; ; @ + # ; - > > > > > > > - ; ; ; ; ; ; - > > > > > > > > > - 1 @ @ @ o - ; ; @ # t b L { ..%.%.%.#.| ..{ ` G S i 1 - > > - ; ; @ # w a f S D L  ...%.f.x.x.V.V.x.x.",
"....%.a.a.f.x.x.x.x.x.z.1.z.f.z.x.z.x.V.S.Y.Y.Q.Q.Q.Q.Q.Q.Q.Y.Y.Y.Y.Y.Y.Y.U.S.I.V.V.N.V.V.V.V.V.V.S.S.H.H.S.S.L.V.V.x.x.x.x.V.V.S.S.Y.Y.Y.Y.I.J.Y.H.H.Y.Y.Y.Y.Y.Y.Y.Y.Y.(. X(.Q.Y.S.S.S.S.S.C.S.C.I.I.C.C.C.U.I.V.v.z.f.%.#...{ ` J b t f S S b b S _ { ............ .{ L L L L G F S S S G { ..%.4.x.N.V.N.N.4.4.;.%.%.#...{ [ F D D n b b w # # w w w # ; - > > > > > > - 1 1 ; - > > > > > > > > > > > > > ; @ # # @ ; ; o @ # t D ` ..#.%.%.%.%.%.| .. .` D a 2 ; > > > - ; @ # w a S b D L { | %.1.x.v.V.v.V.N.",
"..| %.%.a.f.x.x.x.x.x.x.x.z.z.x.x.x.x.x.V.I.J.Y.Y.Q.Y.Y.Y.Y.Y.Y.Y.Y.Y.Y.Y.Y.Y.I.C.V.V.V.V.V.V.C.S.S.H.H.H.H.U.I.L.V.V.N.N.V.V.V.S.H.Y.Y.Y.Y.Y.Y.Y.Y.Y.Y.Y.!.T.Q.Y.Y.Y.Q.(.!.!.Y.U.U.S.U.U.U.C.S.S.S.S.C.C.U.T.Y.U.V.x.x.z.%.%.%... .D e r i r t b J L [ { { ......| .. .G F J J D b b b b G { #.;.4.x.x.N.N.4.4.4.1.%.%.%.#...{ { [ _ G b F z r r r w w 4 ; - > > > > > > - ; ; - > > > > > > > > > > > > > > ; 1 # # # 2 # # p B b ] ..#.%.%.%.%.%.%.| .. .[ G b w ; - - - ; 1 @ % t B b t b L ..#.%.;.x.V.V.v.v.x.",
"....%.%.%.f.f.z.x.x.x.v.V.x.v.N.x.x.f.;.x.V.S.U.U.Y.Y.Y.Y.Y.Y.Y.Y.Q.Q.(.Q.Q.Y.Y.S.V.V.V.V.V.V.V.C.S.H.H.H.H.U.U.I.S.S.V.V.V.V.C.S.U.Y.Y.Y.Y.Y.Y.Y.Y.Y.Q.Q.!.(.(.Y.Q.Y.(.!.Q.Y.Y.Y.Y.U.Y.Y.U.H.S.S.H.H.H.C.U.Y.Y.S.C.V.x.x.z.f.f.%.%.] S # @ # r S J D G { {  . .{ | |  .G D D S S b D D L ` ..%.;.;.;.x.x.4.4.4.4.;.;.%.%.%.%.| .. .{ ` L D D b t + # @ ; - > > > > > > > > > - > > > > > > > > > > > > > > - 1 # @ @ @ @ # w t S L } %.%.%.%.%.%.%.#..... .` L S a # 1 ; ; 1 w r t t b z b F L  .o.%.;.x.x.v.v.x.1.",
"....#.%.%.;.f.f.x.x.v.V.C.V.V.N.N.x.a.#.%.x.V.S.S.S.S.I.U.J.J.Y.Y.Q.Y.!.Q.Q.Y.Y.S.V.V.V.V.x.V.V.C.S.S.H.H.U.U.U.U.H.S.C.V.V.C.S.I.U.U.Y.U.Y.Y.Y.Y.T.Y.Q.Q.(.(.(.(.(.(.(.!.Q.Q.Q.!.Y.Y.Y.T.Y.Y.Y.Y.Y.J.U.U.H.S.I.S.C.V.V.v.x.x.x.f.f.a...K Z a S D G G F G ` ` ` `  .#.o. .] ` L L G L L `  ...%.%.;.;.;.4.;.;.;.;.;.;.%.%.#.#.o..... . .{ { ` M F a # @ ; - > > > > > > > > > > > > > > > > > > > > > > > > > ; @ @ @ @ $ # t a J { ..%.%.%.%.%.%.o.| .. . .` L F S S B p # w t t u b b b S S D [ ..| %.z.1.1.z.x.;.",
" ...o.| %.%.;.z.x.x.v.V.V.V.V.N.N.f... .o.a.x.V.V.C.S.S.S.H.S.Y.Y.Y.Y.Y.Y.Y.Y.Y.S.v.v.x.x.x.x.V.C.S.S.S.S.U.U.U.U.H.H.S.S.S.S.S.S.S.S.U.U.Y.Y.Y.Y.T.Q.Q.(.(.!.(.(.(.(.(.(.(.(.(.(.(.(.(.(.(.(.!.!.!.Y.Y.Y.U.H.U.U.I.S.C.C.C.V.N.x.x.f.%...] J D D G L L D L _ L ` { #.%.%..... .] [ [ _ ]  .....%.;.;.;.1.;.;.;.%.%.#.#.#.......#.......| } { { ` G a r 2 ; - > > > > > > > > > > > > > > > > > > > > > > > > - ; ; ; o @ # w S D { ..o.%.%.%.%.%.o.o... . .` ` G F D F S B z z b b b b t t t t F [ ..%.%.%.%.%.1.<.",
" .....o.#.%.%.z.f.x.x.V.V.V.V.x.;.%. .L ] ..f.x.N.V.C.S.S.S.I.U.Y.Y.Y.Y.Y.Y.Y.S.S.V.V.x.x.x.x.V.V.V.C.S.S.I.I.I.S.S.H.S.S.S.C.S.S.S.S.I.I.I.U.Y.Y.Y.T.!.!.(.!.!.(. X X(.(.(.(.(.(.(.(.(.(.(.(.(.(.(.(.!.Y.Y.Y.Y.Y.Y.U.H.H.S.S.C.V.N.f.;.%... .` F D L F G D L L `  ...#.#.#.#.%... . . . .{ { ..%.;.f.;.;.;.%.#.| | } { }  ...} } } ....| | { } { ` F t w 2 ; > > > > > > > > > > > > > > > > > > > > > > > > > > > - ; ; @ w z F {  ...%.%.%.%.%.%.%....... .` _ _ L L F S b b u b b t a r r t D [  .{ | | o.%.%.#.",
"` {  .o.o.%.%.%.%.z.x.N.N.v.x.;.%...F z J  .%.z.N.V.V.C.S.S.S.F.J.J.Y.Y.Y.Y.H.S.A.S.V.x.x.x.x.x.v.V.V.V.C.C.S.S.S.S.S.C.C.C.C.S.S.S.S.I.S.S.U.Y.Y.Y.Y.Y.!.!.(.(.(.(. X X X XXX_._.XX(.(.XXXXXXXX(.(.(.(.(.T.Y.Y.Y.Y.Y.Y.U.Y.I.S.V.N.x.;.;.%...{ ` L L G D n D G L `  ...#.%.%.%.o.o..... . ...#.%.;.;.;.;.;.%.#...{ { { { { { [ [ [ [ ` ` ` ` { { G D b t a 1 - > > > > > > > > > > > > > > > > > > > > > > > > > > > - ; # r S F `  .......| %.%.%.%.%.o.o. .[ L L L D b x z t t z z w # # r S _ ` { ` G [ { ....#.",
"] ] {  ...o.%.| %.%.f.x.x.x.z.;.#.` F S S L ..%.f.x.V.V.C.S.S.S.S.H.H.H.J.Y.S.S.A.V.V.x.x.x.f.x.x.x.x.V.V.V.V.V.V.C.C.C.C.C.S.S.C.S.S.S.S.S.U.U.Y.Y.Y.Y.T.!.!.!.(.(. X X_._. X_. X(. X(.XXXX(.(.(.(.(.(.(.(.(.!.Q.Y.!.Y.Y.Y.S.S.C.V.N.N.f.;.#.{ L D F S S b D D G D D G _ { #.#.#.#.#.#.....#.#.%.;.x.x.f.;.;.#...{ { [ [ ` ` ` L ` D n S D G ` ` M F b B i 1 - > > > > > > > > > > > > > > > > > > > > > > > > > = > > 1 p B F L ` {  .{ ....#.%.%.%.%.%.o... .[ L b S z r r r r r w # # # p S G ` L G F D G ` [  .",
"L L ` {  ... .X.| %.%.%.f.%.%...` G L L D L ..%.;.z.x.V.V.S.S.S.S.H.S.H.H.C.S.A.A.V.V.x.z.x.f.x.x.x.4.4.N.N.V.V.V.V.V.V.V.A.V.V.V.V.V.S.I.I.U.H.U.Y.Y.Y.Y.Y.Q.!.(.(.(. X X(. X_. X X(.(.(.(.(.(.(.(.(.!.(.(.(.(.(.!.!.Q.Y.Y.H.S.C.C.V.N.x.;.%. .D f a a a t b t t t a S D _  ...#.%.%.#. .[  .#.%.;.;.4.4.x.%.%.#...[ ` ` G F F b b t t t t b z t r % # 1 ; - > > > > > > > > > > > > > > > > > > > > > > > > > > > > - 1 r S D L L ` ` ` { ....#.#.%.#.%.#...} { ` F F t w r z b B t r w # w u S L _ L D F F L L ` ",
"F F G G ` L L L ` [ ....#.%...{ F L  . . ...p.a.;.z.z.x.V.V.S.S.S.S.S.S.S.C.A.V.V.N.x.x.x.x.x.1.1.1.;.x.x.x.N.N.N.x.x.v.v.v.v.V.V.V.V.C.C.S.S.S.S.H.U.Y.Y.Y.Y.!.!.!.(. X X X(.(.(.(.(.(.(.(.(.(.(.!.!.!.(.(.(.(.(.(.!.Q.Y.Y.U.U.S.S.V.V.N.f.a..._ S t r w r r t t t a a f J ] ........ .` [  .....#.;.4.4.x.1.;.%.| .. . .G b t t t 0 9 + # # 1 ; ; - - > > > > > > > > > > > > > > > > > > > > > > > > > > > > > > > & @ r S D F G G F F L ]  .o.o.%.#.#.#... .{ ` ` L S t b b b S S a w # # w t b F F J F F L ] ` ",
"a p p a S S S f D G ` { { L F S L  .o.%.#.%.a.f.;.f.z.x.v.V.V.V.A.A.A.V.V.V.V.V.x.x.x.x.z.f.f.1.f.;.;.z.x.x.x.x.f.x.x.x.x.v.v.v.v.v.V.V.V.C.C.S.S.S.S.U.Y.Y.!.T.Y.!.!. X(.(.(.(.(.(.(.(. X(.(.(.!.!.!.!.!.!.(.(.!.!.Q.Q.Y.Y.Y.H.S.S.C.C.N.x.;.#._ G b t p w r t e t t e f L  .{ .... .[ [ ' [  . ...%.;.4.4.4.;.%.%.#...` F S t r 0 t + @ @ # ; - > > > > > > > > > > > > > > > > > > > > > > > > > > > > > > > > > - ; 4 a S F b F F S F D ` ....o..... . .` D J G G F F F D G D b S S a w @ @ w a S S S t r t H b ",
"1 1 1 i p p p a S S D D D S S L ..o.%.%.%.%.a.%.%.f.z.x.z.x.V.V.V.V.V.V.V.V.v.x.x.x.x.4.1.;.f.f.f.f.;.f.f.;.;.f.f.f.x.x.x.x.x.x.x.v.V.V.V.V.V.V.S.S.S.S.F.Y.Y.Y.Q.Y.!.!.(.(.!.(.!.!.!.!.!.Q.Q.Q.!.!.!.!.(.(.Q.(.Q.Q.Q.Y.Y.Y.Y.Y.H.H.C.V.V.x.f.%.o. .` D S B S S u f t S D ` { ]  . .{ ` _ G L G [ | %.;.4.4.;.;.;.%.#...[ G D S z z r # @ @ 1 - > > > > > > > > > > > > > > > > > > > > > > > > > > > > > > > - ; 1 # w t u b b b S b b b F { ..o... . .` _ G J F b t t t z z b b z S f a # ; 1 r t t B t # # 1 1 @ ",
"- - ; 2 w 2 1 2 a a t S S S F { ..o.o.%.%.%.%.%.;.;.%.f.z.x.x.V.V.V.N.V.V.x.z.z.x.z.x.f.;.;.;.f.;.%.;.;.;.;.;.;.;.;.f.x.x.z.x.x.N.N.N.V.V.V.V.V.V.C.C.C.C.H.J.Y.Y.Y.T.!.!.!.!.Q.!.!.!.!.!.!.T.T.!.Y.T.T.T.Q.Q.!.!.Q.Q.Y.Y.Y.J.H.H.H.C.V.N.x.f.%.%.o...L D D S S t a a S G G G L _ [ { ` S t u L { ..%.;.;.4.x.f.;.%.%...[ M n t t 0 r # 1 ; ; - > > > > > > > > > > > > > > > > > > > > > > > > > > > > > > ; 1 i r r r t t t r w r 0 0 t S G { {  .{ L D D F S S z t z z t t z B S S t % ; ; @ w t t t r # ; - - > ",
"> > ; 2 w 1 ; 1 a f S J S S L  ...o.o.%.o.%.o.o.%.%.%.%.%.%.z.1.4.x.x.x.x.z.f.%.;.;.f.f.f.%.%.;.%.%.%.;.;.;.;.%.;.%.;.;.1.1.x.x.x.x.N.N.V.V.V.V.V.V.C.C.C.C.S.S.Y.Y.Y.!.!.!.!.!.!.!.!.!.!.!.T.T.T.T.Y.Y.Y.Q.Q.!.!.!.!.T.Y.Y.Y.Y.U.H.C.V.x.f.f.%.%.%.[ ` J S b t t r r S S S S S b G ` n S S f _  ...#.%.;.;.1.;.;.;.%.o.{ G n b z t r # @ o 1 ; > > > > > > > > > > > > > > > > > > > > > > > > > > > - - ; # w 0 0 r w r w # @ 1 # # r r a D ` ` ` L F b b b u t t r w # # + # p a t a 2 @ @ # t S S t r # 1 - > > ",
"> > ; 1 2 @ ; 2 a S S S S S L  .....%.#.o.o.#.| | o.o.#.%.%.%.%.;.;.;.;.;.%.%.%.%.%.%.%.%.%.%.%.%.%.%.%.;.;.;.a.f.;.;.;.1.1.x.x.x.N.N.N.V.V.V.V.v.v.V.V.x.V.V.S.Y.Y.U.Y.Y.!.!.!.!.!.!.(.T.T.T.Y.Y.Y.Y.Y.Q.Q.!.Y.Q.Q.Y.Y.Y.Y.Y.S.S.V.x.N.f.f.%.#... .L J S u t r w p a S S a r r b F L ` L L G `  .o.%.%.;.;.%.;.;.;.%...[ F D F F S t w @ 1 ; ; > > > > > > > > > > > > > > > > > > > > > > > > - - ; 1 @ # r w w w w w w # 1 1 ; 1 # r e S L G G F D D F F u e 0 r i 2 1 @ @ @ i a t a a r r t J D D t w # ; > > > ",
"> > ; 2 i a p a B S J J F J L  ...| ....#.%.#.#.#.| | %.#.#.%.%.%.%.%.%.%.%.%.#.%.%.%.%.;.%.%.%.%.%.;.;.%.;.%.%.%.;.1.z.z.x.x.x.x.x.N.N.N.x.V.V.v.V.v.x.4.x.V.C.I.S.S.I.Y.Y.Y.!.!.!.(.(.(.(.T.Y.Y.Y.Y.Y.Y.T.Y.Y.Y.Y.Y.Y.Y.U.S.I.V.V.V.x.f.%.%. .L a # 2 2 w i 2 1 2 i a a 4 2 p J ] ] ]  . . .{ ....| #.%.%.%.;.;.;.%.#...[ [ ] G S S a w 1 ; > > > > > > > > > > > > > > > > > > > > > > > - - ; ; ; 1 1 @ # # # @ 1 1 1 ; ; ; ; ; # r a S b G F b F F G G F S b b a 2 ; 1 p B S S S S J J F L ] ] G B w # ; > > > ",
"> - 1 r e f f f S S b D J S J { ..o.| ....o.o...| | ....o.o.%...%.%.%.%.| o.o...#.#.%.%.%.%.%.%.%.;.;.;.%.%.%.%.;.;.;.f.x.x.x.x.x.x.x.x.x.x.v.V.V.v.v.v.x.x.V.V.V.S.S.S.S.Y.!.!.!.!.(.(.(.(.!.T.T.T.T.T.T.Y.Y.Y.Y.Y.Y.Y.Y.U.S.C.V.v.x.%... .] J 4 ; ; ; ; ; ; ; ; 1 p p 1 ; ; 1 a G ` ` ` ] ] { { ....#.%.%.%.;.;.;.%.%.#.#.o. .L J S a w ; - > > > > > > > > > > > > > > > > > > > > > > > > > - - - - - - ; ; - - - - - - > > - ; # 0 0 0 z F b z t b b D L _ ` ` S 2 1 i B ` .... .` L L G ` .. .` t # 1 - > > > ",
"- ; w a a t a a a S S b S S D  ...| o.o.o.o.%.o.o.o.#.#.o.o.| ..#.| o... . .`  .....%.%.#.%.%.%.%.%.%.%.;.;.;.f.f.l.;.1.x.x.x.x.x.x.x.x.x.V.v.V.V.v.v.x.x.x.x.N.V.V.V.S.S.Y.Y.Y.!.!.!.(.!.!.(.!.!.T.Y.Y.T.T.Y.H.I.I.I.U.U.S.V.V.x.;.#. .L B p 1 ; > > > > > > - ; 1 6 1 - > > ; 1 i B S B J L [ { { { ..| #.%.;.%.%.%.%.%.....] L D J B 2 ; > > > > > > > > > > > > > > > > > > > > > > > > > > > > > > > - - > > > > > > > > > - ; @ # # # w r t 0 r t b D G ` {  .F a J ]  .o.%.%.%.| { {  .....X.{ S 2 ; > > > > ",
"; 2 a f t t # 2 p a b t t F G [ } ....o.o.o.o.o.o.o.o.o.....X........... ._ J L  .....| #.#.%.%.%.%.%.%.%.%.;.;.;.;.;.1.4.x.N.x.x.x.x.x.V.V.N.V.V.v.x.x.x.x.N.x.V.V.V.S.S.I.U.Y.Y.!.!.!.!.!.!.!.!.T.Y.T.T.T.F.I.I.L.C.C.V.V.V.x.x.%.%. .L p 1 ; ; ; - - > > > > - - - > > > > > > ; ; 1 1 @ a L { { [  . . ...#.#....... .{  .` F S b z i 1 - > > > > > > > > > > > > > > > > > > > > > > > > > > > > > - - > > > = > > > > > > - - ; @ @ @ @ # r r t t t b F L ] { ` { ..o.#.%.%.%.%.%.%.#.o.o.| ..{ F % ; - > > > ",
"2 i a t t w 2 1 2 a a a f J G L { {  ...o.o..................... . . .{ { ` J J ] [  . ...| | %.%.%.%.%.%.%.%.%.%.;.;.;.z.x.x.x.x.x.x.x.v.v.V.V.V.V.v.v.x.x.x.x.x.V.V.N.V.V.C.H.Y.Y.Q.(.(.!.!.T.T.T.!.!.!.T.Y.I.C.C.C.V.V.V.N.x.x.;.%...] H i p p Z 4 ; - > > > > > > > > > > > > > > > - - 1 a L ` [ ` L D F G _ ` [ [ [ L L L b t t r i 1 > > > > > > > > > > > > > > > > > > > > > > > > > > > > > > > > > > > > > > > > > > > > ; ; @ @ @ $ w w w w r t b F `  ...%.%.%.%.%.%.%.%.%.#.#.....|  . .L p ; - > > > ",
"2 1 1 i w w % i a B H f S S H H F G L { .................. ...{ { { { { L L L ] ] ` ` ]  .....#.%.%.%.%.%.%.%.%.%.%.;.;.;.1.z.x.x.x.x.x.v.v.V.V.N.N.N.V.V.x.x.x.N.N.x.x.x.N.V.S.Y.Y.Q.(.!.Y.T.T.T.!.(.(.(.!.Y.Y.S.V.V.x.x.x.z.f.;.%.%... .] L L  . .L p ; > > > > > > > > > > > > > > > > - ; i B S B a w # # a S D L L G S f L L f 2 ; - - > > > > > > > > > > > > > > > > > > > > > > > > > > > > - - - - - > > > > > > > > > > > - ; ; @ @ @ @ @ @ # w a S F `  ...#.#.%.%.%.%.%.%.#... . . ...o..._ a 1 - - > > ",
"; - - ; 2 p S F D J H B a r i # w B G {  .{  ......... . . .{ { { ` L G G J ] ] ` L D ] ] [ { ..%.#.%.%.%.%.%.%.%.%.%.;.f.f.f.x.x.x.x.x.x.v.V.V.v.V.V.V.V.V.V.N.x.x.x.z.x.x.x.C.H.Y.T.Y.!.Y.T.T.(.(.(.(.!.!.!.Y.H.C.V.x.x.z.z.%.%.#. .[  ... .o.o.] S 3 - > > > > > > > > > > > > > > > > - ; @ i 2 2 2 1 1 1 # a F G G F a t L _ a 1 - > > > > > > > > > > > > > > > > > > > > > > > > > > > > > - ; 1 ; ; ; ; ; ; ; - > > > > > - - ; ; o ; ; ; ; @ % r t S F J ` {  .......#.%.%.#..... . ... . .] S w 1 ; ; ; ; ",
"- > - - ; p S D J F S a p i 1 1 1 i S G L L {  . . . .] L L L L L L G J L G G _ L L ] L L G `  ...o.%.%.%.%.%.%.%.%.%.;.;.;.1.1.1.x.x.x.x.v.v.v.v.V.V.V.v.V.x.x.x.x.z.z.f.f.x.V.S.Y.Y.Y.Q.Y.Y.!.(. X(.(.!.!.Q.Y.Y.S.V.N.x.f.a.s.o.o.[ ] ]  ...o.r.] p ; > > > > > > > > > > > > > > > > > - ; ; ; ; - - - - ; 4 f F b b S t a F L a 1 & > > > > > > > > > > > > > > > > > > > > > > > > > > > > > - ; 1 1 @ # @ 1 @ 2 1 - > - - - - - - - - - - ; 1 # w t t S J J G G [ {  . .....#.#.......o... .] L a # o @ # % 2 ",
"> - - ; ; i a S S a p 2 2 1 ; ; ; 1 i a S F F ` L L ` J S S J J S H S S H S J F F J J G J D L ]  .......| o.%.%.%.%.%.%.;.;.;.1.1.z.z.x.x.x.x.v.v.N.v.x.x.x.x.x.f.x.f.f.f.f.x.N.C.H.J.J.Y.Y.Y.T. X X X X!.!.!.Y.Y.H.S.V.x.f.%... . . .] ]  . . .] L i ; > > > > > > > > > > > > > > > > > > > > > > > > > - ; 2 r t b b a r a G D r @ ; - - > > > > > > > > > > > > > > > > > > > > > > > > - > > - - ; 1 @ # @ @ # w # 1 3 4 8 1 - > > > > > ; ; 1 1 2 w r a S J F G ` ` {  . .....| ....o.o. .] ] L a i # # w r r ",
"- , ; ; ; 1 2 r i 2 ; ; - - - - - ; 1 i B B S J S S F B a p a a p p p a r r a a w p a f a a S L {  ...o.o.o.o.o.o.%.%.%.%.%.;.;.f.1.1.1.1.1.1.z.x.x.x.x.x.V.x.x.x.z.%.f.f.f.x.x.V.S.S.S.I.Y.Y.T.E.E.(.!.!.T.T.Y.U.H.S.C.x.f.a.r.] ]  ..... .] L L J 4 & > > > > > > > > > > > > > > > > > > > > > > > > - ; ; o @ w t t a w a S B w @ 1 ; > > > > > > > > > > > > > > > > > > > > > - ; , 5 1 ; - - ; ; 1 1 1 1 1 # r r H  .r.X.B ; > > > > - - ; 1 # # # # w t F G L ` ` [ {  . . ......... .] ] ] G F S a r r 0 a ",
"5 6 6 3 ; ; 1 # 2 ; - - > > > > > > ; 1 i p a a a a p i 2 2 2 1 1 1 1 2 2 2 1 1 ; ; 1 # i a f G ` [  . . ...o.....%.%.%.%.%.%.%.%.%.%.%.%.%.1.z.x.x.x.N.N.N.x.x.x.z.z.f.f.f.z.x.x.V.V.C.S.I.Y.Y.Y.Y.Y.T.Y.Y.Y.Y.U.S.S.V.V.x.z.a.#.%.o.s.r. .] ] ] L 4 - > > > > > > > > > > > > > > > > > > > > > > > > ; 1 1 ; ; # i i i # w i 2 1 ; - > > > > > > > > > > > > > > > > > > > > - ; 4 B H L B 2 ; ; - ; ; ; ; ; 1 # B L ..%.%.o.J 1 > > - ; ; ; ; # r w # @ w S G `  .[ ` G L [ { [ [  . . .] ] ] ] G F F S t t w w ",
"H L J a p 2 2 i p 1 ; - - - > > > > - 1 2 i p p 2 2 1 1 1 ; ; ; - ; ; ; ; ; ; > > > ; 1 2 a S F L `  . . . .......o.o.o.| %.#.#.%.%.%.%.%.%.%.a.f.x.x.V.V.V.x.x.x.x.f.f.f.f.z.z.1.4.x.V.V.C.S.U.I.F.Y.T.Y.U.U.H.S.C.C.C.V.V.x.x.f.f.a.a.s.o... .{ L p 1 - > > > > > > > > > > > > > > > > > > > > > > - ; 1 1 ; ; 1 1 1 5 1 1 ; ; - > > > > > > > > > > > > > > > > > > > > > ; 1 i L ..%.o.L B 2 ; - - - - - ; 1 p L r.a.f.%. .S 1 ; - - 1 4 2 # w S B r p S L {  . .` F b F L L L L L L L L G ` _ F G F S a t p # ",
" . .` J S a S B p 1 ; ; ; ; - > > > - ; 1 1 2 1 ; - - ; ; - > > > > - - - > > > > > ; 1 # a F F ` ` [ ] ] ]  ......... . . .......o.o...o...o.%.%.f.z.x.x.v.x.x.z.f.f.f.f.a.%.%.%.%.%.f.x.V.V.S.I.I.U.U.U.H.S.S.V.V.V.V.V.V.v.x.f.f.%.%.%.a.o. . . .L p ; > > > > > > > > > > > > > > > > >   > > > > > - 1 2 1 1 ; ; ; - - - - - > > > > > > > > > > > > > > > > > > > > > - 3 p J  .%.%... .L a 4 1 ; ; ; ; 4 H { s.x.z.a...G S i 1 ; ; 2 p a a S G J J G ]  ..... .` L G G ` L J G F S S S F F F S F S S a a a # ",
".. . . .L F F F a 1 * & ; ; - - - ; ; ; - ; ; - > > > > - > > > > > > > > > > > > - ; 1 i S G { { { [  . .]  . ... .] _ L L ` { ` ` ` ]  . ...| %.%.a.f.z.1.1.z.f.f.a.a.%.%....... .o.%.;.x.V.C.I.I.I.C.S.C.C.V.V.V.N.N.V.v.v.x.z.a.%.%.f.f.a.%.o...] B 1 > > > > > > > > > > > > > > > > > > > > > > > > - ; 1 1 ; ; - - > - - - > > > > > > > > > > > > > > > > > > > > > ; p L  .%.%.o. .] ] ] L H p 4 4 p L s.z.v.V.z.%.` F S a i i p p a B J G L L `  . ...o.o.....o..... . .G J S a r t t t t u S S F S S a r ",
"%.o.o... .] L G B 2 ; ; ; 1 5 ; ; ; ; ; - > > > > > > > > > > > > > > > > > > > > > ; 1 p J L { { {  . . . . .{  .] L G J J J J F S S J G L  .....o.%.%.%.%.%.%.%...o.....] L L L ] .. .%.z.N.V.I.L.V.N.N.V.V.N.N.V.N.x.v.x.x.z.z.a.%.a.f.f.f.%...] L H 6 ; ; - > > > > > > - - - - > > > > > > > > > > > > > - - - - - > > - - - > > > > > > > > > > > > > > > > > > > > > 1 H ..o... . . .]  ...%.%...{ { ..%.f.x.N.N.f.%. .G F S H J J J S G G G `  ...o.%.%.%.%.%.%.%.%.%.%.%. .L J S t r r a S F D D L L J S a ",
"%.%.o...] L S a 4 1 1 2 8 p p 1 ; ; ; - > > > > > > > > > > > > > > > > > > > > > > - ; i S G L {  ... ....... . .` L G J S f f a a a a S J ] ]  . . ...| o... .] ] ] ] L G J S f J o. .o.%.z.x.v.N.x.f.f.x.x.x.x.x.N.x.x.x.z.x.f.f.a.f.z.f.a.%. .L L H p 2 1 1 ; - - - ; 3 4 4 4 3 ; - > - - - > > > > > > > > > > > > > > - - > > > > > > > > > > > > > > > > > > > > > - 4 G .. ._ G ` ] L  ...%.f.f.f.f.z.1.;.x.x.N.x.;.%.] ] ]  . ._ L J J J F ` ..%.%.%.%.f.;.;.;.f.f.f.f.a.%. .] L S z z S J G L L J G G J b ",
"a.%.o... .H 2 ; ; - ; 2 p a i 1 ; ; - > > > > > > > > > > > > > > > > > > > > > > > > - 1 i a J L ] {  ...#.o... . .L G S t t r r w p a S J L G L { G G L ] ] G J J G L J S a a S H  . .]  .%.%.f.f.a.%.%.%.%.%.%.f.x.x.x.z.f.f.f.z.f.x.z.;.%.#. .L G J J B p # 4 p 4 4 B L L L H a 6 ; ; 3 4 ; - > > > > > > > > > > > > - ; - - > > > > > > > > > > > > > > > > > > > - ; p ]  .L F S S B S G ] o.a.f.;.f.f.f.z.v.V.S.V.V.x.%.o.] o.o.] D S S G ` ..s.f.f.f.z.z.x.x.x.x.x.x.x.x.z.a.%...[ ` L L L L L L L G J S B ",
"x.1.%.o.X.H 4 ; > > ; 1 2 a p i 2 ; - > > > > > > > > > > > > > > > > > > > > > > > > > ; 1 2 i a G L ]  ...o..... .L D S a w 2 4 i a a S S J S B S a p p B S S S S S f a i i p a J ] L J L  ...%.%.o... ...o.o...#.;.f.;.f.%.%.%.f.;.f.f.;.%.%. .L _ ] L F B S L  .{ ..o.%.%.%. .L B 4 2 p B 4 ; > > > > > > > > > > > - ; 1 ; ; ; - > > > > > > > > > > > > > > > > > - 4 H ] ] F t t t # % B L o.a.z.;.;.x.N.V.S.H.J.S.S.C.N.%.%.f.f.%. .L ] o.%.x.N.N.N.x.x.V.V.V.V.V.V.N.N.V.V.x.x.;.%.%.o..... . .] G F J p i ",
"v.x.f.%...F Z 6 ; ; 3 p p a a a i ; - > > > > > ; ; ; - > > > > > > > > > > > > > > > > > - ; 1 2 a B B J L  .{ { L G S a i 2 1 1 2 p p p p p 4 1 2 1 1 6 p a f f a p i 2 2 2 2 p S S S B S J J ] ]  ...{ L ]  .` [ ..%.%.%.%.%.%.%.%.%.%.%.a.#. .L ] ] L J G G  ...| %.4.4.x.;.%.%. .L J J L H 4 ; - > > > > > > > > > - ; 1 1 ; ; ; > > > > > > > > > > > > > > > > > ; p J J B i 2 i i # @ i G %.z.x.x.N.V.S.J.Y.Y.Y.Y.Y.Y.S.S.V.V.N.x.z.%.f.v.V.V.C.C.V.V.C.S.S.S.I.I.C.V.V.V.C.V.N.x.z.f.a.a.%.%.o. .` F p 1 ; ",
"1.z.%.%.| P H p 2 p S S S S S B i ; - - - ; , 3 6 4 1 ; > > > > > > > > > > > > > > > > > > - ; ; 5 5 1 2 a F L G G S a i 2 1 ; ; 1 1 1 1 , ; ; - ; ; 1 6 a f f a B r p 2 1 1 2 p a p 4 1 1 4 p S J ] [ L G J J J J L ` ..o.o.o..... .o.%.%.%.o.L S S B a S S J J ` ..;.x.N.V.N.x.z.f.%... . .] S 2 ; - > > > > > > > > > ; 1 ; ; - - > > > > > > > > > > > > > > > > > ; p B a 2 1 1 @ % a a B  .f.v.V.V.C.S.Y.Y.Q.(.(.Q.Y.!.Y.Y.Y.S.C.V.V.V.V.S.I.I.I.S.S.I.I.Y.Y.Y.U.I.I.I.S.S.S.C.V.x.x.x.x.z.f.a.%.o.] J i ; - ",
"<.%.%.%.| { F S f S J J S F F J B 4 1 1 1 2 4 p a a i 3 , ; ; ; - > > > > > > > > > > > > > > > - - - - ; 1 p B a p 4 6 3 ; - - - ; ; ; - > > > > > - ; 6 i p p p p p p 2 1 1 2 4 2 1 ; ; ; ; 2 p S J J J J S J J S H J J ]  ... . . . .......] B i i % 4 w p a a J ..;.N.V.V.V.v.x.x.1.;.%.#...L B 6 ; > > > > > > > > > > - - - > > > > > > > > > > > > > > > > > > - ; 4 i i 2 1 1 # p J L  .%.x.x.V.V.S.H.Y.Y.Q.(.(.(.Q.!.!.!.Q.Y.U.I.I.S.I.I.I.U.U.U.Y.Y.Y.Y.Y.Y.Y.F.U.Y.U.U.I.S.V.V.N.V.V.x.x.l.a.s.r.L a 1 ; ",
"%.%.%.%.o. .` L L L S S S S J J H a 2 2 p p B J F F S B a p p p 3 - > > > > > > > > > > > > > > > > > > > - 1 3 1 ; ; - - > > > > > > > > > > > > > > - ; ; 1 1 6 2 6 3 5 ; ; ; ; 1 , - - - ; ; 1 i a B S S S J S B B a a S L ] ] ` L L ] L G B 2 1 p p p # # 2 r D o.f.x.N.N.N.N.V.x.4.4.;.%...] B 3 ; > > > > > > > > > > > > > > > > > > > - ; - > > > > > > > > > > ; ; 1 1 2 2 2 i a J ..%.1.x.x.V.V.S.H.Y.Y.Y.(.(.(.Q.!.!.(.Q.!.T.T.Y.Y.Y.Y.Y.U.Y.Y.T.T.Y.Y.Y.Y.Y.Y.Y.Y.Y.U.U.I.I.L.V.V.V.V.V.x.z.f.f.a.w.L Z ",
"%.%.%.%.%.%.o.| .. .L S S S J S S S a a f F P  .] ` G G L L L L B 3 - > > > > > > > > > > > > > > > > > > > > - - > > > > > > > > > > > > > > > > > > > > > > - ; ; - - - > > - ; 1 5 - > > - - ; 1 1 6 4 p p a p p i i p a S J L J J S S S a 2 2 2 a S B p i % r L o.f.z.;.z.x.x.V.v.4.4.;.%.o.L 4 ; - > - ; - > > > > > > > > > > > > > > - ; ; - > > > > > > > > > > > > - ; 1 2 p p S L o.%.f.x.x.v.V.S.U.Y.Y.Y.Q.(.(.(.(.(.(.!.!.(.(.!.Q.Q.Y.Y.Y.Y.Y.T.!.!.!.!.T.!.Y.!.Q.T.Y.Y.U.U.I.S.S.C.C.C.V.V.x.x.L.L.L.x.",
"%.1.;.%.%.%.f.%.%.o. .L G F G L J J J J J ] X.%.o....... .{  .] J p 1 ; ; - > > > > > > > > > > > > > > > > > > > > > > > > > > > > > > > > > > > > > > > > > > > > > > > > > - ; 3 ; > > > > > - - - - - ; 1 1 1 1 ; 1 3 6 6 p p a p 4 i p w i p a H L J S H H G  .o.%.%...%.%.f.4.4.x.x.;.%. .B 1 - > - ; ; - > > > > > > > > > > > > > > - - - - > > > > > > > > > > > > > ; 3 p a B L  .o.s.f.z.x.v.S.H.H.Y.Y.T.!.!.(.(.(.!.!.(.(.(.(.(.!.!.!.!.Y.Q.!.!.!.!.!.(.(.!.!.!.(.(.T.Y.U.U.U.U.S.I.S.S.V.V.V.x.V.L.I.T.",
"<.<.z.z.x.4.f.a.%.%.o.o... . .{ L ]  . ...o.%.%.%.%.%.%... . .] H B p 8 8 ; - > > > > > > > > > > > > > > > > > > > > > > > > > > > > > > > > > > > > > > > > > > > > > > > > - ; 5 - > > > > > > > > > > > - - - - - ; ; ; ; ; 1 1 1 ; 5 2 p S J J G L L L L G L ]  .o. . . ...o.%.;.;.;.%.#.] a 1 ; ; ; ; ; - > > > > > > > > > > > > > > > > > > > > > > > > > > > > > > - 5 p H K G `  .o.%.a.z.v.V.S.H.J.Y.Y.Y.Y.Q.Q.(.(.(.(.(. X(. X(.(.(.!.!.!.!.!.!.(.(.(.(.(.(.(.(.(. X XT.Y.U.Y.Y.U.Y.Y.I.S.V.V.V.x.L.L.I.",
"1.1.1.z.x.x.f.f.f.f.z.%.%.o.......o.%.%.%.1.x.z.1.%.%.%.s.s.r. .L L J H H 8 ; > > > > > > > > > > > > > > > > > > > > > > > > > > > > > > > > > > > > > > > > > > > > > > > > > - - > > > > > > > > > > > > > > > > > - - - - - - ; ; - - ; p L ] L L L ] ` L J J L ] [ L L L L  .#.#.#.%.#...] S i 1 1 1 ; ; - > > > > > > > > > > > > > > > > > > > > > > > > > > > > > > - 1 B G L ]  . ...%.f.x.v.V.S.H.Y.Y.Y.Y.T.Y.!.(.(.(.(.(.(.(.(.(.(.(.(.!.!.!.!.(.(.(.(.(.(.(.(. X X X(.(.T.Y.Y.Y.Y.Y.Y.I.I.C.V.V.V.V.L.I.",
"4.4.1.z.4.x.x.x.x.v.V.x.1.%.%.z.z.z.z.x.x.V.v.v.v.x.z.z.x.x.z.%.%... .` P K p 1 - > > > > > > > > > > > > > > > > > > > > > > > > > > > > > > > > > > > > - , ; - > > > > > > > > > > > > > > > > > > > > > > > > > > > - ; ; - - ; ; - - ; 4 L ] L G D G G J H J G J S a a a a F ]  ... . . . .L S a # @ ; ; > > > > > > > > > > > > > > > > > > > > > > > > > > > > > > > ; 4 H L ] ]  . ...%.f.z.x.V.C.S.H.Y.Y.Y.Y.Y.Y.Y.E.!.Y.!.(.(.(.(.(.(.(.(.!.!. X(.(.(.(.(.(.(.(. X X X X(.!.!.Y.Y.Y.Y.Y.U.I.I.I.T.I.I.L.v.",
"v.V.V.x.4.x.x.V.x.v.v.x.x.v.V.S.C.V.V.V.V.V.C.S.S.V.V.C.S.S.V.x.x.f.%.#...X.L B 4 - > > > > > > > > > > > > > > > > > > > > > > > > > > > > > > > > > > - 1 p 8 ; > > > > > > > > > > > > > > > > > > > > > > > > > > > > - - ; ; ; ; ; ; ; p J F S J F S J S S S p 4 2 1 1 1 1 4 a J L ] ]  . .] L S a 2 1 - > > > > > > > > > > > > > > > > > > > > > > > > > > > > > > ; 4 B L {  . . ...o.%.%.z.v.v.V.S.S.S.S.I.S.U.Y.Y.Y.Y.Y.Y.!.Q.Q.!.(.(.(.(.(. X X(.(.(. X XXXXXXXXX X X X(.(.!.Y.!.Q.T.Y.Y.U.T.!. X|.T.C.z.",
"C.V.V.V.V.v.v.V.4.4.x.N.v.v.V.C.C.C.C.S.C.S.S.S.J.H.H.Y.Y.Y.S.V.V.x.f.;.%.%.s.{ p ; > > > > > > > > > > > > > > > > > > > > > > > > > > > > > > > > > > - 1 p B 3 - > > > > > > > > > > > > > > > > > > > > > > > > > > > > - ; ; ; 1 @ 1 2 B S f S S S S S S a i 1 ; ; ; ; - ; ; 1 3 1 p B J L L S a p 2 ; - > > > > > > > > > > > > > > > > > > > > > > > > > > > > > ; 4 B J ] [  .....o.%.%.%.f.x.x.V.V.V.V.V.V.C.S.S.U.S.Y.Y.Y.Y.Y.Y.Y.(.(. X X X X X X X X(. XXXXXXXXXXXXXXX X(.(.!.(.!.!.!.!.!.|. X+X@X XT...",
"S.S.S.S.V.V.V.V.V.V.V.V.v.4.v.V.A.S.S.I.S.S.S.S.Y.Y.Y.Q.Q.Y.S.S.V.V.x.z.1.#.#.] B ; > > > > > > > > > > > > > > > > > > > > > > > > > > > > > > > > > > > ; 2 p 1 - > > > > > > > > > > > > > > > > > > > > > > > > > > > > > - - - ; ; 2 i a S S S z f S S a i 1 - > - - - - - ; ; ; - ; , 3 8 8 2 2 1 ; - > > > > > > > > > > > > > > > > > > > > > > > > > > > > > > ; i H J L L ] X...%.%.%.z.f.x.x.x.V.x.x.x.N.V.S.S.S.S.U.U.U.Y.Y.Y.Y.T.(. X X XXXXX X X X X XXXXXXXoXXXXXXX X(.(.(.(. X X X X(.XX+X+X#X+X Xs.",
"S.S.C.C.V.V.V.V.V.x.V.V.V.V.v.V.V.S.S.U.S.S.S.S.F.J.Q.Q.(.Q.Y.S.V.V.N.x.1.%.o.] H 1 > > > > > > > > > > > > > > > > > > > > > > > > > > > > > > > > > > > - ; 3 8 ; - > > > > > > > > > > > > > > > > > > > > > > > > > > > > > > > > ; ; 1 i a S S t a a i 2 1 ; - - ; - > > > - - > > > > - - - - - - > > > > > > > > > > > > > > > > > > > > > > > > > > > > > > > > ; 8 B S J L L X.o.%.a.a.z.z.z.z.x.x.x.f.z.v.V.V.V.V.S.S.U.U.Y.Y.Y.Y.T.!.(. X X XXX X X X(.XXXXXXoXoXoXXXXXXX(. X(. XXXXXXXXXoX#X#X#X#XXXXXP.",
"V.C.C.V.V.v.V.V.x.x.V.V.V.V.V.V.V.A.S.H.H.F.F.F.C.S.J.Q.Q.Q.Q.Y.S.C.C.N.x.f.o...L 4 & > > > > > > > > > > > > > > > > > > > > > > > > > > > > > > > > > > > > - , ; - > > > > > > > > > > > > > > > > > > > > > > > > > > > > - - > > > - ; 1 8 p a i 2 2 1 ; 1 ; ; ; ; - > > > > > > > > > > > > > > > > > > > > > > > > > > > > > > > > > > > > > > > > > > > > > > > - 5 i a G  ...o.o.%.a.a.z.z.z.z.z.x.z.x.x.x.N.V.V.C.C.S.S.Y.Y.Y.Y.Y.Y.T.!.(.(. XXXXX X X XXXXXXX#XoXoXoXoXoXXX XXXXXoXoXoXoX#X#X#X#X#X#XoX X",
"V.V.V.V.V.V.V.V.v.V.N.V.V.V.V.V.A.A.S.S.S.S.F.S.S.S.Y.Q.Q.Q.!.!.Y.H.S.V.N.z. .{ ] 8 & > > > > > > > > > > > > > > > > > > > > > > > > > > > > > > > > > > > > > > > > > > > > > > > > > > > > > > > > > > > > > > > > > > > > ; ; - > > > > - ; 1 1 1 1 5 ; ; ; ; ; ; ; - > > > > > > > > > > > > > > > > > > > > > > > > > > > > > > > > > > > > > > > > > > > > > > > ; 1 i S ] ..s.o. .o.a.z.z.f.f.x.z.z.x.x.x.x.v.N.V.V.V.C.C.S.S.I.H.Y.Y.Y.T.T.(.(.(. X(.(. XXXXXXXXX#XoXoXoXoXXXXXXXoXoXoX#X#X#X#X#X#X#X#X#XXX",
"V.V.V.V.V.v.V.v.v.v.v.v.V.V.V.V.C.A.A.S.C.C.S.S.S.S.Y.Q.(. X X(.Y.J.S.C.A.1.o.{ L 4 & > > > > > > > > > > > > > > > > > > > > > > > > > > > > > > > > > > > > > > > > > > > > > > > > > > > > > > > > > > > > > > > > > > > > - - > > > > > > > > - - - - - > > > > - - > > > > > > > > > > > > > - - - - > > > > > > > > > > > > > > > > > > > > > > > > > > > - > - - 5 4 p H L [ ......o.s.f.f.f.z.z.z.x.x.x.x.x.x.x.N.V.V.V.V.C.S.S.S.C.S.I.U.Y.T.(.(.(.(.(. XXXXXXXXX#X#XoXoXoXoXoXoX#X#X#X#X#X#X#X#X#X#X#X#XoX",
"V.V.x.V.V.V.V.V.v.v.N.x.v.4.V.V.V.A.V.V.V.C.S.H.H.J.J.!.(.(.(.(.Q.Y.S.H.C.V.z.s.F B 3 & > > > > > > > > > > > > > > > > > > > > > > > > > > > > > > > > > > > > > > > > > > > > > > > > > > > > > > > > > > > > > > > > > > > > > > > > > > > > > > > > > > > > > > > > > > > > > > > > > > - - - > > > > > > > > > > > > > > > > > > > > > > > > > > > > > > > > - - ; ; 1 6 d a S S J  .o.%.%.a.%.%.f.f.z.z.z.f.x.x.x.x.N.V.V.V.V.V.V.C.C.C.C.S.Y.T.T.T.!.!.!. XXXXXXXXXXXXXXXXXoXXXXXoXoX#X#X#X#X#X#X#X#X#X#X#X#X",
"v.v.x.4.N.V.x.4.v.v.x.x.v.4.x.x.V.V.V.V.V.A.S.S.H.H.Y.!.!.(.(.!.Y.Y.Y.Y.Y.S.C.x.z. .H 6 & - ; ; 5 , - > > > > > > > > > > > > > > > > > > > > > > > > > > > > > > > > > > > > > > > > > > > > > > > > > > > > - ; ; - > > > > > > > > > > > > > > > > > > > > > > > > > > > > > > > > > > - ; ; - > > > > - - > > > > > > > > > > - - > > > > > > - ; 5 3 3 ; ; - - - ; ; 1 2 i a B a S  .%.s.s.s.%.f.f.f.f.f.f.x.x.x.x.x.x.v.x.x.V.N.V.V.V.V.S.S.I.F.Y.Y.Y.Y.!. X X X.XXXXXXXXXXXXXXXXXXXXXoXoX#X#X#X#X#X#X#X#X#X#X",
"1.x.x.x.v.x.V.4.v.v.v.v.4.4.x.x.x.v.v.V.V.V.S.A.A.S.J.Y.!.!.!.!.!.Q.(.(.(.Q.J.V.v.1.s.L 2 1 p L  .L Z ; > > > > > > > > > > > > > > > > > > > > > > > > > > > > > > > > > > > > > > > > > > > > > > > - - - ; 6 p p 3 ; > >   > > > > >   > > > > > > > > > > > > > > > > > > > > > > > - ; ; ; - - - - - - - > = > > = > - ; 1 ; 1 4 ; - > > - ; 2 i p a p 2 ; ; - > - ; 6 i i p a B L o.s.r.s.s.%.f.a.;.;.f.x.x.x.x.x.x.z.z.x.x.x.x.N.V.V.V.V.V.C.S.I.Y.Y.Y.T.(.(. XOX XXXXXXXXX X X X XXXoXoXoXoX#X#X#X#X#X#X#X#X",
";.x.z.x.x.4.4.4.v.4.4.4.v.x.x.x.x.v.x.v.V.V.A.V.A.A.S.Y.Q.Q.Q.(.(.XXXX X(.!.Y.F.C.C.v.%.{ J J s.f.s.L 1 > > > > > > > > > > > > > > > > > > > > > > > > > > > > > > > > > > > > > > > > > > > > > > ; 5 5 1 4 B J L S 8 ; > > - ; ; - > > > > > > > > > > > > > > > > > > > > > > > > > > - - ; ; ; ; ; ; - - > > > > > - ; p B a a a 2 ; > > ; 3 p a a w p a p 3 - > > - ; 1 2 2 p F { ..%.o.o.%.%.%.s.a.f.f.f.f.f.x.x.x.x.x.x.x.x.N.V.V.V.V.V.V.V.V.I.I.I.U.Y.Y.E.(. X XXXXXXXXX X X XXXXXXXXXoXoX#X#X#X#X#X#X#X#X",
"z.z.z.4.4.4.4.4.v.v.v.v.v.v.x.v.4.4.x.x.V.V.V.V.V.S.S.S.J.Y.(.(._.(.(.(. X(.(.Q.Q.T.U.V.1.%.a.f.x.x.g.K , & > > > > > > > > > > > > > > > > > > > > > > > > > > > > > > > > > > > > > > > > > > > > ; ; 1 2 p a B H G J B p 6 2 2 4 1 ; ; ; ; ; ; - - > > > > > > > > > > > > > > > > > > > - ; 1 2 2 2 1 ; ; ; ; - - - 3 p p S S B r 2 ; - > - 2 a S S B a a p ; > > > > - ; 1 p J G ] ..o.%.s.| | o.%.%.%.f.f.f.x.x.x.x.x.x.x.x.N.V.V.V.V.V.V.V.V.L.I.I.I.I.Y.Y.T.T.!.(. X XXXXXXX X X X XXXXXXXXXXXXX#X#X#X#X#X#X",
"%.;.1.1.4.1.4.4.4.4.x.4.v.v.v.v.V.x.x.x.v.v.V.C.C.S.S.H.Y.!.(.(.(.(. X(. X X X X(.!.Q.U.S.v.x.v.v.x.a...Z ; & > > > > > > > > > > > > > > > > > > > > > > > > > > > > > > > > > > > > > > > > > > > > > - ; 1 2 2 w t J L L L L S H B p p a a a p 1 - > > > > > > > > > > > > > > > > > > > - ; @ i i p i 2 2 2 2 2 1 2 a B S f f S a i 3 ; ; 1 p S G F H p i 3 - > > ; 5 1 1 p H L ]  .....o.o.o.o.o.o.%.%.%.;.;.1.z.x.x.x.x.V.x.V.V.V.V.v.v.v.v.v.v.V.C.L.I.I.U.Y.Y.Y.!.(.XXXXXX_.(.(.(. X X XXXXXXXXX#X#X#X#X#XoX",
"%.%.<.1.4.1.4.4.1.1.4.v.v.v.4.4.x.x.V.v.v.V.V.C.S.S.Y.Y.Y.Y.(.(.(.(.XX_.XX(.(. X(.(.(.Y.S.S.C.V.V.z.%.%.X.N ; > > > > > > > > > > > > > > > > > > > > > > > > > > > > > > > > > > > > > > > > > > > > > > > > - ; @ @ p J ] ...... .{ L ] ] G G a 1 - > > > > > > > > > > > > > > > > > > > - ; 2 p a a a a a a a a p a S S S u S S S a i i p B J L L F S p 2 1 - > ; 3 B K H J L L L {  . ...........o.o.r.%.%.%.;.f.z.x.x.x.x.x.x.x.V.v.v.v.x.x.v.V.V.V.V.C.I.I.I.F.T.!. X X X X X(.(.(.!.!.!. X X XXXXXoXoX#XoXoX",
"%.%.1.1.1.1.%.1.1.z.x.4.1.v.x.x.x.x.v.V.V.V.V.S.S.H.Y.Y.Y.Y.(.(.(.(.(. X(.(.(.(.XX(.(.Y.Y.Y.S.V.x...L [ o.L 4 - > > > > > > > > > > > > > > > > > > > > > > > > > > > > > > > > > > > > > > > > > > > > > > > > - - ; i J `  ....... . .] L G b t 4 ; - > > > > > > > > > > > > > > > > > - ; 1 # a S f a S B a S S S J F F S B S a a t t t B S J J H B p i 2 1 ; - ; 4 B S S J J L L L L {  . ... ...o.o.o.o.o.%.%.%.;.;.f.z.z.z.z.x.N.x.x.v.v.x.v.V.V.V.V.V.C.S.S.I.Y.!.(. X X X X X X!.!.!.Y.T.(. X XXXXXXXXXXXoX",
"%.%.%.%.;.%.%.1.1.1.1.z.x.x.4.x.x.x.V.V.V.V.V.S.H.Y.Y.Y.Y.Q.!.!.(.(.(.(.(.(.(.(. X(.Q.Y.Y.S.x.f.X.S F `  .{ N - > > > > > > > > > > > > > > > > > > > > > > > > > > > > > > > > > > > > > > > > > > > > > > > > > - 1 i H G ` {  .{ ] L G F S B w @ ; ; - > > > > > > > > > > > > > > > > > - - ; 8 a a f f t a B B B S S B t t a a p p % # r a a a i 2 2 i 4 2 1 ; 1 2 B J J J S J L L L ]  . . ... . . .....o.%.%.%.%.%.a.;.z.z.z.x.x.x.x.x.v.v.v.v.v.v.V.V.V.V.S.I.Y.!.(.(.(. X X X X!.!.!.!.T.!.(.(. X(. X XXXXX",
"%.%.%.%.%.%.%.%.<.1.1.1.1.1.z.4.x.v.V.V.V.C.S.S.U.Y.Y.T.T.Y.!.Q.(.(.(.(.!.(.(.(.(.(.W.Y.U.S.v.s.G t J F D G 8 & > > > > > > > > > > > > > > > > > > > > > > > > > > > > > > > > > > > > > > > > > > > > > > > > > - ; # a F J J J J G L L D F S i 1 ; ; ; ; ; - > > > > > > > > > > > > > > > > ; 1 2 i p a a i i 2 4 i p i # # 4 4 2 1 @ 2 6 2 2 1 ; 1 3 2 i i i 2 2 i B S S f S J J J L L  . . .....[ ] ] {  .o.o.%.%.%.%.%.;.z.z.z.z.x.x.x.x.x.x.x.v.V.V.V.V.V.C.I.Y.Y.(.(.(.!.!.!.!. X!.!.Y.Y.!.!.!.!.(.(.|.(.(.",
"| | o.%.%.%.%.%.%.%.;.1.1.1.z.z.4.4.V.V.V.C.C.S.S.U.U.Y.Y.Q.Y.Y.Q.Q.!.!.!.(.(.(.(.(.(.Q.Y.Y.S.x.r.S t S J J 3 > > > > > > > > > > > > > > > > > > > > > > > > > > > > > > > > > > > > > > > > > > > > > > > > > - ; 1 i a S S B r a a p a a S z # 1 ; ; ; ; - > > > > > > > > > > > > > > > > > - - ; ; 3 1 1 1 1 1 ; ; ; 1 1 ; ; ; ; - ; ; - ; ; - > - ; 1 2 # p a w p a S B B S J S J G ]  . . . . .] L G L  ...o.o.o.o.%.%.%.f.;.z.z.z.f.1.1.z.x.x.x.x.x.N.V.V.V.C.H.Y.T.Y.!.!.!.!.|.!.!.!.Y.Y.!.!.!.!.!.!.!.(.!.",
"| | | %.#.%.%.%.%.%.%.<.1.1.4.4.4.4.4.v.v.V.V.C.S.H.U.Y.Y.J.Y.Y.Y.Y.Y.Y.!.!.(.(.(.(.(.!.(.!.Y.S.l...L L J B ; > > > > > > > > > > > > > > > > > > > > > > > > > > > > > > > > > > > > > > > > > > > > > > > > - ; 1 2 i p t r % # 1 ; ; ; 1 @ 4 ; - - - - - - > > - > > > > > > > > > > > > > > > > > > > - - - - - - > > > > > > > > > > > > > > > > > - 1 i a S S a t a a B H H J F J L ]  . ... .{ ] L L {  . .......o.o.%.%.s.%.%.%.%.;.f.z.z.z.x.x.x.x.x.x.v.V.V.S.I.U.T.Y.Y.T.T.T.!.!.!.T.T.T.T.!.!.!.!.T.|.T.",
"......| #.#.%.%.%.%.%.%.%.;.<.<.1.4.v.v.V.V.C.S.S.S.I.F.Y.Y.Y.Y.Y.Y.Y.!.!.(.(.(.(.(.(.(.!.Q.Q.J.V.f.o.G B 5 > > > > > > > > > > > > > > > > > > > > > > > > > > > > > > > > > > > > > > > > > > > > > > > > - ; ; 1 1 2 2 i w 2 ; - - > > - - - > > > > > - - - ; ; - > > > > > > > > > > > > > > > > > > > > > > > > > > > > > > > > = > > > > > > > > ; 4 Z H H B a t w p B S B S S D L ] { ] ]  .{ ] L ]  . . .........o.o.o.%.s.%.a.%.%.%.%.a.l.f.z.z.z.x.x.x.x.x.v.V.L.L.C.I.I.Y.Y.T.T.T.!.!.!.!.!.T.I.F.I.P.U.",
"{ {  .X.| | #.#.#.#.%.%.%.%.%.;.1.1.v.v.v.V.V.C.C.S.S.S.S.F.Y.Y.Y.Y.Q.!.!.(.(.(.(.(.!.(.Q.Q.Y.S.V.z.o.B * > > > > > > > > > > > > > > > > > > > > > > > > > > > > > > > > > > > > > > > > > > > > > > > > > - ; ; ; ; 1 1 1 1 ; - > > > > > > > > > > > > - - ; ; ; - > > > > > > > > > > > > > > > > > > > > > > > > > > > > > > > > > > > > > > > > - 5 i B a a a a a p a a B B S S J L L L ] ] ] ] ] L L  . .{  . . . ... .....o.%.s.%.%.o.%.%.%.a.a.a.f.a.a.a.a.%.a.f.f.z.x.V.L.L.I.I.P.T.T.Y.T.T.Y.F.L.L.L.S.I.",
"{ { { { } } | | | | %.%.%.%.%.%.1.1.1.1.4.V.V.V.V.V.S.C.S.S.J.J.Y.Y.Q.(.(.(.(.(.(.(.(.(.Q.Y.Y.S.x.a.X.p ; > > > > > > > > > > > > > > > > > > > > > > > > > > > > > > > > > > > > > > > > > > > > > > > > > > > > - - - - - - - > > > > > > > > > > > > > > - ; ; - > > > > > > > > > > > > > > > > > > > > > > > > > > > > > > > > > > > > > > > > > > ; 1 p p p i i p p p a B t B S S J G L L L L G L L ] ] { ` ] L L ] ] ] {  ...o.o.o.o.o.o.| o.%.a.a.a.s.s.o.o.o.o.o.%.%.a.a.f.x.V.V.L.L.I.S.I.U.I.I.L.V.x.v.L.",
"` ` ` { { { { X.} | | #.%.%.%.;.;.;.1.1.4.x.v.v.v.V.C.C.S.S.S.J.Y.Y.Q.(.(.(.(.(.(.(.(.(.(.(.K.V.;.%...F p ; > >   & > > > > > > > > > > > > > > > > > > > > > > > > > > > > > > > > > > > > > > > > > > > > > > > > > > > > > > > > > > > > > > > > > > > > > ; - > > > > > > > > > > > > > > > > > > > > > > > > > > > > > > > > > > > > > > > > > > > > ; 2 i w 2 2 2 1 3 6 4 i i a a J J G J S H J G G G G G J J J J J S K L [ ............o.X.%.%.o.%.%.r..... . . . . . . ...o.a.f.z.v.v.L.V.I.I.I.V.v.f.f.x.V.",
"L G G L { {  .{ } } X.#.%.%.%.%.%.1.1.x.4.x.x.v.v.V.V.V.S.H.H.J.Y.Q.(.(.(.(.(._.XX`.(.(.(.(.Y.x.#.o.%...K 5 > > > > > > > >   > > > > > > > > > > > > > > - - ; ; ; > > > > > > > > > > > > > > > > > > > > > > > > > > > > > > > > > > > > > > > > > > > > > - - > > > > > > > > > > > > > > > > > > > > > > > > > > > > > > > > > > > > > > > > > > > > - 1 2 1 1 ; ; - - ; ; ; 1 p B S S a i % i p p p p 4 4 p r r a B S S J ] [  . . .X...o.o.%.%.o.o.o... .{ L L L L L L L ]  ...%.%.z.x.v.L.L.I.I.V.x.x.V.L.I.",
"L M M F F `  .{ { ....| #.%.%.%.%.1.1.4.4.x.z.x.x.v.V.V.S.S.S.Y.Y.Y.!.!.(.(.XX_._.`._.(.(.(.U.x.#. .o...K 5 > > > > > > > > > > > > > - - > > > > > > > - ; 4 2 4 1 - > > > > > > > > > > > > > > > > > > > > > > > > > > > > > > > > > > > > > > > > > > > > > > > > > > > > > > > > > > > > > > > > > > > > > > > > > > > > > > > > > > > > > > > > > > > ; 1 1 ; - > > > > > > ; 2 p i 2 1 ; ; ; ; ; ; ; - ; 1 1 2 i a a f J L ] ] {  .X...o.%.o.o..... .{ L L L L L L J H H J L  ...%.a.z.v.V.L.I.I.L.L.V.V.V.C.",
"G F M F F G { { ` ` { ....#.#.%.%.1.1.1.x.x.x.x.x.x.V.V.A.A.S.Y.Y.Q.!.(.(.(.XXXX_._.(.(.(.Y.U.x.%. . .P B ; ; - - ; ; - - - ; , 1 1 , 1 ; - > > > > > - ; 2 a p % 1 - > > > > > > > > > > > > > > > > > > > > > > > > > > > > > > > > > > > > > > > > > > > > > > > > > > > > > > > > > > > > > > > > > > > > > > > > > > > > > > > > > > > > > > > > > > > - ; ; - > > > > - - - ; 1 2 1 ; - > > > > > > > > > - ; ; 2 p a S J L L G ]  .....o.o.o.....X.{ L L G G J H J S S S H J ] ..o.%.a.x.v.v.v.V.S.V.x.x.x.V.",
"G G G G G G G G G L { {  ...| o.%.%.%.1.x.x.x.x.x.x.v.V.C.C.S.S.Y.Q.(.(.(.(. X_._._.(.(.Q.Y.S.z...G F G F B C 4 8 p p s p p B B a p i 2 ; - > > > > - ; 2 p a B 4 ; > > > > > > > > > > > > > > > > > > > > > > > > > > > > > > > > > > > > > > > > > > > > > > > > > > > > > > > > > > > > > > > > > > > > > > > > > > > > > > > > > > > > > > > > > > > > > ; ; - > > - - ; ; ; 1 2 1 ; > > > > > > > > > > > > > - ; 1 8 p B S S B F ] ..o.o.o.o...o... .L J S B a B H H K K J J L  . .o.%.a.a.z.z.z.x.x.z.z.z.x.",
"` G G ` L G G G F G L ` { { ..X.| o.%.%.z.x.z.x.x.4.v.v.V.V.S.S.J.Q.Q.(.(.(.(.(.(.(.(.Q.Y.I.V.;.%. . ...s.a.s.w. .{  .....X. .L F S p 5 - > > > > > > ; 1 4 i 2 ; - > > > > > > > > > > > > > > > > > > > > > > > > > > > > > > > > > > > > > > > > > > > > > > > > > > > > > > > > > > > > > > > > > > > > > > > > > > > > > > > > > > > > > > > > > > > > - ; - - > > - - ; ; 1 2 4 3 - > > > > > > > > > > > > > > - ; ; 1 2 p a p S G { o.%.s.o.....X.] J a a p p B H L L J S S H L L ]  ...r.o.s.a.f.z.z.z.z.z.",
"` P G L L L G F F G G L { { { ..| | #.%.%.1.z.z.1.1.1.4.v.V.A.S.H.J.Y.(.(.(.(.(.(.(.(.Y.H.S.C.V.V.V.V.N.V.N.N.x.%.| #.%.#... .L F B 2 ; > > > > > > > > - ; ; ; - > > > > > > > > > > > > > > > > > > > > > > > > > > > > > > > > > > > > > > > > > > > > > > > > > > > > > > > > > > > > > > > > > > > > > > > > > > > > > > > > > > > > > > > > > > > > > ; ; - > > > > - , 1 4 8 1 ; > > > > > > > > > > > > > > > > - > - ; 1 2 2 i p G o.s.o. .L J L F B p w # i p a H B p 8 8 p i a H L ]  . .o.s.a.z.z.f.f.a.",
"` L G F F S S F F G G G L P { ......| #.%.%.<.<.<.;.1.z.x.x.V.A.S.J.Q.(.(.(.(.(.Q.Y.Y.Y.H.S.S.C.C.A.A.V.V.V.N.x.f.%.%.%..... .] L H p ; - > > > > > > > > > > > > > > > > > > > > > > > > > > > > > > > > > > > > > > > > > > > > > > > > > > > > > > > > > > > > > > > > > > > > > > > > > > > > > > > > > > > > > > > > > > > > > > > > > > > > > > > > > - - - - - - - ; 3 4 4 3 ; - > > > > > > > > > > > > > > > > > > > - - ; , ; 1 B  .w. .] J S S B p 2 1 1 1 1 3 8 4 1 ; 1 6 p p B H G L ]  ...o.s.s.%.%.#.",
"] { G F z t t B S F F G G L { { { { ..| o.%.%.%.%.%.%.a.z.4.x.V.S.J.Y.Q.Q.Q.Q.Q.Y.Y.Y.H.S.S.C.V.V.V.V.V.V.N.x.1.%.%.%.#..... .{ L J B 3 - > > > > > > > > > > > > > > > > > > > > > > > > > > > > > > > > > > > > > > > > > > > > > > > > > > > > > > > > > > > > > > > > > > > > > > > > > > > > > > > > > > > > > > > > > > > > > > > > > > > > > > > > > > > - - - ; ; ; ; ; ; ; > > > > > > > > > > > > > > > > > > > > > > > > > - ; 2 H L  .L B i p 8 5 ; - > > - ; 5 1 ; - ; 8 a p 6 p p B F L L  . .] ] { L ",
" .P G S z t r t B S S S F L ` ` { { { ....X.| | %.%.%.%.%.1.4.v.C.S.F.J.J.J.J.J.J.S.S.S.V.V.V.x.x.x.v.v.4.4.1.;.%.%.%.#...{ { ` L J B 4 ; - > > > > > > > > > > > > > > > > > > > > > > > > > > > > > > > > > > > > > > > > > > > > > > > > > > > > > > > > > > > > > > > > > > > > > > > > > > > > > > > > > > > > > > > > > > > > > > > > > > > > > > > > > > > > > - - > > > > > > > > > > > > > > > > > > > > > > > > > > > > > > > - ; 8 p Z C 1 ; ; - - > > > > > - ; ; - - ; ; 3 1 1 1 2 4 p a Z Z a p p p p ",
"{ L F b S t a t B S S S F G G F G G G G P P { ....| o.%.%.%.1.x.v.V.V.S.S.S.A.S.S.C.V.V.x.1.;.;.;.;.1.1.%.%.%.%.%.%.| .. .] ] ] L G J B 1 ; > > > > > > > > > > > > > > > > > > > > > > > > > > > > > > > > > > > > > > > > > > > > > > > > > > > > > > > > > > > > > > > > > > > > > > > > > > > > > > > > > > > > > > > > > > > > > > > > > > > > > > > > > > > > > > > > > > > > > > > > > > > > > > > > > > > > > > > > > > > > > > > > - ; 5 ; - > > > > > > > > > ; ; - > > - - ; ; ; ; ; ; 1 6 3 1 1 1 1 1 1 ",
"{ G F b b t a a B S S S F J J F H S S S B S F L {  .....#.#.%.;.z.x.x.v.V.V.V.V.V.V.x.x.z.%.%.%.#.%.#.#.o......... .{ L G J J J J F F H p ; - > > > > > > > > > > > > > > > > > > > > > > > > > > > > > > > > > > > > > > > > > > > > > > > > > > > > > > > > > > > > > > > > > > > > > > > > > > > > > > > > > > > > > > > > > > > > > > > > > > > > > > > > > > > > > > > > > > > > > > > > > > > > > > > > > > > > > > > > > > > > > > > > > > > > > > > > > > > > > ; ; - - - - - ; - - - - - - ; - - ; ; - - - ",
" .L F S B p i p a a b S F S S z a a a p p p B S G L  . . .....%.%.%.%.<.1.1.1.1.x.x.1.1.;.%.%.| | | .. . .{ { L L F B a B B a p p B S H S 4 ; > > - - > > > > > > > > > > > > > > > > > > > > > > > > > > > > > > > > > > > > > > > > > > > > > > > > > > > > > > > > > > > > > > > > > > - > > > > > > > > > > > > > > > > > > > > > > > > > > > > > > > > > > > > > > > > > > > > > > > > > > > > > > > > > > > > > > > > > > > > > > > > > > > > > > > > > > > > > > - - - - - - - - - > > > > > > > > > > > > - ",
"] G F S B w # i a B B S S B a i 4 i w i p p p a z F F L P { {  . . ...| o.| %.%.;.;.%.%.%.%.%.%.o...{ L L G F H B 4 1 5 3 1 1 1 1 4 p a B 4 ; > > ; ; - > > > > > > > > > > > > > > > > > > > > > > > > > > > > > > > > > > > > > > > > > > > > > > > > > > > > > > > > > > > > > > > > > - > > > > > > > > > > > > > > > > > > > > > > > > > > > > > > > > > > > > > > > > > > > > > > > > > > > > > > > > > > > > > > > > > > > > > > > > > > > > > > > > > > > > > > > > > > > > > > > > > > > > > > > > > > > - ",
"J F S S a w # i p a a a p p 4 1 1 4 w r p 4 2 2 4 p a B F F F F G L {  . . . ...| %.%.%.%.#.#.#.| ..` L G H B 4 1 ; - - - - - - ; ; 1 1 2 5 ; > > ; , - > > > > > > > > > > > > > > > > > > > > > > > > > > > > > > > > > > > > > > > > > > > > > > > > > > > > > > > > > > > > > > > > > > > > > > > > > > > > > > > > > > > > > > > > > > > > > > > > > > > > > > > > > > > > > > > > > > > > > > > > > > > > > > > > > > > > > > > > > > > > > > > > > > > > > > > > > > > > > > > > > > > > > > > > > > > > > > ",
"S S S B a w w 2 2 2 2 2 1 ; ; ; ; @ % 4 2 1 ; ; ; 5 1 2 p a t B S S F G G G L {  .....| o.| o.| ....{ G S p 2 ; - > > > > > > > > - ; - - - > > > - - > > > > > > > > > > > > > > > > > > > > > > > > > > > > > > > > > > > > > > > > > > > > > > > > > > > > > > > > > > > > > > > > > > > > > > > > > > > > > > > > > > > > > > > > > > > > > > > > > > > > > > > > > > > > > > > > > > > > > > > > > > > > > > > > > > > > > > > > > > > > > > > > > > > > > > > > > > > > > > > > > > > > > > > > > > > > > > > ",
"p a p i 2 3 1 ; ; ; ; ; - > > - - ; 1 1 ; - - - - ; ; ; 6 p p a a B z z S J L L L `  . ........... .` J a 2 ; > > > > > > > > > > > > > > > > > > > > > > > > > > > > > > > > > > > > > > > > > > > > > > > > > > > > > > > > > > > > > > > > > > > > > > > > > > > > > > > > > > > > > > > > > > > > > > > > > > > > > > > > > > > > > > > > > > > > > > > > > > > > > > > > > > > > > > > > > > > > > > > > > > > > > > > > > > > > > > > > > > > > > > > > > > > > > > > > > > > > > > > > > > > > > > > > > > > ",
", 1 ; ; ; - - - > > > > > > > > > - ; ; - - > > > - - ; 1 w a B a t t B S J G L L L L ] { {  . . .` F S p 1 - > > > > > > > > > > > > > > > > > > > > > > > > > > > > > > > > > > > > > > > > > > > > > > > > > > > > > > > > > > > > > > > > > > > > > > > > > > > > > > > > > > > > > > > > > > > > > > > > > > > > > > > > > > > > > > > > > > > > > > > > > > > > > > > > > > > > > > > > > > > > > > > > > > > > > > > > > > > > > > > > > > > > > > > > > > > > > > > > > > > > > > > > > > > > > > > > > > > ",
"> > > > > > > > > > > > > > > > > > > - - > > > > > ; 1 4 p B S B a B H J G G L L L L G ` ` ] L G F B i 1 ; > > > > > > > > > > > > > > > > > > > > > > > > > > > > > > > > > > > > > > > > > > > > > > > > > > > > > > > > > > > > > > > > > > > > > > > > > > > > > > > > > > > > > > > > > > > > > > > > > > > > > > > > > > > > > > > > > > > > > > > > > > > > > > > > > > > > > > > > > > > > > > > > > > > > > > > > > > > > > > > > > > > > > > > > > > > > > > > > > > > > > > > > > > > > > > > > > > > > ",
"> > > > > > > > > > > > > > > > > > > > > > > > > > ; 4 a B J S S S S F F F G L L F F F G L L F B p 2 ; - > > > > > > > > > > > > > > > > > > > > > > > > > > > > > > > > > > > > > > > > > > > > > > > > > > > > > > > > > > > > > > > > > > > > > > > > > > > > > > > > > > > > > > > > > > > > > > > > > > > > > > > > > > > > > > > > > > > > > > > > > > > > > > > > > > > > > > > > > > > > > > > > > > > > > > > > > > > > > > > > > > > > > > > > > > > > > > > > > > > > > > > > > > > > - - - > > > > > > ",
"> > > > > > > > > > > > > > > > > > > > > > > > > - 1 i B S S B S S S S S F F F F S B r B H F S B 4 ; - > > > > > > > > > > > > > > > > > > > > > > > > > > > > > > > > > > > > > > > > > > > > > > > > > > > > > > > > > > > > > > > > > > > > > > > > > > > > > > > > > > > > > > > > > > > > > > > > > > > > > > > > > > > > > > > > > > > > > > > > > > > > > > > > > > > > > > > > > > > > > > > > > > > > > > > > > > > > > > > > > > > > > > > > > > > > > > > > > > > > > > > > > > > > > - - ; - > > > > > ",
"> > > > > > > > > > > > > > > > > > > > > > > > > - ; 1 2 i i p p p p p a B B S z r 4 1 1 2 % p p 1 ; > > > > > > > > > > > > > > > > > > > > > > > > > > > > > > > > > > > > > > > > > > > > > > > > > > > > > > > > > > > > > > > > > > > > > > > > > > > > > > > > > > > > > > > > > > > > > > > > > > > > > > > > > > > > > > > > > > > > > > > > > > > > > > > > > > > > > > > > > > > > > > > > > > > > > > > > > > > > > > > > > > > > > > > > > > > > > > > > > > > > > > > > > > > > > > > - - - - - - , 1 ",
"> > > > > > > > > > > > > > > > > > > > > > > > > > - - ; ; 1 3 1 1 1 2 2 4 2 4 % 2 1 ; - ; 1 2 1 ; > > > > > > > > > > > > > > > > > > > > > > > > > > > > > > > > > > > > > > > > > > > > > > > > > > > > > > > > > > > > > > > > > > > > > > > > > > > > > > > > > > > > > > > > > > > > > > > > > > > > > > > > > > > > > > > > > > > > > > > > > > > > > > > > > > > > > > > > > > > > > > > > > > > > > > > > > > > > > > > > >   > > > > > > > > > > > > > > > > > > > > > > > > > > > > > > > - - ; ; 5 4 B ",
"> > > > > > > > > > > > > > > > > > > > > > > > > > > > > - - ; ; ; ; ; ; ; ; ; ; 5 ; > > - ; ; - > > > > > > > > > > > > > > > > > > > > > > > > > > > > > > > > > > > > > > > > > > > > > > > > > > > > > > > > > > > > > > > > > > > > > > > > > > > > > > > > > > > > > > > > > > > > > > > > > > > > > > > > > > > > > > > > > > > > > > > > > > > - - - - > > > > > > > > > > > > > > > > > > > > > > > > > > > > > > > > > > 5 , ; > > > > > > > > > > > > > > > > > > > > > > > > > > > > > > > - ; 2 4 p H ",
"> > > > > > > > > > > > > > > > > > > > > > > > > > > >   > - ; ; - - - - - - - - - > > > > > > > > > > > > > > > > > > > > > > > > > > > > > > > > > > > > > > > > > > > > > > > > > > > > > > > > > > > > > > > > > > > > > > > > > > > > > > > > > > > > > > > > > > > > > > > > > > > > > > > > > > > > > > > > > > > > > > > > > > > > > > - ; ; ; 1 1 4 6 ; - > > > > > > > > > > > > > > > > > > > > > > > > > = & & 5 5 , ; Z L E 5 & > > > > > > > > > > > > > > > > > > > > > > > > > > > > > - ; 2 2 2 p ",
"> > > > > > > > > > > > > > > > > > > > > > > > > > > > > > > > > > > > > > > > > > > > > > > > > > > > > > > > > > > > > > > > > > > > > > > > > > > > > > > > > > > > > > > > > > > > > > > > > > > > > > > > > > > > > > > > > > > > > > > > > > > > > > > > > > > > > > > > > > > > > > > > > > > > > > > > > > > > > > > > > > > > > > > > ; 4 i i # w B B p 3 ; > > > > > > > > > > > - , ; - > > > = > > > & 3 s 6 p a d p a  ...0.C 1 , > > > > > > > > > > > > > > > > > > > > > > > > > > > > - ; 1 2 2 2 ",
"> > > > > > > > > > > > > > > > > > > > > > > > > > > > > > > > > > > > > > > > > > > > > > > > > > > > > > > > > > > > > > > > > > > > > > > > > > > > > > > > > > > > > > > > > > > > > > > > > > > > > > > > > > > > > > > > > > > > > > > > > > > > > > > > > > > > > > > > > > > > > > > > > > > > > > > > > > > > > > > > > > > > > > > - 1 B J S H H H S a 1 - > > > > > > > > > > - C E Z 7 , - > > - ; 5 Z g.h.h.o.r.q.L { s.f.s.L H K 8 > > > > > > > > > > > > > > > > > > > > > > > > > > > > - ; 2 p a ",
"> > > > > > > > > > > > > > > > > > > > > > > > > > > > > > > > > > > > > > > > > > > > > > > > > > > > > > > > > > > > > > > > > > > > > > > > > > > > > > > > > > > > > > > > > > > > > > > > > > > > > > > > > > > > > > > > > > > > > > > > > > > > > > > > > > > > > > > > > > > > > > > > > > > > > > > > > > > > > > > > > > > > > > ; 1 i S J S a w p p 4 ; > > > > > > > > > > > 5 K q.L B Z 6 ; ; 6 L  .z.P.L.L.L.L.n.].L.L.[.T.x.s.p.W ; = > > > > > > > > > > > > > > > > > > > > > > > > > > - - ; 6 4 ",
"> > > > > > > > > > > > > > > > > > > > > > > > > > > > > > > > > > > > > > > > > > > > > > > > > > > > > > > > > > > > > > > > > > > > > > > > > > > > > > > > > > > > > > > > > > > > > > > > > > > > > > > > > > > > > > > > > > > > > > > > > > > > > > > > > > > > > > > > > > > > > > > > > > > > > > > > > > > > > > > > > > > > > - 1 2 2 4 w B L q.K 2 ; - > > > > > > > > > , 5 K s.q.B V K S Z Z w.f.V.L.I.P.Y.I.I.P.P.U.T.|. XE.P.L.s.E ; & > > > > > > > > > > > > > > > > > > > > > > > > > > > - ; ; ",
"> > > > > > > > > > > > > > > > > > > > > > > > > > > > > > > > > > > > > > > > > > > > > > > > > > > > > > > > > > > > > > > > > > > > > > > > > > > > > > > > > > > > > > > > > > > > > > > > > > > > > > > > > > > > > > > > > > > > > > > > > > > > > > > > > > > > > > > > > > > > > > > > > > > > > > > > > > > > > > > > > > > > 8 Z N s @ K r.n.[.[.L.e.4 * & > > > > > > > > 5 p ] s.q.B L w.r...o.v.!.T. XT.T. XE.@X|.|.T. X[.OX XT.L.L.h.Q 7 & > > > > > > > > > > > > > > > > > > > > > > > > > > > > - ",
"> > > > > > > > > > > > > > > > > > > > > > > > > > > > > > > > > > > > > > > > > > > > > > > > > > > > > > > > > > > > > > > > > > > > > > > > > > > > > > > > > > > > > > > > > > > > > > > > > > > > > > > > > > > > > > > > > > > > > > > > > > > > > > > > > > > > > > > > > > > > > > > > > > > > > > > > > > > > > > > > > > > ; L s.n.x.s.P.OX{.{.|.|.].n.q.C & > > & > > > - s W q.w.q. .r.s.g.s.l.F.!.@XXX XOX+XOX+X XT.XX(.!.Y.T.E.U.[.'.L.I 5 &   > > > > > > > > > > > > > > > > > > > > > > > > > > > ",
"> > > > > > > > > > > > > > > > > > > > > > > > > > > > > > > > > > > > > > > > > > > > > > > > > > > > > > > > > > > > > > > > > > > > > > > > > > > > > > > > > > > > > > > > > > > > > > > > > > > > > > > > > > > > > > > > > > > > > > > > > > > > > > > > > > > > > > > > > > > > > > > > > > > > > > > > > > > > > > > > > > > 1 w.L.@XXXXX XXXXX#X#X+X XXX|.n.p 1 1 s C 8 7 ; C w.s.a.#.#.a.x.n.x.L.T. XoXXX+X+X+X+X+XXX X X X(.Y.Y.(.E.[.T.I.x.I 5 & > > > > > > > > > > > > > > > > > > > > > > > > > > - ",
"> > > > > > > > > > > > > > > > > > > > > > > > > > > > > > > > > > > > > > > > > > > > > > > > > > > > > > > > > > > > > > > > > > > > > > > > > > > > > > > > > > > > > > > > > > > > > > > > > > > > > > > > > > > > > > > > > > > > > > > > > > > > > > > > > > > > > > > > > > > > > > > > > > > > > > > > > > > > > > > > > > > . u.OX#X#X#X#X#X#X#X#X#X#XoXXX X[.h.r.s.n.r.L H L y.h.v.v.x.I.[. XT.(.(.XXoXoXoXXX#X#XXX`.XX.X+X X X(.(.(.E. X!.U.n.W ; & > > > > > > > > > > > > > > > > > > > > > > - - ; 3 ",
"> > > > > > > > > > > > > > > > > > > > > > > > > > > > > > > > > > > > > > > > > > > > > > > > > > > > > > > > > > > > > > > > > > > > > > > > > > > > > > > > > > > > > > > > > > > > > > > > > > > > > > > > > > > > > > > > > > > > > > > > > > > > > > > > > > > > > > > > > > > > > > > > > > > > > > > > > > > > > > > > > > > & L K.XX#X#X#X#X#X#X#X#X#X#X#XXXXX{.L.L.n.f.s.r...%.x.x.V.T. X XXXXX@XXX#X#X#X#X#X#X#X#X#XoX#XXXXX.X.X XOXOX X(.T.I.l.A - > > > > > > > > > > > > > > > > > > > > > > ; ; 1 p ",
"> > > > > > > > > > > > > > > > > > > > > > > > > > > > > > > > > > > > > > > > > > > > > > > > > > > > > > > > > > > > > > > > > > > > > > > > > > > > > > > > > > > > > > > > > > > > > > > > > > > > > > > > > > > > > > > > > > > > > > > > > > > > > > > > > > > > > > > > > > > > > > > > > > > > > > > > > > > > > > > > > > > & B Y. X+XoX#X#X#X#X#X#X#X#X#X#X#X+XOXT.L.L.L.#.} N.[.T.!.@X+X#XoX#X#X#X#X#X#X#X#X#X#X#X#X#X#X#X#X#XoXXXXXXX@X XE.Y.I.r.C & > > > > > > > > > > > > > > > > > > > > > - ; 5 4 ",
"> > > > > > > > > > > > > > > > > > > > > > > > > > > > > > > > > > > > > > > > > > > > > > > > > > > > > > > > > > > > > > > > > > > > > > > > > > > > > > > > > > > > > > > > > > > > > > > > > > > > > > > > > > > > > > > > > > > > > > > > > > > > > > > > > > > > > > > > > > > > > > > > > > > > > > > > > > > > > > > > > > > & w n. XXXoX#X#X#X#X#X#X#X#X#X#X#X#X#X#X#XXX XV.4.Q.XXoX#X#X#X#X#X#X#X#X#X#X#X#X#X#X#X#X#X#X#X#X#X#X#X@XXX.X(. X XT.P.L.Q , = > > > > > > > > > > > > > > > > > > > > > - ; @ ",
"> > > > > > > > > > > > > > > > > > > > > > > > > > > > > > > > > > > > > > > > > > > > > > > > > > > > > > > > > > > > > > > > > > > > > > > > > > > > > > > > > > > > > > > > > > > > > > > > > > > > > > > > > > > > > > > > > > > > > > > > > > > > > > > > > > > > > > > > > > > > > > > > > > > > > > > > > > > > > > > > > > > * [ |.+X#XoX#X#X#X#X#X#X#X#X#X#X#X#X#X#X#X#X#X@XXX#X#X#X#X#X#X#X#X#X#X#X#X#X#X#X#X#X#X#X#X#X#X#X#X#X#X#X#XXX.X X{.OX[.P.s.Z ; , , - > > > > > > > > > > > > > > > > > - ; ; 2 ",
"> > > > > > > > > > > > > > > > > > > > > > > > > > > > > > > > > > > > > > > > > > > > > > > > > > > > > > > > > > > > > > > > > > > > > > > > > > > > > > > > > > > > > > > > > > > > > > > > > > > > > > > > > > > > > > > > > > > > > > > > > > > > > > > > > > > > > > > > > > > > > > > > > > > > > > > > > > > > > > > > > > - K n.@X#X#X#X#X#X#X#X#X#X#X#X#X#X#X#X#X#X#X#X#X#X#X#X#X#X#X#X#X#X#X#X#X#X#X#X#X#X#X#X#X#X#X#X#X#X#X#X#X#X#XXXXX@X X X X X[.L.y.q.i.E 7 - ; ; - > > > > > > > > > > > - ; 1 2 a ",
"> > > > > > > > > > > > > > > > > > > > > > > > > > > > > > > > > > > > > > > > > > > > > > > > > > > > > > > > > > > > > > > > > > > > > > > > > > > > > > > > > > > > > > > > > > > > > > > > > > > > > > > > > > > > > > > > > > > > > > > > > > > > > > > > > > > > > > > > > > > > > > > - , - > > > > > > > > > > > > > > > 5 K [.@X#X#X#X#X#X#X#X#X#X#X#X#X#X#X#X#X#X#X#X#X#X#X#X#X#X#X#X#X#X#X#X#X#X#X#X#X#X#X#X#X#X#X#X#X#X#X#X#X#X#X#X#X+X+XXXXXoXXX+X#X XY. XOXM.q.Q L Z U , > > > > > > > > > ; 1 4 p a ",
"> > > > > > > > > > > > > > > > > > > > > > > > > > > > > > > > > > > > > > > > > > > > > > > > > > > > > > > > > > > > > > > > > > > > > > > > > > > > > > > > > > > > > > > > > > > > > > > > > > > > > > > > > > > > > > > > > > > > > > > > > > > > > > > > > > > > > > > > > > , , - > ; 8 K C 5 - > > > > > > > > > > > > - K n.@X#X#X#X#X#X#X#X#X#X#X#X#X#X#X#X#X#X#X#X#X#X#X#X#X#X#X#X#X#X#X#X#X#X#X#X#X#X#X#X#X#X#X#X#X#X#X#X#X#X#X#X#X#X#X#XXX#X#X#X#X#X#X#X#X#X#XOX X[.[.m.W , = > > > > > > - ; 5 6 2 i ",
"> > > > > > > > > > > > > > > > > > > > > > > > > > > > > > > > > > > > > > > > > > > > > > > > > > > > > > > > > > > > > > > > > > > > > > > > > > > > > > > > > > > > > > > > > > > > > > > > > > > > > > > > > > > > > > > > > > > > > > > > > > > > > > > > > > > > > > > > - , C Z 7 7 Z X.n.g.W 8 , > > > > > > > > > > > , H L.+X#X#X#X#X#X#X#X#X#X#X#X#X#X#X#X#X#X#X#X#X#X#X#X#X#X#X#X#X#X#X#X#X#X#X#X#X#X#X#X#X#X#X#X#X#X#X#X#X#X#X#X#X#X#X#X#X#X#X#X#X#X#X#X#X#X#X#X#X+X+X+X[.E , > > > > > > - - - ; 1 2 ",
"> > > > > > > > > > > > > > > > > > > > > > > > > > > > > > > > > > > > > > > > > > > > > > > > > > > > > > > > > > > > > > > > > > > > > > > > > > > > > > > > > > > > > > > > > > > > > > > > > > > > > > > > > > > > > > > > > > > > > > > > > > > > > > > > > > > > > > > > , R y.w.r.l.L.!.(.!.I.g.Y , > > > > > > > > > ; Z r.[.+X#X#X#X#X#X#X#X#X#X#X#X#X#X#X#X#X#X#X#X#X#X#X#X#X#X#X#X#X#X#X#X#X#X#X#X#X#X#X#X#X#X#X#X#X#X#X#X#X#X#X#X#X#X#X#X#X#X#X#X#X#X#X#X#X#X#X#X#X#X#XXXOXg.7 > > > > > > > > > - 1 ; ",
"> > > > > > > > > > > > > > > > > > > > > > > > > > > > > > > > > > > > > > > > > > > > > > > > > > > > > > > > > > > > > > > > > > > > > > > > > > > > > > > > > > > > > > > > > > > > > > > > > > > > > > > > > > > > > > > > > > > > > > > > > > > > > > > > > > > > > > > & 3 y.L.L.Y.Q.(.XXXXXX X Xn.J 8 , - > > & = > ; K b.[.#X#X#X#X#X#X#X#X#X#X#X#X#X#X#X#X#X#X#X#X#X#X#X#X#X#X#X#X#X#X#X#X#X#X#X#X#X#X#X#X#X#X#X#X#X#X#X#X#X#X#X#X#X#X#X#X#X#X#X#X#X#X#X#X#X#X#X#X#X#X#X#X#X@Xi.7 & & > > > > > > > > - ; ",
"> > > > > > > > > > > > > > > > > > > > > > > > > > > > > > > > > > > > > > > > > > > > > > > > > > > > > > > > > > > > > > > > > > > > > > > > > > > > > > > > > > > > > > > > > > > > > > > > > > > > = > > > > > > > > > > > > > - > > > > > > > > >     > > > > > > > > > - 8 g.I.Y. XXXXXoX#X#X#XoX XI.g.E 7 < 7 7 , & p n.OX#X#X#X#X#X#X#X#X#X#X#X#X#X#X#X#X#X#X#X#X#X#X#X#X#X#X#X#X#X#X#X#X#X#X#X#X#X#X#X#X#X#X#X#X#X#X#X#X#X#X#X#X#X#X#X#X#X#X#X#X#X#X#X#X#X#X#X#X#X#X#X#X#X#X#XI.Q 7 , > > > > > > > > > - ",
"> > > > > > > > > > > > > > > > > > > > > > > > > > > > > > > > > > > > > > > > > > > > > > > > > > > > > > > > > > > > > > > > > > > > > > > > > > > > > > > > > > > > > > > > > > > > > > > > > > , , , - > > > > > > > > > > > - 7 7 7 , , 7 7 5 ; , , - - , > > > > > > > , Z L.T. XXXoX#X#X#X#X#X#X#XOX|.n.e.e.i.i.E 1 q.OX#X#X#X#X#X#X#X#X#X#X#X#X#X#X#X#X#X#X#X#X#X#X#X#X#X#X#X#X#X#X#X#X#X#X#X#X#X#X#X#X#X#X#X#X#X#X#X#X#X#X#X#X#X#X#X#X#X#X#X#X#X#X#X#X#X#X#X#X#X#X#X#X#X#X#XoXoX|.i.E , > > > > > > > > - ",
"> > > > > > > > > > > > > > > > > > > > > > > > > > > > > > > > > > > > > > > > > > > > > > > > > > > > > > > > > > > > > > > > > > > > > > > > > > > > > > > > > > > > > > > > > > > > > > > > ; 7 Z K Y 8 , > > > > > > > > > & 4 I e.Q K I r.s.q.Z K K 6 6 s 5 - > > > > > , L I.(.(.+X#X#X#X#X#X#X#X#X#X#X@X|.OX@X@X].w.L.+X#X#X#X#X#X#X#X#X#X#X#X#X#X#X#X#X#X#X#X#X#X#X#X#X#X#X#X#X#X#X#X#X#X#X#X#X#X#X#X#X#X#X#X#X#X#X#X#X#X#X#X#X#X#X#X#X#X#X#X#X#X#X#X#X#X#X#X#X#X#X#X#X#X#X#X#X#X#X@XM.C , > > & > > > > - ",
"> > > > > > > > > > > > > > > > > > > > > > > > > > > > > > > > > > > > > > > > > > > > > > > > > > > > > > > > > > > > > > > > > > > > > > > > > > > > > > > > > > > > > > > > > > > > > - , 3 B ] s.s.r.K 8 , > > > > > > > > * K b.n.L.n.T. X(.T.L.L.s.q.J H K 7 , 5 7 7 8 Z ..S.E. X+X#X#X#X#X#X#X#X#X#X#X#X#X#X#X#X+XOX#X#X#X#X#X#X#X#X#X#X#X#X#X#X#X#X#X#X#X#X#X#X#X#X#X#X#X#X#X#X#X#X#X#X#X#X#X#X#X#X#X#X#X#X#X#X#X#X#X#X#X#X#X#X#X#X#X#X#X#X#X#X#X#X#X#X#X#X#X#X#X#X#X#X#X#X#X#X#X#X#XOX .N 8 7 , > > > > > ",
"> > > > > > > > > > > > > > > > > > > > > > > > > > > > > > > > > > > > > > > > > > > > > > > > > > > > > > > > > > > > > > > > > > > > > > > > > > > > > > > > > > > > > > > > > > > > - 6 K L o.V.L.V.a. .K 7 > > > > > > > , 6 q.n.L.S.Y.(.(.XXXXXX[.L.x.w. .L K E K Q q.s.n.T.Y.(.OX#X#X#X#X#X#X#X#X#X#X#X#X#X#X#X#X#X#X#X#X#X#X#X#X#X#X#X#X#X#X#X#X#X#X#X#X#X#X#X#X#X#X#X#X#X#X#X#X#X#X#X#X#X#X#X#X#X#X#X#X#X#X#X#X#X#X#X#X#X#X#X#X#X#X#X#X#X#X#X#X#X#X#X#X#X#X#X#X#X#X#X#X#X#X#X#X#X#X#X+Xn.o.i.y.W 7 > > > > ",
"> > > > > > > > > > > > > > > > > > > > > > > > > > > > > > > > > > > > > > > > > > > > > > > > > > > > > > > > > > > > > > > > > > > > > > > > > > > > > > > > > > > > > > > > > > > > 5 Z ..x.V.Y.{.{.Y.I.n.W 7 5 , > > > ; Y W g.L.S.J. XXXXX+XXXOXY.L.I.n.f.a.s.'.n.f.x.U.@XXXXXXX#X#X#X#X#X#X#X#X#X#X#X#X#X#X#X#X#X#X#X#X#X#X#X#X#X#X#X#X#X#X#X#X#X#X#X#X#X#X#X#X#X#X#X#X#X#X#X#X#X#X#X#X#X#X#X#X#X#X#X#X#X#X#X#X#X#X#X#X#X#X#X#X#X#X#X#X#X#X#X#X#X#X#X#X#X#X#X#X#X#X#X#X#X#X#X#X#X#X#X#X+X@XP.[.|.].w.7 > > > ",
"> > > > > > > > > > > > > > > > > > > > > > > > > > > > > > > > > > > > > > > > > > > > > > > > > > > > > > > > > > > > > > > > > > > > > > > > > > > > > > > > > > > > > > > > > - - 5 Z L r.L. X XOXOX XXX XL.g.q.T 8 7 8 Z w.x.T.(.(.XXoX#X#X+X X{.T.T.|.L.P.L.P.OXOXT.E. X#X#X#X#X#X#X#X#X#X#X#X#X#X#X#X#X#X#X#X#X#X#X#X#X#X#X#X#X#X#X#X#X#X#X#X#X#X#X#X#X#X#X#X#X#X#X#X#X#X#X#X#X#X#X#X#X#X#X#X#X#X#X#X#X#X#X#X#X#X#X#X#X#X#X#X#X#X#X#X#X#X#X#X#X#X#X#X#X#X#X#X#X#X#X#X#X#X#X#X#X#X#X#X#X#X#X#X+X+XOX[.E - > > ",
"> > > > > > > > > > > > > > > > > > > > > > > > > > > > > > > > > > > > > > > > > > > > > > > > > > > > > > > > > > > > > > > > > > > > > > > > > > > > > > > > > > > > > > > > - 8 4 K ..a.n.P. X X@X+XoX#XXXOXOX[.'.b.e.w.s.L.!.OXXXoXoX#X#X#X(. X X X+XOX|. X XOX+X+XXX+X#X#X#X#X#X#X#X#X#X#X#X#X#X#X#X#X#X#X#X#X#X#X#X#X#X#X#X#X#X#X#X#X#X#X#X#X#X#X#X#X#X#X#X#X#X#X#X#X#X#X#X#X#X#X#X#X#X#X#X#X#X#X#X#X#X#X#X#X#X#X#X#X#X#X#X#X#X#X#X#X#X#X#X#X#X#X#X#X#X#X#X#X#X#X#X#X#X#X#X#X#X#X#X#X#X#X#X#X#X#X+XOXt.; - > ",
"> > > > > > > > > > > > > > > > > > > > > > > > > > > > > > > > > > > > > > > > > > > > > > > > > > > > > > > > > > > > > > > > > > > > > > > > > > > > > > > > > > > > > > = > , Y B ..f.N.L.I.|.@XoXoX#X#X#X#X#X@XOXOXT.S.I.|.+X#X#X#X#X#X#X#X(. XXXXX+X#X#X#X#X#X#X#X#X#X#X#X#X#X#X#X#X#X#X#X#X#X#X#X#X#X#X#X#X#X#X#X#X#X#X#X#X#X#X#X#X#X#X#X#X#X#X#X#X#X#X#X#X#X#X#X#X#X#X#X#X#X#X#X#X#X#X#X#X#X#X#X#X#X#X#X#X#X#X#X#X#X#X#X#X#X#X#X#X#X#X#X#X#X#X#X#X#X#X#XoXoX#X#X#X#X#X#X#X#X#X#X#X#X#X#X#X#X#X#XXXOXn.L E 8 ",
"> > > > > > > > > > > > > > > > > > > > > > > > > > > > > > > > > > > > > > > > > > > > > > > > > > > > > > > > > > > > > > > > > > > > > > > > > > > > > > > > > > > > > > > > , 6 S #.x.x.f.L.OX#X#XoX#X#X#X#X#X#XXXXXXX(. X#X#X#X#X#X#X#X#XXXXXXXXX#X#X#X#X#X#X#X#X#X#X#X#X#X#X#X#X#X#X#X#X#X#X#X#X#X#X#X#X#X#X#X#X#X#X#X#X#X#X#X#X#X#X#X#X#X#X#X#X#X#X#X#X#X#X#X#X#X#X#X#X#X#X#X#X#X#X#X#X#X#X#X#X#X#X#X#X#X#X#X#X#X#X#X#X#X#X#X#X#X#X#X#X#X#X#X#X#X#XoXoXoXoXoX#X#X#X#X#X#X#X#X#X#X#X#X#X#X#X#X#X#X XT.C.L.'.i.",
"> > > > > > > > > > > > > > > > > > > > > > > > > > > > > > > > > > > > > > > > > > > > > > > > > > > > > > > > > > > > > > > > > > > > > > > > > > > > > > > > > > > > > > = = > 5 J f.x.f.x.|.+X#X#X#X#X#X#X#X#X#X#X#X#X#X#X#X#X#X#X#X#X#X#X#X#XoXoX#X#X#X#X#X#X#X#X#XoXoX#X#X#X#X#X#X#X#X#X#X#X#X#X#X#X#X#X#X#X#X#X#X#X#X#X#X#X#X#X#X#X#X#X#X#X#X#X#X#X#X#X#X#X#X#X#X#X#X#X#X#X#X#X#X#X#X#X#X#X#X#X#X#X#X#X#X#X#X#X#X#X#X#X#X#X#X#X#X#X#X#X#X#X#X#X#X#XoXoXoXoXoX#X#X#X#X#X#X#X#X#X#X#X#X#X#X#X#X#X+X(.Y.T.P.I.L.",
"> > > > > > > > > > > > > > > > > > > > > > > > > > > > > > > > > > > > > > > > > > > > > > > > > > > > > > > > > > > > > > > > > > > > > > > > > > > > > > > > > > > > > > - - - 1 G L.I.S.!.OX#X#X#X#X#X#X#X#X#X#X#X#X#X#X#X#X#X#X#X#X#X#X#X#X#X#X#X#X#X#X#X#X#X#X#X#X#X#X#X#X#X#X#X#X#X#X#X#X#X#X#X#X#X#X#X#X#X#X#X#X#X#X#X#X#X#X#X#X#X#X#X#X#X#X#X#X#X#X#X#X#X#X#X#X#X#X#X#X#X#X#X#X#X#X#X#X#X#X#X#X#X#X#X#X#X#X#X#X#X#X#X#X#X#X#X#X#X#X#X#X#X#X#X#X#X#X#X#X#X#X#X#X#X#X#X#X#X#X#X#X#X#X#X#X#X#X+X+X X[.{.P.L.L.",
"> > > > > > > > > > > > > > > > > > > > > > > > > > > > > > > > > > > > > > > > > > > > > > > > > > > > > > > > > > > > > > > > > > > > > > > > > > > > > > > > > > > > > ; 5 ; ; Z s.E.(. XoXoX#X#X#X#X#X#X#X#X#XoXoX#X#X#X#X#X#X#X#X#X#X#X#X#X#X#X#X#X#X#X#X#X#X#X#X#X#X#X#X#X#X#X#X#X#X#X#X#X#X#X#X#X#X#X#X#X#X#X#X#X#X#X#X#X#X#X#X#X#X#X#X#X#X#X#X#X#X#X#X#X#X#X#X#X#X#X#X#X#X#X#X#X#X#X#X#X#X#X#X#X#X#X#X#X#X#X#X#X#X#X#X#X#X#X#X#X#X#X#X#X#X#X#X#X#X#X#X#X#X#X#X#X#X#X#X#X#X#X#X#X#X#X#X#X#X#X+X+XOXOX{.[.L.I.",
"> > > > > > > > > > > > > > > > > > > > > > > > > > > > > > > > > > > > > > > > > > > > > > > > > > > > > > > > > > > > > > > > > > > > > > > > > > > > > > > > > > > > ; K E 5 4 r.T. XXX#X#X#X#X#X#X#X#X#X#X#X#XoXXX#X#X#X#X#X#X#X#X#X#X#X#X#X#X#X#X#X#X#X#X#X#X#X#X#X#X#X#X#X#X#X#X#X#X#X#X#X#X#X#X#X#X#X#X#X#X#X#X#X#X#X#X#X#X#X#X#X#X#X#X#X#X#X#X#X#X#X#X#X#X#X#X#X#X#X#X#X#X#X#X#X#X#X#X#X#X#X#X#X#X#X#X#X#X#X#X#X#X#X#X#X#X#X#X#X#X#X#X#X#X#X#X#X#X#X#X#X#X#X#X#X#X#X#X#X#X#X#X#X#X#X#X#X#XoX#X+XOX+X XP.n.v.",
"> > > > > > > > > > > > > > > > > > > > > > > > > > > > > > > > > > > > > > > > > > > > > > > > > > > > > > > > > > > > > > > > > > > > > > > > > > > > > > > > > > > - @ s.h.q.] L. XXX#X#X#X#X#X#X#X#X#X#X#X#X#X#X#X#X#X#X#X#X#X#X#X#X#X#X#X#X#X#X#X#X#X#X#X#X#X#X#X#X#X#X#X#X#X#X#X#X#X#X#X#X#X#X#X#X#X#X#X#X#X#X#X#X#X#X#X#X#X#X#X#X#X#X#X#X#X#X#X#X#X#X#X#X#X#X#X#X#X#X#X#X#X#X#X#X#X#X#X#X#X#X#X#X#X#X#X#X#X#X#X#X#X#X#X#X#X#X#X#X#X#X#X#X#X#X#X#X#X#X#X#X#X#X#X#X#X#X#X#X#X#X#X#X#X#X#X#X#XoXoXoXXXOXP.L.L.x.",
"> > > > > > > > > > > > > > > > > > > > > > > > > > > > > > > > > > > > > > > > > > > > > > > > > > > > > > > > > > > > > > > > > > > > > > > > > > - ; 5 , - > > 5 s C H f.{.P.[. XOX#X#X#X#X#X#X#X#X#X#X#X#X#X#X#X#X#X#X#X#X#X#X#X#X#X#X#X#X#X#X#X#X#X#X#X#X#X#X#X#X#X#X#X#X#X#X#X#X#X#X#X#X#X#X#X#X#X#X#X#X#X#X#X#X#X#X#X#X#X#X#X#X#X#X#X#X#X#X#X#X#X#X#X#X#X#X#X#X#X#X#X#X#X#X#X#X#X#X#X#X#X#X#X#X#X#X#X#X#X#X#X#X#X#X#X#X#X#X#X#X#X#X#X#X#X#X#X#X#X#X#X#X#X#X#X#X#X#X#X#X#X#X#X#X#X#X#XXX X@X#X#X#XXX[.P.U.L.N.",
"> > > > > > > > > > > > > > > > > > > > > > > > > > > > > > > > > > > > > > > > > > > > > > > > > > > > > > > > > > > > > > > > > > > > > - - - , , 3 s Z C 7 - , Z r.g.l.V.E. X+XXX#X#X#X#X#X#X#X#X#X#X#X#X#X#X#X#X#X#X#X#X#X#X#X#X#X#X#X#X#X#X#X#X#X#X#X#X#X#X#X#X#X#X#X#X#X#X#X#X#X#X#X#X#X#X#X#X#X#X#X#X#X#X#X#X#X#X#X#X#X#X#X#X#X#X#X#X#X#X#X#X#X#X#X#X#X#X#X#X#X#X#X#X#X#X#X#X#X#X#X#X#X#X#X#X#X#X#X#X#X#X#X#X#X#X#X#X#X#X#X#X#X#X#X#X#X#X#X#X#X#X#X#X#X#X#X#X#X#X#X#X#X#X#XoXoXoXoXXX(.(.XXXX#X#XXXT.[.U.L.L.",
"> > > > > > > > > > > > > > > > > > > > > > > > > > > > > > > > > > > > > > > > > > > > > > > > > > > > > > > > > > > > > > > > > > > > - 5 7 8 s Z Z K H B C C A r.T. X!.(.(.XXXX#X#X#X#X#X#X#X#X#X#X#X#X#X#X#X#X#X#X#X#X#X#X#X#X#X#X#X#X#X#X#X#X#X#X#X#X#X#X#X#X#X#X#X#X#X#X#X#X#X#X#X#X#X#X#X#X#X#X#X#X#X#X#X#X#X#X#X#X#X#X#X#X#X#X#X#X#X#X#X#X#X#X#X#X#X#X#X#X#X#X#X#X#X#X#X#X#X#X#X#X#X#X#X#X#X#X#X#X#X#X#X#X#X#X#X#X#X#X#X#X#X#X#X#X#X#X#X#X#X#X#X#X#X#X#X#X#X#X#X#X#X#X#X#XoXoXoXoXXX X XXXXXXX X(.Y.P.L.L.L.",
"> > > > > > > > > > > > > > > > > > > > > > > > > > > > > > > > > > > > > > > > > > > > > > > > > > > > > > > > > > > > > > > > > > > - 5 s H J L K B Z a H F L r.v.@XXXXX+XoX@X#X#X#X#X#X#X#X#X#X#X#X#X#X#X#X#X#X#XoXXXXXXX#X#XXXXXoXoX#X#X#X#X#X#X#X#X#X#X#X#X#X#X#X#X#X#X#X#X#X#X#X#X#X#X#X#X#X#X#X#X#X#X#X#X#X#X#X#X#X#X#X#X#X#X#X#X#X#X#X#X#X#X#X#X#X#X#X#X#X#X#X#X#X#X#X#X#X#X#X#X#X#X#X#X#X#X#X#X#X#X#X#X#X#X#X#X#X#X#X#X#X#X#X#X#X#X#X#X#X#X#X#X#X#X#X#X#X#X#X#X#X#X#X#X#XoXoXoXoXoXXXXX(.(.(.Y.Y.U.P.I.P.L.",
"> > > > > > > > > > > > > > > > > > > > > > > > > > > > > > > > > > > > > > > > > > > > > > > > > > > > > > > > > > > > > > > > > > - , 6 p H L J B p p H L L  .%.!.oX#X#X#X#X#X#X#X#X#X#X#X#X#X#X#X#X#X#X#X#X#XXX(.(.(. X+XXX X XXXoXoX#X#X#X#X#X#X#X#X#X#X#X#X#X#X#X#X#X#X#X#X#X#X#X#X#X#X#X#X#X#X#X#X#X#X#X#X#X#X#X#X#X#X#X#X#X#X#X#X#X#X#X#X#X#X#X#X#X#X#X#X#X#X#X#X#X#X#X#X#X#X#X#X#X#X#X#X#X#X#X#X#X#X#X#X#X#X#X#X#X#X#X#X#X#X#X#X#X#X#X#X#X#X#X#X#X#X#X#X#X#X#X#X#X#X#X#X#X#X#X#X#X#X#X+XXX(.(.Y.Y.Y.T.P.Y.[.",
"> > > > > > > > > > > > > > > > > > > > > > > > > > > > > > > > > > > > > > > > > > > > > > > > > > > > > > > > > > > > > > > > > > - , 5 3 p H G J J L L L  .n.L.@X#X#X#X#X#X#X#X#X#X#X#X#X#X#X#X#X#X#X#X#X#X+X(.E.(.(. XXXXX.XXXoXoXoX#X#X#X#X#X#X#X#X#X#X#X#X#X#X#X#X#X#X#X#X#X#X#X#X#X#X#X#X#X#X#X#X#X#X#X#X#X#X#X#X#X#X#X#X#X#X#X#X#X#X#X#X#X#X#X#X#X#X#X#X#X#X#X#X#X#X#X#X#X#X#X#X#X#X#X#X#X#X#X#X#X#X#X#X#X#X#X#X#X#X#X#X#X#X#X#X#X#X#X#X#X#X#X#X#X#X#X#X#X#X#X#X#X#X#X#X#X#X#X#XoXXXXX+X.X(.(.(.!.T.[.T.E. X",
"> > > > > > > > > > > > > > > > > > > > > > > > > > > > > > > > > > > > > > > > > > > > > > > > > > > > > > > > > > > > > > > > > > > - - , ; a ] ..#.#.%.#.;.I.OXXX#X#X#X#X#X#X#X#X#X#X#X#X#X#X#X#X#X#X#X#X#XXX X.X.X.X+XXXXXoXXXXXoX#X#X#X#X#X#X#X#X#X#X#X#X#X#X#X#X#X#X#X#X#X#X#X#X#X#X#X#X#X#X#X#X#X#X#X#X#X#X#X#X#X#X#X#X#X#X#X#X#X#X#X#X#X#X#X#X#X#X#X#X#X#X#X#X#X#X#X#X#X#X#X#X#X#X#X#X#X#X#X#X#X#X#X#X#X#X#X#X#X#X#X#X#X#X#X#X#X#X#X#X#X#X#X#X#X#X#X#X#X#X#X#X#X#X#X#X#X#X#XoXXXXX.X.X+X(.E.(.(. X!. X!.(.(.",
"> > > > > > > > > > > > > > > > > > > > > > > > > > > > > > > > > > > > > > > > > > > > > > > > > > > > > > > > > > > > > > > > > > > > - - ; S  .f.L.C.S.U. X XoX#X#X#X#X#X#X#X#X#X#X#X#X#X#X#X#X#X#X#X#X#X#XXX+XXX+X+X+X#XXXoXoXoXoX#XoXoXoXoXoXoX#X#X#X#X#XXXXX#X#X#X#X#X#X#X#X#X#X#X#X#X#X#X#X#X#X#X#X#X#X#X#X#X#X#X#X#X#X#X#X#X#X#X#X#X#X#X#X#X#X#X#X#X#X#X#X#X#X#X#X#X#X#X#X#X#X#X#X#X#X#X#X#X#X#X#X#X#X#X#X#X#X#X#X#X#X#X#X#X#X#X#X#X#X#X#X#X#X#X#X#X#X#X#X#X#X#X#X#X#X#X#X#XXXXX.X_.(. X(.(.(.(.(.!.|.|.(.(.",
"> > > > > > > > > > > > > > > > > > > > > > > > > > > > > > > > > > > > > > > > > > > > > > > > > - ; 5 7 , > > > - > > > > > > > > > , 7 Y L  .N.T. X X@XXX+X#X#X#X#X#X#X#X#X#X#X#X#X#X#X#X#X#X#X#X#X#X#X#X#XoXoXXX.X.XXXXXXXXXoX#X#X#XoXoXoXoX#X#X#X#X#X#X#X(.XX#X#X#X#X#X#X#X#X#X#X#X#X#X#X#X#X#X#X#X#X#X#X#X#X#X#X#X#X#X#X#X#X#X#X#X#X#X#X#X#X#X#X#X#X#X#X#X#X#X#X#X#X#X#X#X#X#X#X#X#X#X#X#X#X#X#X#X#X#X#X#X#X#X#X#X#X#X#X#X#X#X#X#X#X#X#X#X#X#X#X#X#X#X#X#X#X#X#X#X#X#X#X#X#XoXXX X XXX_.(. X(.(. X(.(.(. X(.Y.",
"> > > > > > > > > > > > > > > > > > > > > > > > > > > > > > > > > > > > > > > > > > > > > > > > - 5 d 0.A , - - - - - > > - > - > - ; p q.n.[.[. X+X+X#X#X#X#X#X#X#X#X#X#X#X#X#X#X#X#X#X#X#X#X#X#X#X#X#X#X#X#XoXXX XXX`.XXoXoXoX#X#X#X#XoXoXoX#X#X#X#X#X#X#XXX(._.+X#X#X#X#X#X#X#X#X#X#X#X#X#X#X#X#XoXoX#X#X#X#X#X#X#X#X#X#X#X#X#X#X#X#X#X#X#X#X#X#X#X#X#X#X#X#X#X#X#X#X#X#X#X#X#X#X#X#X#X#X#X#X#X#X#X#X#X#X#X#X#X#X#X#X#X#X#X#X#X#X#X#X#X#X#X#X#X#X#X#X#X#X#X#X#X#X#X#X#X#X#X#X#X#XoXoXXXXXXX(.(.(.(.E.E.E.{.E.Y.T.",
"> > > > > > > > > > > > > > > > > > > > > > > > > > > > > > > > > > > > > > > > > > > > > > , 7 s H p.s.Q N 5 - - , - > - - - - 5 s H L L. XOXXXXX+X#X#X#X#X#X#X#X#X#X#X#X#X#X#X#X#X#X#X#X#X#X#X#X#X#XoXXX+XXX.XXX X XXX`.oXoX#X#X#X#X#XoXoX#X#X#X#X#X#XoX_._.XX(.XXoX#X#X#X#X#X#X#X#X#X#X#X#X#X#XoXoXoXoX#X#X#X#X#X#X#X#X#X#X#X#X#X#X#X#X#X#X#X#X#X#X#X#X#X#X#X#X#X#X#X#X#X#X#X#X#X#X#X#X#X#X#X#X#X#X#X#X#X#X#X#X#X#X#X#X#X#X#X#X#X#X#X#X#X#X#X#X#X#X#X#X#X#X#X#X#X#X#X#X#X#X#X#X#XoXoXXXXXXXoX_._.(.E.E.{.E.Y.!.L.",
", > > > > > > > > > > > > > > > > > > > > > > > > > > > > > > > > > > > > > > > > 5 8 7 , ; Z q.r.a.f.f.s.o.Q C 4 4 , - ; ; ; 5 C Q ..[ j.{.+XXXoXoX#X#X#X#X#X#X#X#X#X#X#X#X#X#X#X#X#X#X#X#X#X#X#XoXXX(.(. X.X.X.XXXXXoXoXoX#X#X#X#X#XoXoXoXoXXXXX#X#XoXXXXX`.oXXX`.XXXXoX+X#X#X#X#X#X#X#X#X#X#X#XoXoXoXoX#X#X#X#X#X#X#X#X#X#X#X#X#X#X#X#X#X#X#X#X#X#X#X#X#X#X#X#X#X#X#X#X#X#X#X#X#X#X#X#X#X#X#X#X#X#X#X#X#X#X#X#X#X#X#X#X#X#X#X#X#X#X#X#X#X#X#X#X#X#X#X#X#X#X#X#X#X#X#X#X#X#X#X#XoXoXXXXXXXXX`.(.(.(.(.Y.Y.Y.Q.Y.I.",
"- > > > > > > > > > > > > > > > > > > > > > > > > > > > > > > > > > > > > > , ; , C Z H V B r.f.x.V.V.f.N.v.l.X.G I C 5 4 6 1 a L r.s.%.j.K..XXX#X#X#X#X#X#X#X#X#X#X#X#X#X#X#X#X#X#X#X#X#X#X#X+X XY.Y.!.(.(. XXXXXXX#X#X#X#X#X#X#X#X#XoXoX#X#XoXXXoX#XoXoXXXXXXX`.oXoXXXXX+X X#X#X#X#X#X#XoXoXoXoXoXoXoXoX#X#X#X#X#X#X#X#X#X#X#X#X#X#X#X#X#X#X#X#X#X#X#X#X#X#X#X#X#X#X#X#X#X#X#X#X#X#X#X#X#X#X#X#X#X#X#X#X#X#X#X#X#X#X#X#X#X#X#X#X#X#X#X#X#X#X#X#X#X#X#X#X#X#X#X#X#X#X#X#X#X#X#X#XoXXXoXoXXXXX`.(. X X!.T.Y.Y.Y.A.x.",
"- - > > > > > > > > > > > > > > > > > > > > > > > > > > > - , , , - > - - ; 3 Z N S { X. .a.x.I.C.L.L.U.U.S.4.;.V.I.n.r.w.L J ..N.C.N.f.U. X.XXX#X#X#X#X#X#X#X#X#X#X#X#X#X#X#X#X#X#X#X#X#X#X#XXXE.T.(.(.(.(.XXoXoX#X#X#X#X#X#X#X#X#XoX#X#X#XoXoXoXoXoX(.(.(.K.(.XX`.`.oXXXXXXXXXXXoXoX#X#X#XoXoXoXoXoXoXXX#X#X#X#X#X#X#X#X#X#XoXoX#X#X#X#X#X#X#X#X#X#X#X#X#X#X#X#X#X#X#X#X#X#X#X#X#X#X#X#X#X#X#X#X#X#X#X#X#X#X#X#X#X#X#X#X#X#X#X#X#X#X#X#X#X#X#X#X#X#X#X#X#X#X#X#X#X#X#X#X#X#X#X#XoXoXXXXX`._. XXX X(.(.(.Y.U.C.L.f.",
"> > > > > > > > > > > > > > > > > > > > > > > > > > > > > - ; 4 p C 8 p p Z J ] ] %.%.%.f.N.V.A.H.Y.T.E.E.E.J.S.K. X(.(.(.!.!.!.Y.Y.T.E.(..XXXoXoXoXoX#X#X#X#X#X#X#X#X#X#X#X#X#X#X#X#X#X#X#X#XXXY.E.E.(..XXX XXXoXoX#X#X#X#X#X#X#XoXoXoX#X#X#X#XoXoX`.(.(.H.Y.(.~.(.`.XX.X.X X X(.`.XXoXXXXXXXXXXXoX`.`.oXoXoX#X#X#X#X#X#XoXoX`.XXXXXXoX#X#X#X#X#X#X#X#X#X#X#X#X#X#X#X#X#X#X#X#X#X#X#X#X#X#X#X#X#X#X#X#X#X#X#X#X#X#X#X#X#X#X#X#X#X#X#X#X#X#X#X#X#X#X#X#X#X#X#X#X#X#X#X#X#X#X#X#XoXXXXXoXXX(.(.E.(.(.E.Y.Y.L.L.L.k.s.",
"> > > > > > > > > > > > > > > > > > > > > > > > > > > > > - 1 p b [ { X. .r.a.a.f.;.V.C.A.C.S.W.(. X~.(.(.(.(.T.T.(.(.(.(. X X X XE.Y.(.XXXXoX#X#X#X#X#X#X#X#X#X#X#X#X#X#X#X#X#X#X#X#X#X#X#XXXXX(.(.(. X)._.XXXXoXXXoX#X+X#X#X#XoXoXXXoXoXoX#X#XoX(.(.~.~.K.Q.(.(. X(.E.(.(.(.(.(._. X X X.X.X_._._._.).`.oX`.XXoX#X#X#X#XXX`._._..X.XXXXXXXXX+X#X#X#X#X#X#X#X#X#X#X#X#X#X#X#X#X#X#X#X#X#X#X#X#X#X#X#X#X#X#X#X#X#X#X#X#X#X#X#X#X#X#X#X#X#X#X#X#X#X#X#X#X#X#X#X#X#X#X#X#X#X#X#X#XoXoXoXXX.X.X X(.(.(.Q.H.Y.C.L.N.x.s.",
"> > > > > > > > > > > > > > > > > > > > > > > > > > > - - 1 p S b ` #.%.%.%.x.C.P.K.H.S.C.H.J.(.(..X`.`.`.oX_.(.(.(.(.(. X.X.X XE.E.(.`.oXoX#X#X#X#X#X#X#X#X#X#X#X#X#X#X#X#X#X#X#X#X#X#X#X#XoXXXJ.A.Y.(._._..XXXXXXXoX#XXXoX#XXXXXXXXXoX#X#X#X#XoXoX`.~.~.Q.K.(.(.(.E.E.E.T. X.X)._.(.(._.`.`._._._.).(.(.(.(.(.XXXXoXoXoX X_.)..X.X.XoXoXXX XXX#X#X#X#X#X#X#X#X#X#X#X#X#X#X#X#X#X#X#X#X#X#X#X#X#X#X#X#X#X#X#X#X#X#X#X#X#X#X#X#X#X#X#X#X#X#X#X#X#X#X#X#X#X#X#X#X#X#X#X#X#X#X#X#XXX_..X_._._..X(.Y.(.J.S.L.V.f.f.a.a.",
"> > > > > > > > > > > > > > > > > > > > > > > > > > - ; ; 3 B G ` ..f.x.x.x.L.P.K.E.~.A.J.Y.Q.K.(.(.(.`.XXXX(.(.(.E.(.(.(._.oXXX)..X.XXXXXoX#XoX#X#X#X#X#X#X#X#X#X#X#X#X#X#X#X#X#X#X#X#X#X#XXX(.J.J.J.~.(.(..XXXXXoXoXXXoXoXoXXX`.oXoX#X#X#X#X#X#XoX(.(.(.E.Y.K.E.U.Y.H.Y.Y.T.E.(.(.).)._._._.`._.(.~.~.(.(.(.(.`._.`.`.`.XX_._..X.X+X.XXX X X.XXXXX#X#X#X#X#X#X#X#X#X#X#X#X#X#X#X#X#X#X#X#X#X#X#X#X#X#X#X#X#X#X#X#X#X#X#X#X#X#X#X#X#X#X#X#X#X#X#X#X#X#X#X#X#X#X#X#X#X#X#X#X#XoXoXoXoX.X(..X X X!.T.H.C.N.x.p.s.p.#.",
"> > > > > > > > > > > > > > > > > > > > > > > > > > > - - ; B  .| #.;.N.V.N.L.C.Y.Y.Y.Y.Y.(.(.(.(.).).oXXX(.(.(.(.(.XXXXXXoXoXoXXXXX#X#XXXoXoXoXoX#X#X#X#X#X#X#X#X#X#X#X#X#X#X#X#X#X#XoXoXoX XA.H.H.K.E.~.~.(. XXXXXoXoXoX#X#XoXoX`.oX#X#X#X#X#X#XoX`.(.(.E.Y.T.P.P.P.Z.K.Y.E.E.(.~._.(.(.~.).(.(.`.`.).~.~.(.~.(..X).`._..X_._._.(..XoX_. X(..X.XXXoX#X#X#X#X#XoXoX#X#X#X#X#X#X#X#X#X#X#X#X#X#X#X#X#X#X#X#X#X#X#X#X#X#X#X#XoXoXoX#X#X#X#X#X#X#X#X#X#X#X#X#X#X#X#X#X#X#X#X#X#XoXXXXX_._.(.(.(.T.T.U.N.N.x.s.s.p...] ",
"> > > > > > > > > > > > > > > > > > > > > > > > > > > > > ; p  .+.;.x.x.V.C.C.I.F.J.K.(. X X(. X(.`.`.`.`.(.`.`.`.XXoXoXoXoXXXXX`.oXoXoXoXoXoX#X#X#X#X#X#X#X#X#X#X#X#X#X#X#X#X#X#X#X#XoX(.(.(.H.Y.U.K.E.E.(.(.(..XXXoXoXoXoX#X#XoXoXoXoX#X#X#X#X#X`.(.(.E.(.H.U.C.Z.H.H.H.K.E.E.E.E.E.(.(.(._._.)._.).~.~.~.~.).(..X_._._.(._.~.~._._..X(.E..X)..XXXXX#X#X#X#X#XoXXXoX#X#X#X#X#X#X#X#X#X#X#X#X#X#X#X#X#X#X#X#X#X#X#X#X#X#XoXoXoXoXXXoX#X#X#X#X#X#X#X#X#X#X#X#X#X#X#X#X#XoXoXoXXXOX.X X X(.Q.Q.F.S.S.N.f.a.s.r.] J T ",
"> > > > > > > > > > > > > > > > > > > > > > > > > > > > - 3 J #.%.%.%.x.V.C.H.S.S.K.W.(.(.(.(.(.).).oXXXXXoXoXoXoXoXoXoXoXoXoXoXoXoXoXoXoXoXXXXXXXoXoXoXoX#X#X#X#X#X#X#X#X#X#X#X#X#X#XoX(.(.E.K.W.Y.U.Y.Y.E.(.(.(..XoXoX#X#X#X#X#X#XoXoX#X#X#X#XoX`.(.E.}.R.H.H.U.S.C.H.H.Y.K.E.K.E.T.E.(.~.^.)._._._.)._.(.(.(.(.(.XX~.).).).).R.).)._.E..X).).(..XXXoX#X#X#XoXXX(.`.XXXX#X#XoXoX#X#X#X#X#X#X#X#X#X#X#X#X#X#X#X#X#X#X+X+X+XoXoXoXXX#X#X#X#X#X#X#X#X#X#X#X#X#X#X#XoXoXoXoXXXXX X X X(.(.Y.Y.H.A.V.v.1.;.a.p.e.H B N ",
"> > > > > > > > > > > > > > > > > > > > > > > > - - ; ; 2 H ..#.a.%.f.x.N.V.C.A.S.S.J.A.K.(.(.(.(._.oXoX#X#XoX#XoXoX`.`.`.oXoXoXoX#X#XoXoXoXoXXXXX`.`.oXoXoX#X#X#X#X#X#X#X#X#X#X#X#X#XoX X X(.(.(.E.H.Y.E.E.(.(.(.(.XXoXoXoXoXoX#X#X#X#X#X#X#X#XoX_.(.E.E.K.K.H.U.H.H.H.U.U.H.K.H.K.K.T.(.~.^.^._._.(.(.~.Y.K.E.(.(.(.(.).).)._._.~.`._.~.(.(._.(..XXX`.oXoX@XoX(. X(.(.`.oXoXoXoXoX`.oXoX#X#X#X#X#X#X#X#X#X#X#XoXoX.X X+XXXXXXXXXXXoX#X#X#X#X#X#X#X#X#X#X#X#X#XoXoXoXoXXXoXXX X X(.(.Y.Y.J.S.C.v.l.| #.%.w.L a N K ",
"> > > > > > > > > > > > > > > > > > > > > > > > , 3 p B F [ #.%.f.x.x.x.v.V.V.H.V.I.C.A.A.(.(. X(.`.oXoX#XoXoXoXoXoX`.`.oXoXoXoXoXoXoXoXoX`./.`.`.`.`.XXoXoXoX#X#X#X#X#X#X#X#X#X#X#X#X.X(.E.(.(.(.Y.J.J.Y.~.~.~.~.(.(.`.oXoXoXoX#X#X#X#X#X#XoXoX.X~.E.E.E.E.K.K.H.H.H.H.P.K.K.K.R.K.H.K.E.(.(.~.(.(.(.(.).~.(.(.(.(.(.(.(._.).).(.~._.~.(.~.).)..X.X_.`.`.XXXXoX(..X.X(.`.`.XXXXoXoXXXoXoXoX#X#X#X#X#X#X#X#X#X#XoX.X(..X X!. X(.`.XXoXoXoXoX#X#X#X#X#X#X#X#X#X#XoXXXXXXXXX_..X X(.E.Y.Y.F.A.V.V.x.f.s.r.o. .J a B L ",
"> > > > > > > > > > > > > > > > > > > > > - ; ; 5 N G [ { O.%.4.x.N.4.V.v.V.V.C.;.V.A.A.H.K.H.(.`.).`.oXoX`.).`.`.`.`.`.`.oX`.`.oXoXoXoX X_.(.`.`.`.`.`.`.`.oX#X#X#X#X#X#X#X#X#X#X#XXX(.(.(. X(.(.Y.H.S.Y.K.~.~.(.(.`.`.oXoXoXoX#X#XoXoXoXoXoXXX(.E.E.E.R.T.Q.(.K.H.K.J.H.H.Y.H.H.R.H.R.R.R.(.(.(.(.~.(.(.(.(.(.(. X(.(.(.(.(.(.(..X).~.~.(.)..X X.X).`.`.oXXXXXXX.X X X(.(.XX_..X_..X.X.XXXXXXX#X#X#X#X#X#X#XXX X X X X XOX X+X.XXXXXXXoXoX#X#X#X#X#X#XoXoXoXoXXX.X.XXX.X_.(.E.T.Y.Y.F.C.v.N.x.f.f.%.o.....] H d p ",
"> > > > > > - > > > > > > > - - > > > > - - , 4 p S `  .#.%.f.>.4.N.4.V.V.x.N.N.6.V.6.6.S.H.K.(._._.XXXXoX`.`.`.`.`.oXoXoX`.`.XX`._.(. X(.~.(.`.oX`.`.`.`.`.oXXXXXXXXXXXXXXXoXXXXXXX(.E.(.(.(.Q.Y.A.S.Y.Y.Y.Y.E.(.(.(.(.(..XXXXXoXoXoXoXoXoX`.`._.~.E.E.E.K.Y.E.T.K.H.J.H.T.Y.H.H.K.R.R.R.R.R.(.~.~.~.E.(.~.R.E.(.(.(.(.~.~.(.(.(.(.(.(.~.(.(. X X.X_.`.`.oX_._..X.XXX X X(.(.)._._.(.(._._..XXXXXXXXXoXXXoXoXXX_. X X X X X(..X X X+XXXXXoX#X#XoXoXoXoXoXoXoXoXoXXX(.(. X(.(.E.Y.Y.U.I.V.V.x.x.f.%.%.%.#.w.[ H p 3 ",
"> > > > > > > > > > > > > - & > > > - ; , , 4 B F [ } #.;.f.f.j.N.V.V.N.A.7.6.4.v.V.4.8.A.H.H.R.~.)._._.(._.`.`.oXoXoXoXoX`.(._.(.~.~.W.Q.(..XXXoXoXoXoXoXoXXX(.~.K.(.K.Q.(.(.(.(.E.K.H.E.Y.Y.Y.H.A.H.H.J.J.T.T.E.E.E.(.(.).)._.`.`.`.oX`.`.`.`.~.~.Y.E.K.J.H.K.K.K.K.Y.H.Y.H.J.H.H.E.E.E.R.R.R.~.~.~.~.(.(.Q.Q.(.~.~.~.(._.(.(._.~.E.(.(.E.(. X X.X_.(._._.~.(._..X X(. X.X.X(._.(.(.(.~.(.(. X X X X X(.(.`.`.(.(. X(.(.(.(.E.~.~..X(.`.`.oXXXoXoXoXoXXXoXoXoXoXXXXX X(.!.(.Y.U.U.C.V.L.x.f.f.a.%.%.a.p.....] K 4 ",
"> > > > > > > > > > - > > > > > > > , 4 p p z F { } O.$.%.;.;.x.V.A.V.A.A.N.6.1.v.V.A.A.H.H.H.K.R.~.~.).`.`.oXoXoXoX`.`.oX(.E.E.K.H.H.J.Q.(.XXoXoXoX`.oXoX`.).(.K.K.R.H.S.J.A.J.S.A.C.H.H.H.P.Z.C.C.Z.S.S.J.K.K.T.T.E.E.E.E.(.(.).(.`.)._._._.`.~.~.H.H.H.A.H.H.S.S.H.Z.K.Y.H.H.S.H.K.Y.R.R.R.~.~.~.~.~.(.Y.Y.(.~.~.~.).(.(.(.~.(.).).}.(.E.E. X).).)._.(.~.E.R.~.(.(.(.(. X.X X(.(. X(.E.(.Q.Q.Q.(.(.(.(.(.(.(.(.(.E.T.E.E.Y.E.Y.(.(.(.).).`.XXXXXXXXXXXXXXoXoXoXXX_.(.(.T.Y.I.I.C.N.x.x.f.f.a.a.#...#.p.p.o.] P B ",
"> > > > > > > > - - > > > > > > - , 4 N B S F L { } } #.#.#.;.;.4.V.V.A.A.V.6.4.4.A.A.H.H.H.J.K.(.(.(..X(.`.`.oXoX`.`.`.`.(.Y.E.K.K.H.K.~.`.oXoXoX`.`.`.oX_.).E.R.H.H.A.C.C.6.C.6.V.j.C.j.V.N.V.C.Z.P.C.S.J.K.K.K.E.Y.Y.K.Y.E.(.~.~.).~.~.~.~.(.K.H.Y.C.C.A.V.H.9.A.C.Z.U.H.S.A.H.H.H.H.H.H.R.E.Y.(.~.(.Q.E.~.~.~.~.~.~.~.~.~.R.~.~.~.E.R.~.~.(.(.)._._.~.E.E.(.(.(.(.(.(.(. X X X(.(.(.T.T.T.Y.Q.(.(.(.(.(.~.(.!.T.K.Y.U.U.U.H.H.T.E.E.~.~.(. XXXXXXXXXoXoXXX`.XX_.).~.E.K.U.C.V.N.N.x.x.a.f.s.#.....#.%.%...'  .{ ",
"> > > > > > - - - > > > > > - ; 1 3 g l B J J F G ` [ ' ` ..%.;.x.V.A.7.6.4.N.4.6.A.C.H.H.J.H.K.(.(.)..X_.`.`.`.`.`.`.`.`.~.(.(.~.R.E.~.(.`.`.`.`.`.`.`. X(.(.(.K.J.A.S.V.V.V.V.6.6.V.N.j.N.6.6.N.V.C.C.H.H.H.H.H.H.K.H.K.H.K.T.(.(.(.K.K.K.~.W.H.H.A.A.A.A.A.A.7.7.Z.Z.C.A.S.7.H.H.H.H.K.R.R.R.R.R.~.K.Q.Y.E.~.R.~.~.~.~.~.~.~.(.(.(.(.~.(.(.(.(.(.(.(.(.E.(.(.(.(.(.(.(.(.(. X_.(.(.(.T.T.Q.Q.(.(.(.(.(.(.(.Y.U.Y.H.U.H.S.S.Z.H.T.T.T.K.Q.Q.Q. XXXoXoXXXoXXX`._..X(.E.H.Z.V.N.x.x.z.z.f.a.%.......{ | | ........r.",
"> > > > > > > > > > > > > > - 1 2 4 h l B B B S S S D D ` ..$.;.f.N.N.6.7.6.6.x.6.A.A.Z.H.H.K.K.~.(._.(.`.`._.`.`.`.`.`.`.(.(.(.~.)._.`.`.`.`.`.`.oX.X.X X X_.(.T.T.J.A.S.C.C.V.V.V.V.N.6.6.4.6.6.V.A.V.A.H.H.H.H.H.K.H.H.H.K.R.H.H.H.H.H.T.H.K.A.S.S.6.V.6.V.V.6.6.7.A.A.A.V.A.A.H.H.H.H.K.K.K.R.R.R.R.Y.R.(.(.~.~.~.~.~.(.~.~.~.E.E.E.(.(.(.(.R.(.~.(.(.E.(.E.E.(.(.(.(.~.(.(.(.(.(.Y.Y.!.Q.W.Q.E.E.(.(.Q.Q.Y.Y.U.K.H.C.V.V.C.C.H.U.U.U.J.H.Y.(. XXXXXXXXXXXXX X XE.H.H.V.x.f.f.f.f.f.a.a.#... ...[ ' { ..#.#...o.",
"> > > > > > > > > > > > > > - 1 1 4 4 4 i p p p a a a J ` } $.;.;.f.N.;.6.6.4.6.4.V.6.H.H.H.K.K.R.~.(.(.`.`.`.`.XX`.`.`.^.(.(.(._._._.`._.`.oX`.`.`._._._..X).).(.(.(.H.K.Y.H.S.C.V.N.N.6.6.6.4.;.N.N.6.6.6.A.H.Z.H.H.H.H.H.H.H.H.H.Z.Z.H.H.H.H.A.A.S.V.N.6.4.v.x.4.6.7.6.V.V.C.A.H.H.H.H.H.H.H.K.K.H.K.K.K.W.Y.K.R.H.~.R.R.R.~.~.R.E.Y.Q.E.(.(.~.Q.(.~.(.R.E.E.Y.(.(.(.E.~.(.(.(.T.Y.Y.Y.T.Y.Y.Y.Y.E.E.E.Y.Y.Y.Y.H.H.H.A.C.V.S.C.A.C.C.S.A.H.U.!. XOXOXOX X_. X X(.E.U.S.V.x.x.f.f.f.f.a.%.o.......[ [ ' ......o. .",
"> > > > > > > > > > > > > > - , 5 5 5 1 2 i i i i i p S G } #.#.;.;.f.f.;.;.;.6.4.V.6.S.A.H.H.K.R.~.~.~.^.).`.).).(.`./.^.)._..X.X_.).).(._.`.`.`.`._..X(._.).).(.(.(.(.(.(.Y.H.S.A.V.6.6.6.4.1.1.4.;.6.V.6.6.A.C.Z.H.H.C.Z.Z.7.8.8.A.7.9.9.A.A.8.A.N.V.N.6.4.4.4.6.N.6.N.N.V.V.A.7.H.Z.Z.Z.A.H.H.H.J.J.J.J.J.Y.Y.K.H.R.H.W.K.K.~.K.Y.Y.Y.Y.T.(.E.(.E.(.E.E.T.T.E.Y.(.~.E.E.E.(.(.E.K.Y.Y.T.K.K.Y.Y.H.E.E.T.T.Y.J.H.H.H.H.A.N.V.A.N.N.C.V.A.H.U.Y.(. X X X(.(.(.(.E.U.P.V.N.f.f.a.a.%.%.%.#... .....[ [ ' { | ....L ",
"> > > > > > > > > > > > > > ; 5 , , , , 4 4 4 r w w w t F { ' #.$.%.%.f.;.;.;.;.6.6.4.A.6.S.H.W.H.(.~.~.~.^.).~.^.(._.).^.(.(.(.(.(.(.(.(._.(.)._._._.(.(.~.).~.(.(.(.(.(.~.Y.H.A.C.6.4.4.4.4.1.z.f.;.;.v.4.6.V.A.A.7.A.V.Z.Z.6.6.A.A.A.7.6.8.8.7.A.V.6.6.6.6.6.N.6.N.N.x.V.N.N.A.6.A.6.V.A.A.A.A.A.H.S.S.F.F.H.H.H.H.H.H.H.H.H.K.K.K.H.K.K.Y.E.E.E.E.E.E.Y.Y.T.E.K.K.W.Y.(.~.~.R.K.H.H.H.Y.K.K.K.J.K.K.K.T.T.Y.K.J.H.H.J.V.N.x.4.;.4.V.V.S.H.H.Y.Y.Y.Y.Y.Q.(.Y.Y.U.L.C.x.f.f.f.%.%.#.#.#.o. . . .w.] [ ..{ | %...L ",
"> > > > > > > > > > > - - ; ; ; , , , , , 1 2 w w i p a b ` ' } O.+.#.%.;.;.;.;.x.4.6.6.7.A.H.H.H.R.R.R.^.^.~.(.~.(.(.(.^.^.(.(.(.(.(.R.(.(.^.~.~.~.~.(.~.~.(.K.(.(.(.(.(.~.K.S.C.V.x.1.;.;.;.;.;.;.;.;.;.;.;.N.N.6.6.6.V.A.V.Z.V.V.A.A.Z.8.8.6.6.N.N.6.4.4.>.6.6.6.6.N.;.6.4.N.N.4.N.N.7.7.7.7.7.A.A.H.H.A.S.S.A.H.H.H.H.H.H.H.K.H.H.H.H.H.H.K.K.R.E.E.E.E.T.K.Y.K.R.K.K.R.~.W.K.H.H.H.H.K.U.H.H.H.H.U.K.U.U.U.J.H.P.V.S.V.V.4.;.;.4.x.V.F.H.Y.J.S.F.U.U.H.J.H.S.C.x.x.f.f.;.;.%.%.#.#.#... . . . .] ......| ....] ",
"> > > > > > > > > > > - - ; ; ; , 5 ; , ; 5 4 4 4 4 i p S ` { } } +.#.+.%.;.;.;.f.;.4.4.6.6.7.H.H.H.H.K.R.R.K.W.W.E.E.(.(.~.~.~.(.(.(.R.R.~.~.~.K.(.(.~.~.~.R.R.~.(.(.).~.R.H.H.L.x.x.1.f.;.;.%.;.;.;.;.;.;.;.;.;.;.>.6.6.N.6.6.V.N.A.A.Z.A.A.6.6.N.6.6.1.1.4.6.>.6.4.6.;.6.6.4.x.4.N.6.6.6.V.V.V.A.A.7.A.A.A.A.C.A.A.8.6.A.7.H.H.A.H.A.A.A.H.J.H.K.K.(.E.T.K.K.K.E.R.K.E.R.R.K.Y.H.H.H.H.H.H.K.H.H.H.H.H.S.H.H.A.A.C.N.C.V.V.N.4.x.N.N.U.H.U.U.S.A.C.S.L.C.C.A.V.x.a.a.a.%.%.%.%.#.#.....} .. .{ { [  . ...} { ..] ",
"> > > > > > > > > > > - > > > - ; ; , , ; ; 5 1 1 1 5 i f _  .{ { } | O.+.+.%.%.%.%.;.;.4.6.6.7.Z.Z.H.H.Z.H.H.K.K.K.K.K.Q.J.K.~.E.Y.Y.H.K.~.R.W.K.T.T.K.K.R.K.R.R.~.(.~.~.R.H.V.V.x.x.1.;.f.;.%.;.+.;.%.%.;.;.;.;.;.;.;.;.4.6.6.N.N.N.A.A.6.N.;.4.6.4.;.4.4.;.>.>.;.4.4.4.4.4.4.6.;.;.;.4.N.x.N.N.N.N.N.6.6.N.V.V.V.V.6.V.A.A.A.A.7.A.A.C.8.A.A.H.H.H.Y.T.U.H.H.K.K.R.K.T.E.R.Y.Y.H.H.J.H.H.H.H.H.C.Z.Z.C.Z.A.S.V.A.A.C.N.j.N.N.x.x.N.N.H.H.U.Z.A.A.V.V.V.V.x.x.f.a.%.%.#.#.#.#.........} { {  .{ { {  . ... ... .] ",
"> > > > > > > > > > > > > > > > > > - - - - ; ; 5 1 1 4 a S F G G { } ..#.#.#.#.%.%.+.@.;.;.4.6.7.7.A.C.S.H.Z.H.H.H.J.K.Y.J.H.H.R.H.H.H.J.K.K.H.H.H.H.H.J.K.H.H.R.~.(.(.~.R.H.V.V.v.4.1.;.;.z.;.;.;.;.%.%.;.;.;.%.;.;.;.;.;.4.4.4.4.4.6.6.>.>.;.4.;.;.;.4.;.;.;.1.;.;.;.;.;.;.;.4.;.;.;.;.;.;.4.4.4.x.4.4.N.N.N.N.V.V.V.V.6.6.7.A.7.6.A.6.V.6.6.A.Z.Z.H.H.U.Z.H.U.K.R.K.K.E.H.H.H.Z.H.U.C.H.H.H.H.Z.Z.C.A.A.A.V.V.N.N.N.N.N.N.N.N.x.N.V.C.H.C.V.N.j.;.N.x.z.f.%.%.#.#.#.#.#.#.........| {  .{ [ [ [  ...........[ [ ",
"> > > > > > > > > > = > > > > > > > > > - - - ; ; 1 ; 5 8 p B B F L { | O.O.| | #.#.+.@.+.;.4.;.6.6.V.A.A.A.V.A.A.7.H.H.H.S.H.H.9.Z.H.Z.A.H.H.H.H.Z.Z.Z.H.H.A.H.H.H.R.R.R.R.K.S.A.v.v.1.1.;.4.;.;.;.%.%.+.%.%.%.%.%.;.;.;.@.@.;.;.;.;.;.;.;.;.;.;.;.;.;.;.;.;.+.%.;.;.;.%.%.;.;.;.;.%.%.;.%.%.%.@.;.;.;.;.4.;.;.;.6.4.x.6.>.6.>.6.6.6.N.4.4.N.;.6.7.Z.Z.H.U.C.C.H.H.H.H.H.H.Z.Z.Z.C.Z.Z.C.A.H.Z.Z.Z.Z.A.V.V.V.4.x.x.>.j.j.f.x.x.N.N.V.C.V.C.N.4.;.;.;.f.f.%.%.%.#.| | #..... . ... ...{  .[ ] ] ]  . . . .} ' [ [ ` ",
"> > > > > > > > > > > > > > > > > > > > - - > > - ; ; , , 4 p B S F [ { { ....} } | | | #.%.+.@.4.4.6.4.6.6.6.6.7.6.6.V.A.A.A.V.6.V.A.A.A.Z.Z.Z.9.Z.Z.7.7.7.7.7.Z.H.H.R.R.H.R.H.H.C.V.x.1.;.4.;.;.@.%.%.%.#.%.;.%.%.%.%.%.+.@.@.+.@.%.%.%.%.;.@.@.@.;.;.;.$.;.@.;.;.;.%.%.%.%.%.%.%.#.#.%.$.#.#.O.$.%.%.;.;.;.;.;.;.;.;.;.;.;.;.;.;.4.;.;.;.;.;.>.6.A.A.A.A.A.C.C.C.H.Z.Z.Z.Z.C.V.N.V.A.A.V.V.A.C.C.C.V.4.6.4.;.;.;.;.;.f.x.N.N.N.j.L.V.V.V.4.1.;.%.;.;.a.#.#.#.#.o....... .]  . . . .] ] ] ] ] ] [ ] ] [ ' ' ] ] ] ",
"> > > > > > > > > > > > > > > > > > > > > > > > > - - ; ; 1 4 p B F G _ _ ] G { { { { { | O.O.%.+.+.@.@.;.4.4.4.4.4.4.4.6.6.V.N.4.4.V.N.V.A.6.A.7.6.A.7.6.7.6.6.Z.9.H.H.K.H.H.H.Z.A.A.V.x.6.4.;.;.@.;.;.;.%.%.;.%.%.%.$.+.+.+.+.+.@.%.%.%.%.;.+.@.;.%.%.;.$.$.%.;.;.;.%.+.%.%.$.+.#.#.#.O.O.#.#.#.#.#.#.$.;.+.+.@.@.;.%.;.;.;.;.;.;.;.;.;.;.;.;.f.;.N.N.V.V.6.A.V.C.Z.Z.Z.A.V.V.V.N.N.N.N.N.N.4.4.N.N.N.x.f.;.%.#.#.#.%.x.N.N.N.V.V.Z.C.V.f.;.;.%.a.%.#.#.o.o...o.o... . . . .[ {  .] ` ] ] [ ] ] ] ] ] ] _ ` ] ]  .",
"> > > > > > > > > > > > > > > > > > > > > > > > > > - ; ; 1 3 4 p B B F L L F L ` [ [ } ^ } O.O.#.O.$.$.%.;.;.1.;.;.;.;.4.4.4.4.;.4.4.4.>.6.6.6.6.6.6.N.6.4.6.4.6.8.8.A.H.Z.H.Z.7.7.A.V.V.6.6.6.;.;.;.;.;.;.;.;.%.#.#.#.O.$.O.+.+.O.+.+.$.#.%.+.+.%.#.#.$.O.#.#.$.%.%.%.%.%.$.O.O.| O.O.O.O.O.O.| #.O.O.$.$.O.O.O.O.+.%.%.%.;.+.@.+.+.%.%.%.%.;.$.;.;.;.6.;.;.N.N.C.V.V.V.V.6.N.N.f.f.N.N.f.;.;.;.f.j.f.;.;.;.%.+.} ..#.%.;.N.N.N.V.Z.V.V.f.;.;.%.%.%....... . . . .[ [  .[ [ [ ]  .] ] ] ] ] ] ] ]  . .` ` _ ] ] ] ",
"> > > > > > > > > > > > > > > > > > > > > > > > > > - ; ; ; , 3 4 3 4 p B r V F F ` G ` ~ ^ } } } } #.#.$.$.$.%.%.%.;.;.;.;.;.;.;.4.4.;.;.;.;.;.;.@.;.;.;.;.4.1.4.6.4.6.A.A.A.7.8.8.7.7.6.6.6.6.;.;.;.;.;.;.;.;.;.+.%.#.O.$.O.+.| +.#.O.O.#.#.#.#.O.#.#.O.O.%.O.O.| +.$.$.$.O.O.O.} O.O.} } O.O.O.O.O.} O.O.} } O.O.O.O.$.$.$.O.O.O.+.O.O.O.#.#.#.O.$.%.;.;.f.f.f.N.N.N.6.6.6.6.f.f.f.;.f.f.;.;.;.f.f.;.%.%.%.%.O.} | } O.;.;.x.x.x.f.N.j.;.%.;.#.#.#.} { [ ] ` ` ` ` ` L ` [ _ _ [ [ ] ] ` ` _ _ ` { { [ ] _ _ [ ` ",
"> > > > > - > > > > > > > > > > > > > > > > > - - > - ; ; - - ; , , , 5 4 i B S D D D G M G ` ~ ` ' { } } } } O.O.+.O.+.+.+.%.;.;.;.;.;.;.;.;.@.;.@.;.;.@.;.;.;.;.;.;.4.4.6.A.6.6.6.6.6.6.6.6.6.6.4.;.;.;.;.;.;.@.+.+.$.$.O.+.+.O.O.O.| O.$.$.O.O.O.#.#.#.O.#.O.} } } O.O.O.} } } } } } } } } } } O.' } } } } } } O.O.O.O.O.O.} O.O.} } O.| | } ..} | O.+.+.;.a.;.;.;.x.4.4.;.;.;.f.a.;.;.;.;.;.;.;.;.;.%.O.#.$.O.#.| } O.$.%.f.f.;.;.j.f.;.#.#.o.o...' ` ` ` L _ ` L G G L L G L _ L L L L _ _ L L L ` ' { ] ] _ _ ",
"> > > > > > > > > > > > > > > > > > > > > > > > - > - - - - > - ; ; - , , 3 4 p a B B S F D D M ! ~ G ` ` [ { } | | } O.O.$.O.+.+.+.$.$.;.;.$.$.;.$.%.%.$.@.%.;.;.;.;.;.;.;.>.>.6.4.;.4.4.4.4.6.4.;.@.;.;.;.;.;.@.+.+.$.$.$.O.O.O.| | | | O.O.O.O.O.O.O.O.| | | O.} O.O.} | } } } } } } } } } } ' ' ' ' ' ' ' ` { } } } } } } } / } { } } } } { { } | | } O.$.%.%.;.%.;.%.%.;.;.;.;.a.$.#.#.;.%.$.%.%.#.#.....#...} { { { { } #.#.%.;.f.;.#.#..... .' ` J G L L _ L L D F F F F G D _ L F G ` ` _ L L L [  .] ] ] L ",
"> > > > > > > > > > > > > > > > > > > > > > > - - > > > > - > > - - - - - - 5 4 3 4 p a a t B S n M m F F G ~ { { ' } } } } } } } | | O.$.$.$.O.$.O.O.#.#.+.+.+.%.%.%.%.@.;.;.;.;.;.;.;.;.@.;.;.;.@.@.;.;.;.;.%.@.+.+.$.$.$.O.O.O.| | | } O.O.O.} ' } O.#.} } } } O.O.( } } | } } } } } } { { { ' ' ' ' ' } ` ` ^ } } } } ' { ` ' ^ ~ { } / } } } } | { } O.O.#.#.#.%.%.#.#.#.#.#.#.#.#.#.#.$.#.O.O...#.#... .[ } ` { ` G ` ` } #.#.#.%.%...} } { [ ! G F G G G L L G L G F G F F G L L G L ] ] L L L L L [ ] G ] ] ",
"> > > > > > > > > - > > > > > > > > > > > > > > > > > > > - - > > - > > - - - , , , ; 4 p r B B S S b z b m m G ` ` ` ` { } } } } } { { ' } O.| O.} } | } } $.O.O.+.} %.#.O.$.$.O.@.@.@.@.;.+.;.;.@.@.+.%.;.;.+.+.+.| O.$.O.O.O.O.O.} } } } ' } } } O.' O.} ' } } } { } / } } } } } } { { { { } ` ' ' ' ' ` { ` ` } ` { ` ` ` ` { ~ / { ` { { { ' } { { } | | } } O.#.............#.O.O.#.| } } | } ` { ....' ` { ' [ _ G _ _ [ ` ` ' ....{ ` ` ` G G M F D L F G L ] L G F L G G F L _ ] ] _ L G G G G J L ] _ ` L ",
"> > > > > > > > > - > > > > > > > > > > > > > > > > > > > - - > > > > - - - > - ; , , 1 2 % p r r t B z b b M m M G L ` ` ~ ~ / ' ' { { ' } ' ' } } } } } } } } } } } | | O.O.O.O.O.+.+.+.+.+.$.O.+.+.+.+.%.%.+.+.+.+.O.$.O.O.O.O.O.} } } } ' } } } ( ' ' ' ' } } } { { { } ' } ' ' } ` ` ' ' ' ` ` ' ` ` ' ` ` [ ' ` ~ ` ' ` ` { ~ / / ` { { { ^ ` { [ ' } { { } | } } } } } | } } | } } } } { { { ` ' ' ' ' [ [ [ ] F F n L ` _ [ ` [ ` ` n D D D D F F F F M D L _ _ L L ` ` L G L ] ] ] ] L G J D F F G G ` L F ",
"> > > > > > > > > > > > > > > > > > > > > > > > > > > > > - ; - > > > > - - > > - ; ; ; ; $ 4 w w p t r B b b b b z S F G M M M ^ ` ` G G ! ` ' ' ` ^ } / / ^ { { ' ' { } O.} } } ) ) O.O.O.O.O.O.O.O.O.O.O.O.| O.O.O.O.O.O.O.O.} } } } } ' } ' } } / } } ' ' ' ' { { { { ` ` / / { ` [ ` ` ' ' ` ` ` ` ^ ^ ` ` ` ` ` ^ ' ' ~ ~ ~ ~ ^ ~ ^ ^ / ~ ~ ` ` ` [ { ` ` { } { } } } } } } | } } / } } ` ` ` [ [ ' [ [ ` ` _ _ G J u D G G L u G G F S D D S S F S D F F G F G L _ [ ] _ G G G L L L L G G J J F F F D L F J ",
"> > > > > > > > > > > > > > > > > > > - > > > > > > > > > - ; ; - > > > - - > > - - - ; ; , 3 # 4 4 p r B B B z z z z t S b b n M G F G G M M M ! ` ~ ~ ^ ^ ^ ` ` ' ' } ` { ^ } ' } ( } } } } } } | O.O.| | } } } } } | } } } } ..} { } } ' ' ' ' } } } } } ` ` ' ' ` { { ^ ~ ^ ~ ~ ! ` ` ^ ^ ~ ` ` ` ` M M ~ M M M ~ ! ` ` ! M ~ ~ ~ ~ ~ ` ` M ~ ` ~ ` ` ` ^ ^ ` ` ` ' { ' ' ' } { { } ' ' ^ ` ` ` ` [ [ ` ` [ ` ` G D b S D L D D b D G S f S b S B B f F F F F F F D _ [ [ ` G G F G G L G H H B S B B S S J a a ",
"> > > > > > > > > > > > > > > > > > > > > > > > > > > > > > > - - - - > > > > > > > > - - ; 3 1 ; 3 2 4 p N g % r j z a a t z b b S F D n M m M G G M D ` ` ~ ~ ~ ~ M ~ ! ` ! ~ ^ ~ / { } ' } } } } } } } ( / } } } } } } ' } } } ' } ' ^ ^ ^ ' ' ` ` ' ' ` ^ ^ ^ ^ ^ ^ ^ ~ ^ ~ M M ` ` ` ` ~ ^ ~ ` ! ~ M M G G M M ~ m m ! ~ ~ ! ! M ~ ` ` M ~ ` ` ` ~ ~ ~ M M ! ` M ` ` ^ ^ ^ ` ` [ [ ' ' ` ^ ~ ` ~ ~ ` L G ` ` ` G D F D D D D n b S J S a S S B B t z B S S S F F L L L L ] G F F F G F F S B p p p N B a a a i ",
"> > > > > > > > > > > > > > > > > > > > > > > > > > > > > > > > > > - > > > > > - - - - ; ; ; ; , 3 2 8 4 4 4 3 h r r a a t z z x z b b F b b b M b b D M ! M ~ M M M ~ ` M ! ~ M / M ~ ~ ^ ^ ' ^ ^ } / / ( / / / / / / / ` } } ^ ' / ~ ^ ^ ` ! ` ` ' [ ` ` ~ ^ ~ ^ ^ ^ ^ ~ M ! M M ` M M ! ! ! ! ! ! M M M M G M M M m m m ` ` ! ! G G G G M ~ ` G G M M M M M M G ` ! ` G ` ~ ` ` ` ` ` ` ` ! ` ! ~ M M F M ! ` D n m D D D n D S F b B S B B t a a p a a a B S D F D D J J S B B B z F S S B p p p p i p i p i 6 ",
"> > > > > > > > > > > > > > > > > > > > > > > > > > > > > > > > > > - - > > - ; ; ; , , ; 5 ; ; ; , 5 1 3 3 3 3 3 4 r r w r t t t t z z B B z b b b b n v m b b G v n b n m M M m M M M M M M ! ! ~ M M ~ ^ ^ ` ` ^ ^ / / ` ~ / / ^ / M ~ ! ^ ` M ! ` ` ` ~ ~ M M ` ~ ~ ~ M m M ` G G G M ! M ! ! M M m m M F G n m m m M b F n M G ` M M ` ! ~ M M M ~ M ` G F G G M ! M M G ` ! ! ! ` [ ` G G ` ` ! M F F n D D D n n F G J F F b b b z z z r t t e a a a p N N a f f S B a a p 4 p a B a a B p i p p # p 4 3 5 , ",
"> > > > > > > > > > > > > > > > > > > > > > > > > > > > > > > > > > > > > > - ; - > - - & , ; - - - - ; , , ; , 3 4 i i i p r r a p r r r r r z z z b b b b b z b b b b x m m m v m n m m b M M M ! m M M M ~ ! ` ` ~ ~ M M ~ M ~ ~ M m M ! M ~ M ! ! ` M M ~ ! ` ` M ! M M m M M n M M m M M M M M m M n b D G n b v v v n b v m m M M ! ! ! ~ M G M ` M D G G F G ~ ^ ~ M ` G ! ! M ` _ D F F M M M G D n v D n n n M F G S J S b S z t t t t t r r p a a p r t p p p p i i p 2 2 i w r p w i p 4 4 4 4 5 3 , - - ",
"> > > > > > > > > > > > > > > > > > > > > > > > > > > > > > > > > > > > > > > - > > > - , , - - - > > - , ; - - , 3 3 2 1 1 4 i i p w w p p r t t t b b b b b b b b b b z x m k b b v v n v M M M M m m M M M M G M ! ~ M G ~ M M M M M ! ! M M M n G _ { n M G F G M M M M m M M G n M M M M M F b b b n n F S F S F b b b b v v M M M M M ! ` ` ` _ G M G F D n M M M M M M F M G ` M D G D F D D n n n n G n M M D n D S F S S u b z z B a a t a r r p i 4 2 i 2 4 % w r p 6 1 5 1 i p 4 % p 6 4 1 6 1 , ; ; - - ",
"> > > > > > > > > > > > > > > > > > > > > > > > > > - - - > > > > > > - ; , - > - > > - - - - - > > > > - , > > - - , ; ; , 5 4 4 4 % w r r t t t t t z t u b z t z q z z z z z z z z z b n n u b b m m b M n n D n m n n D M M m M m m v M M M n M n M b n M F F M n n n m F b n n M m b n v m F F n n b b b b b S b b b z b b b m v n n M M G G F ` ` G G n F F M m m M M M G M n M D D D D D D J D S F m D n n F D J J D F b S f z z t t r a t r r r i 1 ; ; 1 2 1 2 2 4 4 , ; ; 1 2 2 2 5 5 5 , ; ; , ; - - - > ",
"> > > > > > > > > > > > > > > > > > > > > > > > > > - - > > > > > > > - ; ; - - , > > - > > - - > > > > > > > > > > > - - - , 5 1 1 4 2 % w r r r r z z z t t t t t t B t t t t z z k z b b n b z x m b y y b n y b n n n D b b v n b b n M n n M n v M n M F M D M M M m m b b b b b m b v b v F F b b b m m v v b b B a B z z x b b n M M m n F F v n M b b b n M M F D n M D D F D D M n M D D n b F F b D D n D D D D F S S S S B B t z z r z r r w 4 , - - ; 1 2 2 1 1 5 - > - - 1 1 1 ; > - > > - - - > > > > ",
"> > > > > > > > > > > > > > > > > > > > > > > > > > > > > > > > > > > > - > > - - > > - > > - - > > > > > > > > > > - - - - , ; ; ; 1 3 ; 3 4 i i i w t w r t p % r r r r r t t t u u q t z b z t z b b b b b b c b u b n b b z j b v v b b b M n v b v v b D D y M n n m z b b b b b b c n v y b z B z z x m b b b b z x b t t z z b n n D M n M G m m M b D n M M b n D D n b F D D n n m b b S S b b S S f u u u b S S t u S t b f t t t t t a i r w 2 ; > > ; 1 2 2 4 3 - > > > - ; ; ; - > > > > > > > > > > > ",
"> > > > > > > > > > > > > > > > > > > > > > > > > > > > > > > > > > > > > > > > > > > - > > - > > > > > > > > > > > - ; - - - - ; ; 1 ; ; ; 1 1 2 4 4 % w w % 3 ; 3 4 i r r t w t r t e t t t z z t 0 t t z j z t z z u b b k b z b u u z b c v b b b b b M b b b b v v v x m u y b b b b c u t t t t t z z k z b b t t z t 0 t t t x c n n n n G m m b F F D n b b b F b D n b z b D D D b b S S z z b u S S a a t a f a a a z a t t a p a r r i 4 1 1 1 , > > ; 6 4 4 1 , - > > > ; 5 1 ; - > > > > > > > > > > > ",
"> > > > > > > > > > > > > > > > > > > > > > > > > > > > > > > > > > > > > > > > > > > > > > > > > > > > > > > > > > > - - ; ; ; ; ; , ; - - , 1 1 3 3 # % # 1 5 , 1 2 % % r r t t r t 0 z r r r t t r t t z j q t e e u u t b b c b u t q z k c b b z z k k c v b b k b b z z t t z t z z z r r t t t t z z t t l j t e t t r r t t x m b b D b b b b n n b b D b b b b b b M b b n n b b b S S 0 B S S b S f a p r a a r B a S a a e t z B r 4 % 2 1 ; 1 ; - - ; 4 2 2 5 - > > > > - - - > > > > > > > > > > > > - ",
"> > > > > > > > > > > > > > > > > > > > > > > > > > > > > > > > > > > > > > > - > > > > > > > > > > > > > > > > > > > > - - - - - - > > > - - , 1 ; ; 1 1 ; ; 1 1 ; 1 3 @ # % r 0 t r 0 r r r r t r 0 0 0 0 q t t e e 0 t t t z q q t t t z z q v b q z j k b b b t z t t z t r r r 0 t r t e e t 0 r z z 0 r r r j z t r 0 w p i r b b b b b b n b v b n n n b b M D b v b b S u y D S S b S t a a t u t a a i 2 2 # w w r r r a a w w t r w w 2 ; ; ; 1 ; - ; 1 % 4 6 1 ; > > > > > > > > > > > > > > > > > - ; ; ",
"> > > > > > > > > > > > > > > > > > > > > > > > > > > > > > > > > > > > > > > > > > > > > > > > - - > > > > > > > > > > - , , - - > > > > - ; ; ; , , ; ; - - ; ; - - ; 1 @ w r w w w r r t t r r r r r t r r t r r r r r e e e q q t r 0 t t t z z t r z r r t z e t t t t r t z r t q q 0 r t 9 O r r t e t r r r 0 t r w i 2 # w t b v b b n n b b m n n n D u n b b b b z z b b b S S b B a p t t t a w 2 X 1 1 2 2 # w w # 6 1 ; # w i @ 2 1 ; > - - - > - ; 1 1 1 ; ; - > > > > > > > > > > > > > > > > , * - ",
"> > > > > > > > > > > > > > > > > > > > > > > > > > > > > > > > > > > > > > > > > > > > > > > > - - > > > > > > > - > > - - - - - > > > > > - - - ; ; ; ; - - - - > > - , 1 # i 2 4 % % w w w p r r w w w r r i # w r r w w r 0 q r r 0 w r 0 q 0 q t w % r r r t t t 0 t t r r t q t 0 0 r w + w w w r t t r r r p w w w % 2 2 2 w r t z b b b b b b t F b b S u F b u b z b b b b z z b t p p p p r t a 2 , , 1 1 2 # i 2 1 5 ; ; , 1 1 1 5 ; - > > > > > > - ; ; ; ; ; - > > > > > > > > > > > > > > > > > > > > ",
"> > > > > > > > > > > > > > > > > > > > > > > > > > > > > > > > > > > > > > > > > > > > > > > - - > > > > > > > > - - > - - > > > > > > > > > > - - ; ; ; - - - > - > > - ; 4 6 1 1 1 1 @ 2 2 2 % % # 2 i w w w # % % w w r r q 0 + % % w w r 0 r 0 0 w r w w 0 z r r w r r w w r r 9 w r w # # 2 1 1 4 4 w 9 r w w w i @ 1 2 % % % r z z u n t b z b z b b b z t z b u z t t a t z t z z N 4 4 i w r w i 2 ; ; ; 1 2 i 6 ; - - - - ; ; ; - ; > > > > > > > > > > > > > > > > > > > > > > > > > > > > > > > > > > > ",
"> > > > > > > > > > > > > > > > > > > > > > > > > > > > > > > > > > > > > > > > > > > > > > > > > > > > > > > > > > > - , - > > > > > > > - > - ; , - - - - - > > > > > > > ; 1 1 ; - ; ; 1 $ 4 @ ; : 1 2 2 i w w w w w w 9 0 9 r % % % w + r + w + + w p w % % w i r w w r # 2 # w w w # @ @ 1 ; - ; , o # w w # w % % 2 2 2 1 3 % r z t u n u u e b b b b b a w z z t t a w w r B t t r r r w i i i i i 4 p 3 ; 1 2 # 1 ; > > > > - - > > > > > > > > > > > > > > > > > > > > > > > > > > > > > > > > > > > > > > ",
"> > > > > > > > > > > > > > > > > > > > > > > > > > > > > > > > > > > > > > > > > > > > > > > > > > > > > > > > > > > - ; - > > > > > > > > > > - - - - > - > > > > > > > > - ; 1 ; - - , 1 2 1 ; ; - ; 1 # w w w w w r 0 9 0 r w % $ % % % l % # w O # 4 # % % # # + w % # 1 1 1 # @ 1 5 ; ; ; - > - ; , 3 2 1 3 % % # w # 1 1 1 $ r 0 0 b u b b t u u u t t r p r z t r a 4 1 i a B z a t t t p i i 2 2 2 i 2 2 3 1 2 1 - > > > > > > > > > > > > > > > > > > > > > > > > > > > > > > > > > > > > > > > > > > > > ",
"> > > > > > > > > > > > > > > > > > > > > > > > > > > > > > > > > > > > > > > > > > > > > > > > > > > > > > > > > > > > - > > > > > > > > > > > > > > > > > > > > > > > - > > > - ; , - ; 1 1 @ 1 1 5 3 1 @ # % w w + w w w + w w % % $ @ @ $ $ @ % + % ; @ # 4 $ @ @ 2 ; ; ; 1 1 1 ; - - - - > > > > - ; 1 5 ; 1 @ # # 2 1 @ 2 4 % r t t z u t z B t a a r p p a p p p r i 3 ; 1 i a a a t t t i 4 3 2 6 2 2 2 2 1 ; 5 ; > > > > > > > > > > > > > > > > > > > > > > > > > > > > > > > > > > > > > > > > > > > > > ",
"> > > > > > > > > > > > > > > > > > > > > > > > > > > > > > > > > > > > > > > > > > > > > > > > > > > > > > > > > > > > - > > > > > > > > > > > > > > > > > > > > > > > > > > > - ; ; ; ; ; 1 1 # 2 3 1 ; ; 1 # w w w w # % @ # # % % @ 1 ; 1 ; 1 1 1 1 , ; 1 ; , - ; 1 - > ; ; & ; ; - > > > > > > > - ; 1 5 ; ; 5 1 1 1 1 1 % i p t t z j t t r N r 4 i 4 8 i i 2 4 4 2 1 ; - 1 2 i i i w r p 4 1 : 1 1 1 1 1 ; - - ; - - > > > > > > > > > > > > > > > > > > > > > > > > > > > > > > > > > > > > > > > > > > > > ",
"> > > > > > > > > > > > > > > > > > > > > > > > > > > > > > > > > > > > > > > > > > > > > > > > > > > > > > > > > > > > > > > > > > > > > > > > > > > > > > > > > > > > > - - - - - ; ; - ; ; 1 1 1 ; ; - - ; @ # # # # @ @ 1 1 1 @ @ 1 ; ; ; ; - - - ; ; - - - > > > - - > > - - - - - - > > > > > > > ; ; ; - - ; , ; 5 2 4 % r a a z l z t r p % 4 1 3 , , 5 1 2 @ 1 1 ; - - ; 1 1 4 i r w % 4 5 1 1 1 1 1 ; ; > > > > > > > > > > > > > > > > > > > > > > > > > > > > > > > > > > > > > > > > > > > > > > > > > ",
"> > > > > > > > > > > > > > > > > > > > > > > > > > > > > > > > > > > > > > > > > > > > > > > > > > > > > > > > > > > > > > > > > > > > > > > > > > > > > > > > > > > > > > - ; - - - - - - > - - - - - - - - ; 1 1 1 @ @ 1 ; ; ; ; ; 1 1 ; ; - > > - - - > > > > > > > > > > > - > > > > > > > > > > > > > > > > - ; ; 5 2 r r l t t t r t t r w % @ ; ; ; - ; ; 1 # 2 1 - > - ; 1 5 4 w w % 2 i 4 2 2 2 1 ; - > > > > > > > > > > > > > > > > > > > > > > > > > > > > > > > > > > > > > > > > > > > > > > > > > > ",
"> > > > > > > > > > > > > > > > > > > > > > > > > > > > > > > > > > > > > > > > > > > > > > > > > > > > > > > > > > > > > > > > > > > > > > > > > > > > > > > > > > > > > > > > - - - > > > > > > > > > > > > - - ; ; ; ; ; ; ; , - - ; ; - ; - > > > > > > > > > > > > > - > > > > > > > > > > > > > > > > > > > - - - , 4 i w % r r r t t r r % % % 5 ; ; - - - ; 1 1 ; - > - ; ; 5 4 % % i p p i 2 1 1 ; - > > > > > > > > > > > > > > > > > > > > > > > > > > > > > > > > > > > > > > > > > > > > > > > > > > > ",
"> > > > > > > > > > > > > > > > > > > > > > > > > > > > > > > > > > > > > > > > > > > > > > > > > > > > > > > > > > > > > > > > > > > > > > > > > > > > > > > > > > > > > > > > > > > > > > > > > > > > > > > > > > - - ; 1 1 ; - - - > > > > > > > > > > > > > > > > > > > > > > > > > > > > > > > > > > > > - - - - - ; 3 % 4 % % r r r r r r % # 4 1 ; ; - > - ; 1 ; - > > > - ; 1 4 4 4 i w w 2 2 1 ; - > > > > > > > > > > > > > > > > > > > > > > > > > > > > > > > > > > > > > > > > > > > > > > > > > > > > ",
"> > > > > > > > > > > > > > > > > > > > > > > > > > > > > > > > > > > > > > > > > > > > > > > > > > > > > > > > > > > > > > > > > > > > > > > > > > > > > > > > > > > > > > > > > > > > > > > > > > > > > - - > > > > > - ; ; - - - - - > > > > > > > > > > > > > > > > > > > > > > > > > > > > > > > > > > > - - > > > - 1 % 4 2 # w w r t r i 4 1 4 4 5 - > > - ; ; ; - > > > - , ; 1 1 1 1 2 2 2 1 ; > > > > > > > > > > > > > > > > > > > > > > > > > > > > > > > > > > > > > > > > > > > > > > > > > > > > > > ",
"> > > > > > > > > > > > > > > > > > > > > > > > > > > > > > > > > > > > > > > > > > > > > > > > > > > > > > > > > > > > > > > > > > > > > > > > > > > > > > > > > > > > > > > > > > > > > > > > > > > > > - - > > > > > > - - - - - - - - > > > > > > > > > > > > > > > > > > > > > > > > > > > > > > > > > > > > > > > - ; 1 1 1 4 % % % w w % 4 3 3 2 , - > > > > - - - > > > > - ; , ; ; ; ; ; ; ; - > > > > > > > > > > > > > > > > > > > > > > > > > > > > > > > > > > > > > > > > > > > > > > > > > > > > > > ",
"> > > > > > > > > > > > > > > > > > > > > > > > > > > > > > > > > > > > > > > > > > > > > > > > > > > > > > > > > > > > > > > > > > > > > > > > > > > > > > > > > > > - > > > > > > > > > > > > > > - - > > - > > > > > > > - - - - - > > > > > > > > > > > > > > > > > > > > > > > > > > > > > > > > > > > > > > > > > > - - ; 1 1 1 @ % 4 i w 4 5 , ; ; > > > > > - - > > > > - - ; ; - - - - - - ; - > > > > > > > > > > > > > > > > > > > > > > > > > > > > > > > > > > > > > > > > > > > > > > > > > > > > > > ",
"> > > > > > > > > > > > > > > > > > > > > > > > > > > > > > > > > > > > > > > > > > > > > > > > > > > > > > > > > > > > > > > > > > > > > > > > > > > > > > > > > > > - > > > - - > > > > > > > > > > > > > > > > > > > > > > - - - > > > > > > > > > > > > > > > > > > > > > > > > > > > > > > > > > > > > > > > > > > > > > - ; , 1 @ # % 4 % 1 ; > - > > > > > > > > > > > > - > - - > > > > > - ; - > > > > > > > > > > > > > > > > > > > > > > > > > > > > > > > > > > > > > > > > > > > > > > > > > > > > > > ",
"> > > > > > > > > > > > > > > > > > > > > > > > > > > > > > > > > > > > > > > > > > > > > > > > > > > > > > > > > > > > > > > > > > > > > > > > > > > > > > > > > > > > > > > > - > > > > > > > > > > > > > > > > > > > > > > > > > > > > > > > > > > > > > > > > > > > > > > > > > > > > > > > > > > > > > > > > > > > > > > - - - , 1 @ 2 # 1 , - > > > > > > > > > > > > > > > > > > > > > > > > - > > > > > > > > > > > > > > > > > > > > > > > > > > > > > > > > > > > > > > > > > > > > > > > > > > > > > > > ",
"> > > > > > > > > > > > > > > > > > > > > > > > > > > > > > > > > > > > > > > > > > > > > > > > > > > > > > > > > > > > > > > > > > > > > > > > > > > > > > > > > > > > > > > > > > > > > > > > > > > > > > > > > > > > > > > > > > > > > > > > > > > > > > > > > > > > > > > > > > > > > > > > > > > > > > > > > > > > > > > > > > - ; ; 1 @ ; - > > > > > > > > > > > > > > > > > > > > > > > > > > > > > > > > > > > > > > > > > > > > > > > > > > > > > > > > > > > > > > > > > > > > > > > > > > > > > > > > > ",
"> > > > > > > > > > > > > > > > > > > > > > > > > > > > > > > > > > > > > > > > > > > > > > > > > > > > > > > > > > > > > > > > > > > > > > > > > > > > > > > > > > > > > > > > > > > > > > > > > > > > > > > > > > > > > > > > > > > > > > > > > > > > > - > > > > > > > > > > > > > > > > > > > > > > > > > > > > > > > > > > > > > > - - ; ; - - - > > > > > > > > > > > > > > > > > > > > > > > > > > > > > > > > > > > > > > > > > > > > > > > > > > > > > > > > > > > > > > > > > > > > > > > > > > > > > > > ",
"> > > > > > > > > > > > > > > > > > > > > > > > > > > > > > > > > > > > > > > > > > > > > > > > > > > > > > > > > > > > > > > > > > > > > > > > > > > > > > > > > > > > > > > > > > > > > > > > > > > > > > > > > > > > > > > > > > > > > > > > > > > > > - > > > > > > > > > > > > > > > > > > > > > > > > > > > > > > > > > > > > > > > > > - - - - > > > > > > > > > > > > > > > > > > > > > > > > > > > > > > > > > > > > > > > > > > > > > > > > > > > > > > > > > > > > > > > > > > > > > > > > > > > > > > > ",
"> > > > > > > > > > > > > > > > > > > > > > > > > > > > > > > > > > > > > > > > > > > > > > > > > > > > > > > > > > > > > > > > > > > > > > > > > > > > > > > > > > > > > > > > > > > > > > > > > > > > > > > > > > > > > > > > > > > > > > > > > > > > > > > > > > > > > > > > > > > > > > > > > > > > > > > > > > > > > > > > > > > > > > > > - > > > > > > > > > > > > > > > > > > > > > > > > > > > > > > > > > > > > > > > > > > > > > > > > > > > > > > > > > > > > > > > > > > > > > > > > > > > > > > > > > ",
"> > > > > > > > > > > > > > > > > > > > > > > > > > > > > > > > > > > > > > > > > > > > > > > > > > > > > > > > > > > > > > > > > > > > > > > > > > > > > > > > > > > > > > > > > > > > > > > > > > > > > > > > > > > > > > > > > > > > > > > > > > > > > > > > > > > > > > > > > > > > > > > > > > > > > > > > > > > > > > > > > > > > > > > > > > > > > > > > > > > > > > > > > = > > > > > > > > > > > > > > > > > > > > > > > > > > > > > > > > > > > > > > > > > > > > > > > > > > > > > > > > > > > > > > > > ",
"> > > > > > > > > > > > > > > > > > > > > > > > > > > > > > > > > > > > > > > > > > > > > > > > > > > > > > > > > > > > > > > > > > > > > > > > > > > > > > > > > > > > > > > > > > > > > > > > > > > > > > > > > > > > > > > > > > > > > > > > > > > > > > > > > > > > > > > > > > > > > > > > > > > > > > > > > > > > > > > > > > > > > > > > > > > > > > > > > > > > > > > > > > > > > > > > > > > > > > > > > > > > > > > > > > > > > > > > > > > > > > > > > > > > > > > > > > > > > > > > > > > > > > > > > > ",
"> > > > > > > > > > > > > > > > > > > > > > > > > > > > > > > > > > > > > > > > > > > > > > > > > > > > > > > > > > > > > > > > > > > > > > > > > > > > > > > > > > > > > > > > > > > > > > > > > > > > > > > > > > > > > > > > > > > > > > > > > > > > > > > > > > > > > > > > > > > > > > > > > > > > > > > > > > > > > > > > > > > > > > > > > > > > > > > > > > > > > > > > > > > > > > > > > > > > > > > > > > > > > > > > > > > > > > > > > > > > > > > > > > > > > > > > > > > > > > > > > > > > > > > > > > ",
"> > > > > > > > > > > > > > > > > > > > > > > > > > > > > > > > > > > > > > > > > > > > > > > > > > > > > > > > > > > > > > > > > > > > > > > > > > > > > > > > > > > > > > > > > > > > > > > > > > > > > > > > > > > > > > > > > > > > > > > > > > > > > > > > > > > > > > > > > > > > > > > > > > > > > > > > > > > > > > > > > > > > > > > > > > > > > > > > > > > > > > > > > > > > > > > > > > > > > > > > > > > > > > > > > > > > > > > > > > > > > > > > > > > > > > > > > > > > > > > > > > > > > > > > > > ",
"> > > > > > > > > > > > > > > > > > > > > > > > > > > > > > > > > > > > > > > > > > > > > > > > > > > > > > > > > > > > > > > > > > > > > > > > > > > > > > > > > > > > > > > > > > > > > > > > > > > > > > > > > > > > > > > > > > > > > > > > > > > > > > > > > > > > > > > > > > > > > > > > > > > > > > > > > > > > > > > > > > > > > > > > > > > > > > > > > > > > > > > > > > > > > > > > > > > > > > > > > > > > > > > > > > > > > > > > > > > > > > > > > > > > > > > > > > > > > > > > > > > > > > > > > > ",
"> > > > > > > > > > > > > > > > > > > > > > > > > > > > > > > > > > > > > > > > > > > > > > > > > > > > > > > > > > > > > > > > > > > > > > > > > > > > > > > > > > > > > > > > > > > > > > > > > > > > > > > > > > > > > > > > > > > > > > > > > > > > > > > > > > > > > > > > > > > > > > > > > > > > > > > > > > > > > > > > > > > > > > > > > > > > > > > > > > > > > > > > > > > > > > > > > > > > > > > > > > > > > > > > > > > > > > > > > > > > > > > > > > > > > > > > > > > > > > > > > > > > > > > > > > ",
"> > > > > > > > > > > > > > > > > > > > > > > > > > > > > > > > > > > > > > > > > > > > > > > > > > > > > > > > > > > > > > > > > > > > > > > > > > > > > > > > > > > > > > > > > > > > > > > > > > > > > > > > > > > > > > > > > > > > > > > > > > > > > > > > > > > > > > > > > > > > > > > > > > > > > > > > > > > > > > > > > > > > > > > > > > > > > > > > > > > > > > > > > > > > > > > > > > > > > > > > > > > > > > > > > > > > > > > > > > > > > > > > > > > > > > > > > > > > > > > > > > > > > > > > > > ",
"> > > > > > > > > > > > > > > > > > > > > > > > > > > > > > > > > > > > > > > > > > > > > > > > > > > > > > > > > > > > > > > > > > > > > > > > > > > > > > > > > > > > > > > > > > > > > > > > > > > > > > > > > > > > > > > > > > > > > > > > > > > > > > > > > > > > > > > > > > > > > > > > > > > > > > > > > > > > > > > > > > > > > > > > > > > > > > > > > > > > > > > > > > > > > > > > > > > > > > > > > > > > > > > > > > > > > > > > > > > > > > > > > > > > > > > > > > > > > > > > > > > > > > > > > > ",
"> > > > > > > > > > > > > > > > > > > > > > > > > > > > > > > > > > > > > > > > > > > > > > > > > > > > > > > > > > > > > > > > > > > > > > > > > > > > > > > > > > > > > > > > > > > > > > > > > > > > > > > > > > > > > > > > > > > > > > > > > > > > > > > > > > > > > > > > > > > > > > > > > > > > > > > > > > > > > > > > > > > > > > > > > > > > > > > > > > > > > > > > > > > > > > > > > > > > > > > > > > > > > > > > > > > > > > > > > > > > > > > > > > > > > > > > > > > > > > > > > > > > > > > > > > ",
"> > > > > > > > > > > > > > > > > > > > > > > > > > > > > > > > > > > > > > > > > > > > > > > > > > > > > > > > > > > > > > > > > > > > > > > > > > > > > > > > > > > > > > > > > > > > > > > > > > > > > > > > > > > > > > > > > > > > > > > > > > > > > > > > > > > > > > > > > > > > > > > > > > > > > > > > > > > > > > > > > > > > > > > > > > > > > > > > > > > > > > > > > > > > > > > > > > > > > > > > > > > > > > > > > > > > > > > > > > > > > > > > > > > > > > > > > > > > > > > > > > > > > > > > > > ",
"> > > > > > > > > > > > > > > > > > > > > > > > > > > > > > > > > > > > > > > > > > > > > > > > > > > > > > > > > > > > > > > > > > > > > > > > > > > > > > > > > > > > > > > > > > > > > > > > > > > > > > > > > > > > > > > > > > > > > > > > > > > > > > > > > > > > > > > > > > > > > > > > > > > > > > > > > > > > > > > > > > > > > > > > > > > > > > > > > > > > > > > > > > > > > > > > > > > > > > > > > > > > > > > > > > > > > > > > > > > > > > > > > > > > > > > > > > > > > > > > > > > > > > > > > > ",
"> > > > > > > > > > > > > > > > > > > > > > > > > > > > > > > > > > > > > > > > > > > > > > > > > > > > > > > > > > > > > > > > > > > > > > > > > > > > > > > > > > > > > > > > > > > > > > > > > > > > > > > > > > > > > > > > > > > > > > > > > > > > > > > > > > > > > > > > > > > > > > > > > > > > > > > > > > > > > > > > > > > > > > > > > > > > > > > > > > > > > > > > > > > > > > > > > > > > > > > > > > > > > > > > > > > > > > > > > > > > > > > > > > > > > > > > > > > > > > > > > > > > > > > > > > ",
"> > > > > > > > > > > > > > > > > > > > > > > > > > > > > > > > > > > > > > > > > > > > > > > > > > > > > > > > > > > > > > > > > > > > > > > > > > > > > > > > > > > > > > > > > > > > > > > > > > > > > > > > > > > > > > > > > > > > > > > > > > > > > > > > > > > > > > > > > > > > > > > > > > > > > > > > > > > > > > > > > > > > > > > > > > > > > > > > > > > > > > > > > > > > > > > > > > > > > > > > > > > > > > > > > > > > > > > > > > > > > > > > > > > > > > > > > > > > > > > > > > > > > > > > > > ",
"> > > > > > > > > > > > > > > > > > > > > > > > > > > > > > > > > > > > > > > > > > > > > > > > > > > > > > > > > > > > > > > > > > > > > > > > > > > > > > > > > > > > > > > > > > > > > > > > > > > > > > > > > > > > > > > > > > > > > > > > > > > > > > > > > > > > > > > > > > > > > > > > > > > > > > > > > > > > > > > > > > > > > > > > > > > > > > > > > > > > > > > > > > > > > > > > > > > > > > > > > > > > > > > > > > > > > > > > > > > > > > > > > > > > > > > > > > > > > > > > > > > > > > > > > > ",
"> > > > > > > > > > > > > > > > > > > > > > > > > > > > > > > > > > > > > > > > > > > > > > > > > > > > > > > > > > > > > > > > > > > > > > > > > > > > > > > > > > > > > > > > > > > > > > > > > > > > > > > > > > > > > > > > > > > > > > > > > > > > > > > > > > > > > > > > > > > > > > > > > > > > > > > > > > > > > > > > > > > > > > > > > > > > > > > > > > > > > > > > > > > > > > > > > > > > > > > > > > > > > > > > > > > > > > > > > > > > > > > > > > > > > > > > > > > > > > > > > > > > > > > > > > ",
"> > > > > > > > > > > > > > > > > > > > > > > > > > > > > > > > > > > > > > > > > > > > > > > > > > > > > > > > > > > > > > > > > > > > > > > > > > > > > > > > > > > > > > > > > > > > > > > > > > > > > > > > > > > > > > > > > > > > > > > > > > > > > > > > > > > > > > > > > > > > > > > > > > > > > > > > > > > > > > > > > > > > > > > > > > > > > > > > > > > > > > > > > > > > > > > > > > > > > > > > > > > > > > > > > > > > > > > > > > > > > > > > > > > > > > > > > > > > > > > > > > > > > > > > > > ",
"> > > > > > > > > > > > > > > > > > > > > > > > > > > > > > > > > > > > > > > > > > > > > > > > > > > > > > > > > > > > > > > > > > > > > > > > > > > > > > > > > > > > > > > > > > > > > > > > > > > > > > > > > > > > > > > > > > > > > > > > > > > > > > > > > > > > > > > > > > > > > > > > > > > > > > > > > > > > > > > > > > > > > > > > > > > > > > > > > > > > > > > > > > > > > > > > > > > > > > > > > > > > > > > > > > > > > > > > > > > > > > > > > > > > > > > > > > > > > > > > > > > > > > > > > > ",
"> > > > > > > > > > > > > > > > > > > > > > > > > > > > > > > > > > > > > > > > > > > > > > > > > > > > > > > > > > > > > > > > > > > > > > > > > > > > > > > > > > > > > > > > > > > > > > > > > > > > > > > > > > > > > > > > > > > > > > > > > > > > > > > > > > > > > > > > > > > > > > > > > > > > > > > > > > > > > > > > > > > > > > > > > > > > > > > > > > > > > > > > > > > > > > > > > > > > > > > > > > > > > > > > > > > > > > > > > > > > > > > > > > > > > > > > > > > > > > > > > > > > > > > > > > ",
"> > > > > > > > > > > > > > > > > > > > > > > > > > > > > > > > > > > > > > > > > > > > > > > > > > > > > > > > > > > > > > > > > > > > > > > > > > > > > > > > > > > > > > > > > > > > > > > > > > > > > > > > > > > > > > > > > > > > > > > > > > > > > > > > > > > > > > > > > > > > > > > > > > > > > > > > > > > > > > > > > > > > > > > > > > > > > > > > > > > > > > > > > > > > > > > > > > > > > > > > > > > > > > > > > > > > > > > > > > > > > > > > > > > > > > > > > > > > > > > > > > > > > > > > > > "
};
