/* XPM */
static char *c9b1dfcab0504ef8d7b4700056a920e17u1SVPS9m729mkMm[] = {
/* columns rows colors chars-per-pixel */
"250 250 256 2 ",
"   c #010100",
".  c #0B0501",
"X  c #0D0901",
"o  c #060506",
"O  c #120601",
"+  c #130B01",
"@  c #1B0D01",
"#  c #160B08",
"$  c #1C1202",
"%  c #191106",
"&  c #1D1210",
"*  c #220E02",
"=  c #231301",
"-  c #2B1501",
";  c #2C1A02",
":  c #271707",
">  c #331B01",
",  c #3B1D01",
"<  c #351704",
"1  c #33140E",
"2  c #3C2202",
"3  c #362205",
"4  c #34250A",
"5  c #451C02",
"6  c #571602",
"7  c #540B01",
"8  c #690900",
"9  c #780B00",
"0  c #691701",
"q  c #741400",
"w  c #7C1300",
"e  c #741B01",
"r  c #7C1B01",
"t  c #79190B",
"y  c #7A1A13",
"u  c #432301",
"i  c #4B2501",
"p  c #4C2B01",
"a  c #462806",
"s  c #542C01",
"d  c #5B2C00",
"f  c #552704",
"g  c #5C3301",
"h  c #573404",
"j  c #4C2E0E",
"k  c #672701",
"l  c #742301",
"z  c #7C2301",
"x  c #792A04",
"c  c #633401",
"v  c #6C3B01",
"b  c #683603",
"n  c #733C01",
"m  c #783903",
"M  c #713213",
"N  c #7C4301",
"B  c #774405",
"V  c #70430C",
"C  c #860C00",
"Z  c #841400",
"A  c #8B1500",
"S  c #841B00",
"D  c #8B1C00",
"F  c #881B0B",
"G  c #931D00",
"H  c #9B1D00",
"J  c #931602",
"K  c #8E180C",
"L  c #A61B01",
"P  c #842401",
"I  c #8C2301",
"U  c #842B01",
"Y  c #8C2B01",
"T  c #89280B",
"R  c #932401",
"E  c #9B2401",
"W  c #942B01",
"Q  c #9B2C01",
"!  c #942C0B",
"~  c #9C2C0B",
"^  c #97250A",
"/  c #8C3201",
"(  c #873606",
")  c #943301",
"_  c #9C3302",
"`  c #953A02",
"'  c #9C3A02",
"]  c #9C330B",
"[  c #9C3B0B",
"{  c #94350B",
"}  c #982B13",
"|  c #993714",
" . c #8A2F14",
".. c #A32501",
"X. c #A32C01",
"o. c #AA2C01",
"O. c #A32D0B",
"+. c #A82809",
"@. c #B32D03",
"#. c #A43301",
"$. c #AB3401",
"%. c #A43B02",
"&. c #AC3B02",
"*. c #A4340B",
"=. c #AB340B",
"-. c #A43B0B",
";. c #AB3B0B",
":. c #B23401",
">. c #B33C02",
",. c #BA3C02",
"<. c #B33C0B",
"1. c #BA3D0B",
"2. c #B53509",
"3. c #A62C13",
"4. c #AB3C13",
"5. c #A73815",
"6. c #B53B15",
"7. c #B72D15",
"8. c #A33823",
"9. c #C33B05",
"0. c #C83610",
"q. c #874803",
"w. c #974804",
"e. c #8C5204",
"r. c #985603",
"t. c #964C15",
"y. c #A44302",
"u. c #AC4302",
"i. c #AC430B",
"p. c #A84808",
"a. c #B44302",
"s. c #BB4402",
"d. c #B44A02",
"f. c #BC4B02",
"g. c #B4440B",
"h. c #BB440B",
"j. c #B44A0B",
"k. c #BB4B0C",
"l. c #A65804",
"z. c #BC5302",
"x. c #BC520C",
"c. c #B65706",
"v. c #AC4313",
"b. c #A84617",
"n. c #B34313",
"m. c #BB4513",
"M. c #B44B12",
"N. c #BC4C13",
"B. c #B7481B",
"V. c #BC5313",
"C. c #B95518",
"Z. c #A95615",
"A. c #A96503",
"S. c #B66703",
"D. c #B76C0E",
"F. c #B84923",
"G. c #B45025",
"H. c #AB5F20",
"J. c #C24402",
"K. c #C34C02",
"L. c #CA4C02",
"P. c #C34B0B",
"I. c #C7470A",
"U. c #C45302",
"Y. c #CB5402",
"T. c #C45A02",
"R. c #CC5B02",
"E. c #C4530B",
"W. c #CB540C",
"Q. c #CC5B0B",
"!. c #C45B0C",
"~. c #D35C02",
"^. c #D35C0C",
"/. c #D55708",
"(. c #C34C13",
"). c #C64A17",
"_. c #C45413",
"`. c #CB5413",
"'. c #CC5B13",
"]. c #C65819",
"[. c #D55917",
"{. c #D24D0C",
"}. c #CD6302",
"|. c #C76806",
" X c #D46302",
".X c #DB6B02",
"XX c #D4630C",
"oX c #D96807",
"OX c #C87704",
"+X c #DC7301",
"@X c #D77705",
"#X c #C96518",
"$X c #D86616",
"%X c #DA7517",
"&X c #C87915",
"*X c #E36B07",
"=X c #E57705",
"-X c #E46A18",
";X c #E77617",
":X c #F47A18",
">X c #C54B24",
",X c #C85825",
"<X c #D65A26",
"1X c #CC5631",
"2X c #CA6526",
"3X c #D86626",
"4X c #D56F2E",
"5X c #E56927",
"6X c #E87626",
"7X c #ED7531",
"8X c #E55920",
"9X c #ED7947",
"0X c #D86B44",
"qX c #AF5B41",
"wX c #D98505",
"eX c #D38A0C",
"rX c #E98704",
"tX c #F48A06",
"yX c #E99605",
"uX c #F79806",
"iX c #EA8616",
"pX c #F58818",
"aX c #E99616",
"sX c #F99717",
"dX c #E9A604",
"fX c #F9A706",
"gX c #FCB606",
"hX c #FCA717",
"jX c #FEB717",
"kX c #EAAE0F",
"lX c #F88727",
"zX c #FA9827",
"xX c #F48C31",
"cX c #FDA726",
"vX c #FEB726",
"bX c #FBA936",
"nX c #D89522",
"mX c #FDC606",
"MX c #FDC518",
"NX c #F9D414",
"BX c #FEC626",
"VX c #FDD22D",
"CX c #FEEB31",
"ZX c #F7DD18",
"AX c #FA8D4B",
"SX c #F9B150",
"DX c #FEA56B",
"FX c #FBCE4D",
"GX c #FCEF4D",
"HX c #FDF272",
"JX c #FBD16E",
"KX c #BF9117",
"LX c #FEF990",
"PX c #FEFBB0",
"IX c #FFCC82",
"UX c #FEFCCC",
/* pixels */
"                                                                                                                                                                                                                                                                                                                                                                                                                                                                                                                    ",
"                                                                                                                                                                                                                                                                                                                                                                                                                                                                                                                    ",
"                                                                                                                                                                                                                                                                                                                                                                                                                                                                                                                    ",
"                                                                                                                                                                                                                                                                                                                                                                                                                                                                                                                    ",
"                                                                                                                                                                                                                                                                                                                                                                                                                                                                                                                    ",
"                                                                                                                                                                                                                                                                                                                                                                                                                                                                                                                    ",
"                                                                                                                                                                                                                                                                                                                                                                                                                                                                                                                    ",
"                                                                                                                                                                                                                                                                                                                                                                                                                                                                                                                    ",
"                                                                                                                                                                                                                                                                                                                                                                                                                                                                                                                    ",
"                                                                                                                                                                                                                                                                                                                                                                                                                                                                                                                    ",
"                                                                                                                                                                                                                                                                                                                                                                                                                                                                                                                    ",
"                                                                                                                                                                                                                                                                                                                                                                                                                                                                                                                    ",
"                                                                                                                                                                                                                                                                    .   .                                                                                                                                                                                                                                           ",
"                                                                                                                                                                                                                            o                             . . . . . o . .                                                                                                                                                                                                                                           ",
"                                                                                                                                                                                                                o o o o o o o .                       . . o o o o o o o . .                                                                                                                                                                                                                                         ",
"                                                                                                                                                                                                                . . . .       .                     . . . X X X X X X o . . .                                                                                                                                                                                                                                       ",
"                                                                                                                                                                                      o                       . o o     o o o . . . . .   . . . . o o o . X X X X X X X o   o . . . .             o   o                                                                                                                                                                                                             ",
"                                                                                                                                                                                o o o o . . o           .   . . X o o o o X o o . . . . . . X X X X . X O O + + O + + O X . o . o o .   . . o . o . . . o o o                                                                                                                                                                                                       ",
"                                                                                                                                                                                . . . . . o o o     . . . . . X X X . X X X X X X X X X . X X + + X O + + @ + + + @ @ + O . . X o o . . . X X X X X X X X . . .                                                                                                                                                                                                     ",
"                                                                                                                                                                                . . . . . . . o o . X X X X X + # + X X + + + + X X X X X X + + + + + + @ $ $ @ @ @ @ @ + O O O . . X O + + + + O O X X X . . o                                                                                                                                                                                                     ",
"                                                                                                                                                                          . . . . . . X . X . X . X O O X + + + @ # + + # # # + X X X X + + + + + + @ $ = = = = = - = * @ + O O O O O @ + + # + + + + O X X . .                                                                                                                                                                                                     ",
"                                                                                                                                                                          . . . o o X X X X X X X + + + + + @ @ = % @ @ * * * * + + + + % $ $ $ $ $ = - ; ; ; ; > > - - * @ @ @ @ @ * * % % % $ @ + + + + X o o .                                                                                                                                                                                                   ",
"                                                                                                                                                                          . . . X X X X + X + + + + + + + @ = : : : : : - : : - $ $ $ $ = = - ; ; ; ; 3 2 2 2 2 2 2 > < - - - - - - - : : : : : $ $ $ + # # o o o o o o .                                                                                                                                                                                           ",
"                                                                                                                                                                          . . o X X X + + % % % + @ @ @ @ = = ; > > ; > > > > > = = - - ; ; > > > > 2 u p p p p p u u < < < < < > > < > > > ; ; = = $ $ @ # # # o o o o o o o .                                                                                                                                                                                     ",
"                                                                                                                                                      . . . .     . . .   . . . . # # % $ $ $ $ = @ @ = = = ; > 2 a 2 2 2 2 u 2 2 , > < 2 u u u i i i g g g c b g s p u 5 u u 5 u u u a a u 2 > ; ; ; ; : % # # # o o o o . o   . . .                                                                                                                                                                               ",
"                                                                                                                                                  . . . o . . . . . . . o . X # X # % = : = - - - - - ; > > , u p s p p p s g g s s i i s s s f f f c B q.B n v B V b d s s s i s s h h h s s p p u 2 > - = = = @ + X X X X X . X X X . o                                                                                                                                                                           ",
"                                                                                                                                .               . . . . . X . . . . X . X X + # # % : : > > < , , , u u u 5 i s c b b c g c v v d d d k b b b b m m q.t.Z.Z.r.r.e.q.m m b m m b v B B B n b c c g g s p u , > - = * @ + + # + + O O X X X X . o o o                                                                                                                                                                 ",
"                                                                                                                                . . . . . .     . . . . X X X X . O O O X + + @ = : ; > 2 u i i i s s d s f d c B q.q.N m q.q.q.q.( ( q.t.t.t.t.w.w.Z.Z.C.C.D.C.Z.l.t.r.t.t.Z.Z.t.t.Z.t.e.q.q.N n n v c d i i , , < - - = = @ @ + O O O X X . X o o           o                                                                                                                                                     ",
"                                                                                                                                . . . . . . . . . . . . X X X X O O O O O + @ $ ; > , u i s d d c c n n n m m q.t.Z.Z.Z.p.Z.Z.Z.Z.t.t.w.` ` ` ` ` p.V.#X#Xx.z.c.c.d.c.j.x.x.Z.Z.C.C.C.D.C.c.c.l.l.r.w.q.m m c d s i 5 u 2 > - - @ @ + O O O O X . . o                                                                                                                                                               ",
"                                                                                                                                . . . . X X X X . . X X X X X + + @ @ @ @ @ = = > > u p d c v n n ( q.w.w.w.w.r.Z.C.C.j.j.V.M.p.w.` ) Y Y Y ) _ u.k.E.!.T.U.U.U.U.f.K.E.E.f.d.d.E.!.Q.#X#X#X$X#X|.#X&X#XD.l.q.N n c d s s 5 < < * * @ @ @ + O O O X . o                                                                                                                                                             ",
"                                                                                                                              . . . . X X X + # X X X X + + % % @ * * = = = ; ; 2 u p g v B q.e.w.r.l.A.c.l.l.p.j.j.u.%.&.g.g.&.%.' ) W ) %.g.k.'.'.Q.Y.Y.~. X~./././.^.[././.Y.L.Y./.R.Y.R.R. X}.XX%XiXiX&XD.S.A.r.q.B n d 5 , < : - = = @ @ @ + + O X . o o o                                                                                                                                                     ",
"                                                                                                                                o o X X + + + + + + + + + $ % $ = = - - - - > , i s c n q.r.l.l.l.c.D.D.D.c.p.p.W Q W I X.h.).m.&.#.Q W Q &.k.W.'.^.^.^.*X-X*X~.L.L.L./././././.L././.Y.K.s.K.Y.R.R.R.}..X;XaXzXxXnX&XH.t.m k f 5 , , > - - = * @ @ + O X X . .                                                                                                                                                     ",
"                                                                                                                . . . .         . O O O + + @ $ $ $ $ @ @ * : - > > > < , 5 6 f k m q.p.c.|.OX%X$Xc.c.#X2Xb.) ) U r P I W -.n.;.].f.&.#.&.s.E.W.Y.R.L.~.:XlXoXY.L.I.,.,.[.[.L.J.J.{.^.L.s.Y.^.~.L.K.K.Y.R.R..X;XpXzXbXxX&XS.w.( c d d i u , < 1 1 O # # X . X .         o o o o o o                                                                                                                                 ",
"                                                                                                                . . . .       o X O O + + @ $ = = = = = - - > > < u s f f f k x ( / p.c.XXoX=X;X%X#X].].b.Y z z r 8 q w r I ;.N._.E.f.a.s.E.Q.^.K.Y.Y.Y.Y.Y.~.$X3X[.K.>.s.9.,.,.J.L.{.J.,.J.W.L.[.[.W.J.s.Y.~.R..X=XzXzXzXaXeX|.r.e.q.N B c u - ; @ = & # X X   o o         o o o o                                                                                                                                 ",
"                                                                                                                    . . . . . . X O + + @ $ = = ; > > > < , 5 u s s s d M M  .( { ` p.V.$X%X;X%X!.d.u.i.v.[ Y e q 8 S { W I #.g.a.f.f.>.>.f.W.W.'.Y.Y.U.s.s.Y.^.s.s.J.I.J.I.[.{.{.{.I.J.,.L.'.`.I.`.^.J.s.L.Y.R.*X*X+X@X%XiXzXxXnXnX&XA.e.n c g u > > : + X X X o . .                                                                                                                                               ",
"                                                                                                      .           o . . . . X X X X + $ $ = ; ; 2 u u u u 5 i i b c b n t.t.t.( U U Y ' u.d.a.&._ W W _ v.b.{ r w P [ B.v.*.&.&.a.P.P.>.>.P.`.W.E.K.Y.L.s.Y.W.s.>.:.I.{.s.I.{.I.I.:.:.:.,.J.`.`.[.P.I.W.Y.J.s.K.R.R.}. X}.}.|.@XiXzXzXxXnXD.e.B g p u > $ + % # + # . . o o . . .                                                                                                                                   ",
"                                                                                                                    o X X X + X . X + $ = ; > 2 u p h g d d d c b q.t.t.q.( x U / Y Y I W W R D I Q _ _ ) ) Y I Y ] 4.-.*.g.(.g.>.h.h.>.>.h.h.s...>.P.J.,.W.[.>.I.>.,.,.o.o.,.:.I.,.J.I.`.[.3X[.$Xf.>.s.W.W.s.>.s.f.Y.R.z.d.T. X+X+X=XaXcXzXeXA.N v g p > - % O # # O O O X . . . . .     . o o                                                                                                                     ",
"                                                                                                                  . X X X + + # X X % $ - > 2 p i g v B n m N q.t.t.t.w.U x x U ) ) ) W R R W _ _ _ _ W ) _ [ ] [ v.v.#.X.h.(.>.$.>.h.>.>.$.$.X.X.,.,.:.,.`.`.o.$.E ..$.:.,.,.1.X.o.,.h.s.h.h.>.s.f.s.:.>.J.W.J.J.I.U.U.a.&.f.oX.XoX X.XrXsXaXaXOXA.e.v 5 < = @ * * * * @ + X   o o .     o o o                                                                                                                     ",
"                                                                                                                . o X X + + + # + % $ = ; 2 p s g b N e.r.r.t.Z.Z.p./ U Y / ) ) Y ' %.) I D ! 5.;.Q I W -.b.v.-.-.v.n.&.#.>.h.$.<.g.m.m.>.X.X.$.h.h.:.o.>.P.>.o.$.X.X.$.1.>.$.>.:.1.).m.>.h.m.>.a.E.`.>.X.$.:.>.:.,.P.$X'.f.a.s.R..X*X=X=X=X=XrXzXnX&Xr.c 5 5 , < < < < - $ X o o o       . o o                                                                                                                     ",
"                                                                                                              . o o X X + + @ @ $ $ = - > u s c n m q.l.C.C.Z.j.W ) _ %.%.%.y.u.u.V.C.M.W I ! b.4.*.*.-.v.-._ _ -.-.;.$.X.$.,.,.1.<.<.;.E A G $.$.1.<.$.:.X.o.).<.:.E H o.X.X.m.(.).).<.X.<.).m.h.$.$.h.).m.2.$.:.X.$.(.[.W.Y.~.;X*X X~.~..X*X=X=XiXxX4Xr.m c f 6 6 5 5 > = + X o o   o   . o o o                                                                                                                   ",
"                                                                                                            . o X X + + @ @ = : - ; ; > , i c B q.w.Z.2X#Xc.y._ g.&.N.;.Q k.'.x.].4X4Xj.W Q ] ] _ 4.v.*.W W -.n.n.;.X.Q $.>.,.>.;.=.B.B.X.A E =.=.G G E E =.m.<.1.<.=.:.<.<.=.$.<.m.6.<.<.X.X.m.X.#.$.m.,X>X=.E G G o.).`.[.-X5X7X$XL.L./././.L./.~.XX%X4X2Xl.m m k k M j - + . o o o o   . X o . o o         .                                                                                                     ",
"                                                                                                        . o o X . X + + @ = - > > , u p s c n q.Z.D.2X#Xc.%._ &.g.).).<.k.[.f.&.u.k.j.%.Q _ _ W Q -.v.n.v.v.;.;.*.X.X.#.<.1.>.$.;.*.5.4.O.O.=.=.*.E X.X.G E =.=.).).m.6.2.X.E R ;.n.n.;.*.R D R h.k.).m.$.G G O.+...X.=.:.,.,.$.k.&.X.X.@.,.I.{.L.L.Y.^.$X%X%X&Xr.( m b 5 - * & # # o o X X + + X X o o                                                                                                             ",
"                                                                                                . . . . o X X X X + @ @ = - > 2 u i s c b m w.l.#X#X!.z.u.&.&.s.).).m.>.[.[.&.&.`.k.&.#._ #.-.;.*.*.Q Q *.;.*.R R R E $.<.2.o.X.D A D R ~ 6.6.O.O.4.F.6.O.=.B.B.=.2.$.X.G C A R R E *.#.Q R E G g.>.<.6.=.E D G E E X.H E $.>.X.Q *.*.X.o.2.1.0.I.9.J.J.L.~.*XiX#Xp.( x f , < 1 % # # # + + X X O O X X o o                                                                                                         ",
"                                                                                                . . . . o X X + + @ * = - > 2 i d d c m ( w.Z.#X#X!.E.f.f.s.k.(.[.I.I.P.`.P.$.P.`.h.&.#.Q Q _ ;.4.Q D D W *.#.R D D R X.X.E E O.Z Z I | 5.F.4.R w Q 6.5.Q *.B.F.6.<.=.X.E Q B.1XR S R -._ ~ *.X.X.G G #.6.*.R D R 5.4.E G <.).m.Q *.6.5.=.=.2.2.).9.,.,.,.J.L.U.|.d.w.w.m d 5 < > = = $ $ + + O O O X X . X . o                                                                                                     ",
"                                                                                          o     . . . . . X + + @ @ = - - > u s b m ( w.Z.C.x.#XU.$X3X[.P.>.h.`.s.,.[.`.$.o.o.$.#.#.>.N.<.Q Q ;.;.*.R R *.n.<.#.D R #.=.~ G G ^ D D ~ 5.| R D w 9 R *.R D R Q #...H H E R E ;.C.I 9 D *.Q D D D R G E Q R A D ~ Q F.1X4.G X.<.=.E Q E R G ..o.2.:.>.,.J.,.,.,.,.a.d.'.#XZ.q.b d i , > ; - = @ @ O O O O X X . . . .                                                                                                 ",
"                                                                                        o o o . . . . . X + + @ @ = - < < , p g m w.Z.2X2X#Xz.a.f.W.[.[.I.,.1.,.s.[.AX7Xs.I.P.$.X.X.<.).<.E E ;.n.;.Q R R #.$.#.G #.B.F.O.D D K D S ^ ! w 8 9 w ~ 4.5.Q R D S G X...$.6.4.Q R Q W D _ G.F.*.Q X.E X.=.=.R Z Z I S *.F.4.R G O.E Q E E Q X.X.X.$.E $.h.I.,.,.9.I.,.s.W.$X4X&Xl.N v s u 2 , - * = @ + + + + + X X . . .                                                                                               ",
"                                                                                            o . . . X + + # % % = - > , , u h v w.c.&X4X#Xz.a.a.s.s.,.,.,.m.6.:.X.L.-XY.,.s.:.X.>.$.$.<.=.E E $.n.;.R D D R Q Q Q 4.F.4.~ D F Z F T T S 9 w I ! 5.F.5.W R S Z G X.$.m.>XB.Q D I S I W -.5.] R Q O.=.5.4.5.*.R S Z D ! ~ D G ~ O.o.X.$.k.k.a.#.%.#.&.&.<.1.1.0.0.9.,.J.~.;XiXeXS.r.q.b g p < - : = $ $ $ % + X X . . .                                                                                               ",
"                                                                                          . . . X X + + # % % = - > u u i d v q.c.#X%X#Xz.&.>.L.,.s.s.:.X.$.m.(.s.K.K.s.I.I.,.<Xm.1.6.>X>XB.<.<.=.*.#.X.#.$.$.X.X.6.6.O.D D A w w F T w 8 Z ! R b.F.5._ *.Q E <.$.$.1.).g.Q R _ n.,XC.;.4.*.Q Q 6.6.2.X.=.n.4.Q *.I S D Z D ~ =.$...X.h.k.>.&.f.k.$.Q $.).,X).:.@.9.Y.Y.U..XzXbXeXA.e.N b f , < - ; - = $ + + X . . .                                                                                               ",
"                                                                                    . . . . . . X + + + % % : : > u s d k ( w.l.%X$X}.U.f.P.k.h.h.$.$.X.E X.1.<.`.I.:.,.<X).:.$.X.<.6.<.<.m.1.$.#.B.B.#.X.1.1.@.@.1.2.+.=.H A ~ S F S Z D ~ ^ A R ~ 6.*.G =.>X<.<.<.h.<X5Xs.X.s.>.h.].(.&.#.#.&.h.`.(.h.h.h.(.<.$.X.Q X.Q Q #.h.h.:.h.`.).I.`.<X,.h.1.>.:.;.=.$.X.:.s.U.R.}.+XiXcXzX&Xl.q.b k f u 2 3 < = @ + + % X X o .   o                                                                                       ",
"                                                                    o             . . . . . X X + + + % % : : > > u d k m w.|.%XXXXXR.U.f.P.P.h.<.$.X.E G $.(.h.1.:.X.o.m.).<.$.J ..o.X.X.$.X.G Q *.;.X.X.o.@.o.o.<X<X6.2.=.E ^ T S D } ^ A A G G O.4.Q Z E 1.1.>X].$.X.[.7X^.:.J.s.h.>.>.&.a.h.$.,.:.>.:.$.P.`.3X`.g.&.#.Q &.k.h.X.H o.,.I.).I.,.I.).h.>.&.#.X.&.a.K.Y.~.oX=XiX=XzXzX|.p.w.q.b g p a , : * @ @ + X X o . . o o                                                                                     ",
"                                                                                . . . . . X X X + + $ $ : : > 2 i s c m w.D.%X;X$XXXR.K.s.s.s.>.E X.>.>.h.[.`.$.$.o.o.X.=.).m.X.H X.<.<.1.m.<.X.#.*.$.$.$.$.:.2.L ).).....=.+.^ S q Z ^ G C A O.O.4.4.Q E $.m.).G #.#.Q $.o.$.I.s.>.$.$.a.P._.P.$.$.X.>.h.$.(.<XP.a.>.a.>.&.&.a.$.X.$.s.I.).).,.I.`.[.`.h.&.&.&.>.h.P.Q.~.~..X=X+XiXzXiX&XD.l.w.B c p 5 < * @ @ + X X . . . o                                                                                       ",
"                                                                            . . . . . . . X + + + + $ = ; > , u d k m r.#X%X%X}.XX^.Y.f.s.s.h.,.>.,.>.:.,.`.`.,.o.$.1.=.$.).B.G J E =.<.m.N.m.$.X.#.#.X.X.$.:.2.@.2.o...6.6.3.} w w Z Z A J E 5.E ~ R G X.=.$.X.B.R Z <.3X`.$.>.>.$.X.$.h._.`.(.>.$.X.h.`.k.(.`.$.$.>.P.`.`.'.'.$.,.I.`.).I.J.:.J.`.`.P.>.&.a.m.h.h.P.`.Y.Y.R. X.X X@XpXzXnXOXA.e.B d i , < : % + + X o o . o                                                                                       ",
"                                                                            . . . . . . X + + + + $ = - > , i f k ( p.C.%X%X}.U.f.s.s.>.,.J.I.P.I.h.,.,.,.,.$.X.$.;.n.=.X.n.6.D A R X.#.<.n.;.X.#.g.m.$.$.h.h.$.:.1.2.=.F.6.R S ! P S G ^ ..+.O.=.*._ *.n.<.X.G Z Q #.&.m.a.#.$.h.<.<.>.>.<.a.a.&.m.g.m.k.h.k.>.P.k.k.E.W.W.`.'.`.W.`.`.`.`.I.:.:.s.I.s.&.&.a.k.(.).`.[.W.L.L.~. X.X.X+XiXzXaXOXA.q.b d i u < : % + X X X X . . o                                                                                   ",
"                                                                            . . . . . . X + # @ $ = - > , i k b ( Z.2X#X!.U.U.R.s.>.>.$.$.,.h.h.X.$.>.P.`.h.o...&.=.#.E E *.*.G E X.X.=.;.<.;.#.&._.,Xm.h.`.(.o...m.<.E O.O.D Z ! w Z 3.6.+.H E E E _ *.Q D C C Q 5._ _ M.N.g.h.].).6.=.X.X.$.&.$.,X,Xg.#.#.h.a.`._.'.'.!.f.>.$.s.s.W.[.{.W.I.s.o.,.I.K.s.a.a.s.(.).`.`.P.K.K.L.~..X.X.X=XtXaXaXOXl.q.b d i , ; = % # X X X X X o o o                                                                               ",
"                                                                          . . . . . . X O + @ $ = - > , i c m ( Z.C.'.U.f.K.R.XXP.s.>.X.X.$.$.$.<.1.X.E h.`.(._.;.;.Q R X.*.~ ~ *.*.O.X.#.;.*.X.#.g.g.&.>.h.>.$.$.m.X.G E ~ R ! w 9 Z O.3...E O.5.Q -.n._ R X.X.*.! S R n.;.#.<.B.6.2.$.$.>.>.&.$.,X].&.W Q k.f.a.P.$X$X$XY.s.$.X.$.J.`.J.,.,.,.,.J.W.W.P.K.f.s.P.I.W.{.I.J.J.L./.Y.~.*X.X X=XsXrXOXl.q.n d u > : % % + + + O X . . o                                                                               ",
"                                                                          . . . . . X X O @ * = ; > , u d m q.p.C.k.a.>.K.^.$X$X_.N.;.X.X.#.;.;.m.B.#.R g.,X].N.n.v._ *.B.5.Q *.4.5.*.*.*.;.;.;.;.&.#.X.$.>.h.m.<.X.D R *.I w D 9 D ^ G H +.=.=.6.R W 4.#.*.B.B.R D w D *.Q D R =.X.X.=.m.(.P.a.#.n.&._ Q #.h.u.#.>.P.W.W.U.K.f.5XW.P.[.W.s.,.$.s.I.I.P.L.L.L.K.W.W.W.W.{.L.L./.J.Y.~.Y.Y. X=X=XhXiXOXl.e.v s u > : % @ + + O X X . o o                                                                             ",
"                                                                . . . . . . . . . X + + @ * = - > , u f k ( Z.2Xk.&.>.K.L.Y.^.5X3Xn.R I R W W R *.*.Q R _ v.n.*.R Q R *.Q I 5.*.4.*.Q Q *.*.*.#.Q X.<.(.k.$.X.$.Q X.;.*.R I D 9 w S G E +.+.=.O.O.Q R W _ *.;.<.Z S D W _ R Z Z G O.=.=.$.>.K.P.&.#.&.&.Q Q &.a.a.a.U.'.W.s.f.f.s.s.s.W.[.W.,.s.I.s.o.s.W.[.L.L.J.Y./.L.J.J.J.{.^.L./.~.:X=X:X=X=XsXsXOXl.q.c s > > : = @ @ + + X X . o                                                                             ",
"                                                                . . . . . . . . + + + @ @ = - > , i s d m t.Z.p.a.a.s.,.,.L.L.,.,X-.D S I W ! ! ! ] ! w w R ] _ I I I _ I D 5.B.~ R R *.B.B.#.G $.$.&.g.g.>.>.k.&.;.m.n.*.R R I w I ^ E E +.O.O.E R I R ;.B.;.D D R ] v.C.;.R Z R 6.5.E X.&.s.W.N.g.&.Q &.!.'.&.&.a.E.Q.K.a.s.a.[.P.,.s.[.`.I.h.X.P.s.s.,.[.[.$XJ.L.K.J.J.J.J.L.L./.-X-X;X:X:X.X=XtXsXaX&Xr.N g i 2 > = @ @ + + + X . . o   o o                                                                     ",
"                                                                      . . . X X # @ @ @ * - > , i f c m t.Z.p.) V.P.P.J.,.J.J.:.n.] D S D I I I w ! ] W I ! ! S P r W W D I ] F.n.*.R ~ =.*.E G n.1.<.<.a.h.k.(.#.#.g.n.Q D D I I ! ] O.+.+.+.=.C Z Z Z D #.B.>X*.n.B.B.*.D D R E D 6.).X.$.P.>.a.&.&.#.a.$X$XK.f.P.W.L.&.$.>.>.3X3X[.[.<X(.h.(.$.P.P.[.J.L.Y.-X~.~.L.K./.Y.L.L.{.-X-X-X^.lX:X X.X=XpXzXzX&Xw.n d i , < = @ @ + O X X . o o                                                                         ",
"                                                                    . . . X X + @ @ = = - > , u d k m t.t.` / ) j.&.&.s.>.:.,.>._ ! R R W ! R I ~ ~ R I R ] ! I S r [ W D W ~ 4.F.n.*.~ R D G Q #.#.#.#.$.&.&.#.#.a.N.m.X.Q X.~ W W ! Q E ..O.+.E R Q R A D >XDXm.B.).<.R D E *.G R 5.,X3XP.,.J.a.$.$.f.W.'.$X^.'.^.W.s.$.$.h.h.P.`.`.P.<.$.$.h.h.>.I.5X[.I.J.{.^.~.L.Y.^.^.{.{.{.[./.L.s.-X:X-X.X.X=XsXcXaXS.q.n d i , > = $ + + + X . o                                                                           ",
"                                                                . . . . . X + + @ * - < , u u i b m t.t.w.x U [ ' W #.h.h.>.,.>.D R ~ 5.v.v.5.] *.R D R R D D I R W ;.I S _ ~ ] ~ X.=.4.#.R R X.#.X.X.#.<.g.&.X.a.(._.>.E $.6.*.) Y I R E O.+.O.X.E R E D C ..).:.X.X.$.&.<.;.E 4.A 4.1X(.[.7XL.[.s.,.Y.$X6X-X^.^.^.P.s.:.(.,X).:.:.E A A G E $.X.$.,.`.I.[.{.L.L.L.J.K.^.W.L.W.J.J.L.,.:.s.-X;X X~. X=XsXcXiXS.q.b f u , - $ # + + X .             o                                                               ",
"                                                                . . . X + + @ @ @ = - < u i s g m t.H.w.x x / { P ) v.N.N._.k.#.D R *.n.B.B.4.X.A D ~ 5.~ G R *.;.i.v.I Z W *.~ R R Q =.;.X.X.=.B.=.X.$.m.(.m.a.a.h.g.X.G o.<.#.-.{ Y ~ 5.6.6.6.X.=.=.*.X.$.o.o.I.$.:.>.&.<.=.D R 4.=.E h.5X-XY./.Y.Y.Y.^.6X7X-X^.W.P.I.1.m.).<.2.).1...G G X.<.$.X.$.`.I.[.[.[.{.I.s.J.P.J.,.s./.s.J.s.Y.Y.$X^.^.~.Y.R.rXcXhXeXl.q.c i 2 : $ % + + + X . o     o   o o                                                             ",
"                                                                . X X + + # @ * = - > , u s g v t.H.Z.x e x ( / q P [ v.;.g.&.G E X.$.<.m.m.=.X.R X.X.E A E 6.1XF.C.i._ S S ~ _ *.Q X.#.X.Q =.B.B.X.G Q ;.g.g.a.>.&.>.>.$.<.<.#.] / W *.6.6.6.6.Q #.X.R E =.2.o.<X`.`.I.$.$.n.=.E X.X.E E `.$Xs.J.L./.~.~.-X6X;XY.K.J.h.>.o.X.E o.<X3X).o.E =.>XB.G H [.I.,.9.{.`.I.,.h.`.K.s.f.$XK.K.Y.XX-X-X~.'.Y.L.U..XtXsXsX&Xl.n d a ; = % # # # + X X . o o o o o                                                             ",
"                                                                . X O + + @ % = ; < < , i g v q.H.b./ l e x U U U z W v.v.%.#.#.X.o.$.<.m.).m.;.G $.=.G A ..=.=.C.C.;.v.R 9 R Q *.*.<.n.X.E 2.1X>X#.R X.g.h.a.a.Q G o.).).1.o.E S r S R ~ E E E >X4.Q Q =.4.=.o.P.$.,.,.X.>.).=.=.=.E G X.,.J.^.Y.J.K.$X-X$X^./.J.:.:.:.X.H E E J :.<...H ..=.>X=.J J 2.@.9.:.H ,.:.o.,.[.[.W.^.Y.^.~.^.s.~.-X7X[.W.L.Y.R..XrXsXzX&Xq.b p > : : % @ # + + # X X o o o o                                                             ",
"                                                          o X X X X X X + $ = : > 5 5 5 6 b e.Z.G.| / l ( t.( ( U U ( W Y %.d.&.>.:.$.<.,X,X6.X.G Q 4.A G X.<.<.n.#.R G E G G X.$.N.M.#.Q Q =.>X<.<.].3Xh.s.X.3X,.:.,.:.1.o.@...D D D R ~ 5.=.Q B.F.F.*.S Z ~ 4.X.$.(.,XE =.=.G E E <.G E $.$.:.~.:Xs.a.>.5X[.^.9.9.@.1.6.O.D D E @.:.X.H E ..O.G A H 6.).I.,.:...s.[.W.W.3X[.W.6X6Xs.$X/.:.L.[.[.J.,.L.-X:X:X=XzXzXS.q.c i j : : : @ @ # O . . X . .       o o                                                     ",
"                                                        o o X X X X + + + $ - ; , a d c m ( w.p.{ ! Y e x ( m ( ( U T Y Y j.3X$XE :.>.1.(.B.=.Q X.R X.G $.>.1.m.D #.#.G G ..X.o.Q &.&.#.#.#.<.).3X3Xh.,.X.>.`.7X,.o.o...1.2.o.H ~ Z Z ^ 5.*.Q Q *.5.F.F.5.I ^ *.N.D m.9XE G 5.G C E $.`.5XI.`.s.f.oXE._.].7X^.L.I.9.9.0.6.O.I S H 0.`.P.:.>.$...H 3...+.2.:.,.[.^.W.^.I.,.,.,.J.I.7X/.{.:.{.8X[.{.I.9.{.[.^.~.Y.tXcXaXl.q.c < 3 ; - = @ # + # X X . .       o o                                                     ",
"                                                      o o . . X O + + $ $ = ; > a d v B q.w.w.p.U U / l l x l m x x / / Y i.C.j.X.P.`.h.>.<.$.#.X.Z G G :.$.$.>.&.,XB.E G E X...<.g.g.&.E E =.=.).<X$.$.$.P.7X7XP.X...X.).m.<.E Z D O.B.n.Q R #.Q D Z S 9 8 w ] #.X.,X4XG 5.>XO.E <.<.<X9X).2...a.}.T.f.#X6XXXL.:.@.7.+.+.4.-.S X.).<XI.>.h.h.#.E 6.+.J ....o.3XP.>.).`.).o.H o.s.J.,.[.:.@.o.).I.9.I.I.{.L.K.L. XiXbX&Xe.B u a > : = * @ @ + O X . .                                                               ",
"                                                . .   o . . O O O + @ $ = - > , p c B Z.H.Z.y.` U ( ( l l l k x x l x U P Y W S >.$X3Xa.$.&.&.$.Q R =.X.>.,.h.h.).m.X.G O.6.m.).n.g.m.g.R E m.>X#.N.<.m.<X3X3X_.h.#.#.$.,X).6.E D B.1X>Xm.$.#.<.E D Z I D w w D R 3X3X;.G 6.=.G =.o.=.X.).<X....[.%XXXu.|.oXT.&...H H L H 3.5._ X.h.).s.s.P.h.#.E =.E A G E X.P.h.E X.=.o.E E m.<X,.o.X.J L o.).1.,.,.,.,.J.L.Y.Y. XbXxXr.q.b p 2 ; - = @ @ + + X X . . o                                                           ",
"                                            o o . . . X X + + + + @ = : - > , u i c e.2XnX2X%.P ( ( x l l 0 l M m l l l e P } R &.'.'.&.#.&.#.Q R n.4X>.$.h.`.(.<X].$.E =.6.=.X.).h.m.h.X.$.).).#.#.g.g.,X].#.Q #.Q $.&.).1.=.E $.(.(.>.g.&.#.<.&.Q Z 9 w S T I R <.R A G =.G H >XX.H J 2.>X+.o.`.XX%Xp.OXwX}.u.$.A J 7.6.R R n.X.$.,.I.`.`.a.X.$.Q E E E <.m.$.G D O.5.5.3.G E ).H ....o...o.2.2.:.$.o.$.,.,.s.Y.;XlXxX4Xe.n s 2 > - = @ @ + + X X X . . o                                                         ",
"                                        . . o . . . X O + @ @ @ @ = = ; < 2 i s c n w.D.#XC.*.I ( ( k 0 l 0 l x x l l x z ! 8.| _ E.'.f.j.k.&.Q Q <X9X&.G X.:.X.G $.=.X.6.1XF.;.>X<.$.:.<.2.o.G R Z #.%.).k.R Q R R $.&.m.=.$.X.o.,.,.P.[.h.$.].#.&.Q S S ! T q R A 8 C E >XF.=.,X<.J 1.6...+...(.Q.oXp.@XsX%X!.R O.3.6.>XB.=.;.1.>.,.I.[.'.f.a.h.X.#.$.X.>X3X=.*.^ R C C ^ 3.5.O.A ..).)...+...o.X.X.X.$.:.:.:.,.6XXX%XAXZ.b d u 2 > = @ @ + + X X X X . o o o                                                     ",
"                                        . . o . . X X + @ @ = = ; ; > , a f g b q.w.l.S.c.u.*.*.w.q.l l l 0 x ( U l U ` { | | I W k.#X_._.N.;.Q n.1X9X=.E E o.X.X.<.;.~ O.5.~ R X.E H X.1.1.o.E G D #.;.,XN.g.N.#.E #.#.m.<.h.>.,.`.`.[.5X`.,.<X3X4XF.D Z } 8.| *.,X;.D R 1X>Xo.2.X.E <X2.H +.o.<X3X;Xz.+XsX|.u.D B.<.X.(.3X(.$.).).`.I.K.K.U.U.f.k.(.<.#.B.>X~ D D R Z A 3.^ G O.B.6.>X..2.>X=...X.E E O.=.1.,.$.^.K.U.xX&Xw.m i u > - * @ + + X X X X . . o o o o                                                 ",
"                                      . . . . . . X + + @ = = - > 3 2 a j g v m r.A.OX%X|.u.*.5.b.t.x x x e U / / P / [ { } | I I j.].C.j.%._ Q ;.;.B.E E E $.<.B.#.D Z I S Z R =.=.o.o.1.:...o.E $.X.Q g.Q m.g.&.E E ..m.(.`.I.[.[.:...J.,.E E <.>XF.^ w w w 9 Q DX0XR Q B.$.).o.E ).<XH ..H +.o.P.;X XiXbXz.W #.g.Q Q R.Q.>.h.:.[.5X[.J.s.s.s.s.$X3Xg.#.#.E A S S D 9 C ~ G G C E ..AX6.H E 5.O.O.E G D Q 2.1.s.o.Y.K.d.6X#Xx d i , < - * @ # X X X X X . . . o o                                                 ",
"                                      o . . . . X + + @ @ * = ; 3 2 a j M M q.r.S.OXwX@XT.].X.*.' / U ` l.y.y.2XW ) v.b.5.] I S S %.i.-.v._ R W I R D G O.B.6.X.G D Z *.S w S ~ Q <.1.9.).I.$.$.,.(.).<.E E ).9X..J 1.<X).9.,.I.[.5X[.:.,.:...C A G A Z } } w 9 S 4X9X*.G X.X.E ..,.`.I.2.:.@.o.,.[.*X;XzXxXQ._ d.z.%.=X}.a.s.>.,.J.I.[.,.L.K.,.f.^.'.P.m.=.E R D W D w D Z 9 C A X.).4X=.E J E E O.E Z G O.$.o.:.o.J.L.a.U.xXw.b d 5 < - - : & # # X . X X O . . o o                                               ",
"                                      o . . . . X + + @ @ = - > 2 u s c M q.w.l.|.@XpXpX%X[.X.X.Y ` w.d.|.#X!.d.%.Q *.5.~ ~ W I w W ) -.-.] S I ! *.5.*.=.=...J H G D ! P r w ! ,X<.:.[.<Xo...).o.:.I.).1.=.2.6.o.o.<X5X).@...@.9.I.9.:.).2.H C E ..G A K } F 9 q i.C.-.X.X.X.:...X.o.:.1.m.2...I.8X[.L.oX;X$XQ.6XiXrX@X|.c.z.f.Y.L.L./.s.Y.Y.L.Y.oX~.K.P.h.$.X.#.M.N.;.Q D A G E E >.$.X.A E G E O.~ Q 5.6.=.o.,.:.:.-XY.U.XX&Xq.b f 5 , < : & # # X X X O O O . . o o                                             ",
"                                      o . . . . X O + @ * = - > 2 u s b m q.l.S.@XrXpXpX;XW.R X._ u.z.$XiXzXlX}._.$.Q Q R _ #.I P Y P b.| { w S F.F.5.E E O.+.H J R ~ | | | q Y ~ o.:.,.I.:.:.P.2.1.9.0.2.o.+.=.L H 2.).{.{.I.J.5X[.:.L o.L H 1.>X6.3.K A K K 9 S Y R *.>X).o.X.$.:.:.$.I.5X5X).o.{.[.{.[.-X$XXX@XcXVXfXhXhXrXiX XR.U.R.K.~. X~.oX.X~.U.Y.W.s.&.u.x.3X<Xg.$.=.:.I.:.,.X.$.E X.D E E O.4.>X>X1.>.I.J.@.^.-XY.z.iXl.q.k f 5 < - * & # X X + + O O X . . o                                             ",
"                                    . . . . . X X O @ @ * * - < , u s c m w.l.|.iXiX=X*XXXs.Q a.u.%.z.oX;XlXlX6X5Xk.X.Q Q _ %.r P P r b.{ { q I 5.5.~ ~ =.6.=.J H ~ 8.|  .8.8 ! ~ ).I.L H ,.`.`.).).0.o.J J +.6.m.....o.,.{.I.J.8X[.o.o.I.,...).1X6.+.J C A K 9 S I D ~ ,X1X:...,.[.[.:.o.).).o.o.o.@.:.9.J.K.U.iXBXVXkXjXjXkXaXaXiX+X+X+X;XpXpX=X=X+X XoX XU.a.f.d.E.[.`.[.`.,.).).s.P.$.n.X.G E E E =.B.m.h.`.{.{.9.:.-XoX X%X&Xl.( c f 5 < : % % # + + + O O O X o o                                             ",
"                                . . . . . . . X O + @ @ * * - < 5 i d b ( w.c.%XpX;X.X~.R.a.a.'.d.z.XXoXoX;XlX;X-X$Xg.;.Q I W q q q e G.| | w P ! _ *.X.=.6.2...=.5.| e 0 l 7 { 5.B.).9.o.o.a.P.).).1...A A E 5.>X6.<.o.o.:.@.J.L.J...:.7X5X1.).).+.J C C A K w 8 S I ^ 5.=.$.I.:.[.[.J.o.o.o.H 2...@.0.9.:.s.R.aXFXBXBXVXjXkXdXkXyXyXyXaXsXsXsXuXuXuXtXrX=X.XT.R.f.U.^.[.5X[.,.,.I.J.).$.m.#.E ......$.<.&.>.[.{.{./.:.~.:XlX@XzXeXl.q.k i < ; = % + + + + O O O X . . o                                           ",
"                                . . . . X X X + + @ $ = - - > < 5 f k m ( w.|.%X*X XY.Y.Y.a.Q.$Xd.%XlXoX X;X;XU.U.$X'.k._ r P e q e T G.| ( q q W -.4.#.E o.2.2.~ } T 0 7 0 7  .Q #.I.{.J.,.P.`.).0.o.H G R E E O.X.$.>.`.[.{.-X6X$XY.L.7X{.:.9.).+.H J A J J C Z S w F H A H >X9.9.I.I.9.:.2.).O.X.6.>X9.9.~.iXwXFXFXHXHXGXCXNXdXdXdXyXhXyXyXfXfXfXgXjXuXyXrXOX X~.~.~././.{.L.{.I.`.s.1.#.;.E ..+.$.<.>.X.$.W./.[.-X/.J.;X;X=XcXsXeXl.n s u > = $ $ + + + + O O X . . o                                           ",
"                                . . . X X X + + % = - ; > 3 2 a s d b m w.l.|.iX~.K.L.R.Y.f.%XoXz.iX:XU.f.^.Y.X.a.$Xf.d.j.Y T z T z | G.( z r r P %.N.N.h.1.:...A D P x 0 6 0 P 5.=.,.,.9.5XAXAX`.1...J G ~ O.~ ~ R X.h.3X5X/.-X7X-X6X6XAX,...o.).6.=.....H A A } F w C K A J o.`.{.I.I.,.o.+.2.^ E =.o...J.;XpXaXFXJXHXHXGXCXCXNXNXMXgXBXkXfXgXfXfXgXgXgXfXfXwX+X=X*X/.L.J.L.{.5X{.[.,.<.E *.E +.@.2.1.>.#.$.J.^.-X-X-XL.~.U.+XtXhXcX&Xe.v p 3 ; = $ $ $ $ @ + O X . . o                                           ",
"                                . . X X + + + + = : ; , u a j d v m q.w.l.S.;XxXR.s.Y.^.R.U.xX%X@XpXoXa.f.Y.s.$.s.XX#.%.].M.| P U x (  .e 0 P U ) ' %.&.k.`.(.$.R ^ r  .0 7 0 e W E :.{.[.7XxX6Xh.:...J G E X.Q X.Q $.>.I.J.,.-X6X$.J.-XDX[.9.:.@.1.2.+.3.H A G 8 } } 9 C J A J :.[.5X[.9.6.+.G G =.B.1.,.8X;XT.nXSXLXLXHXGXGXGXGXGXCXMXVXkXfXgXfXfXmXmXmXmXjXyXsXsX=X~.L.9.9.{.5X{.:.,...X.R G o.@.:.>.>.$.$.J./.^.-XY.-X~.U..X+XhXvXnXA.B g 2 > ; = $ $ $ $ + + X X . o                                           ",
"                      o o . . . + + @ @ @ $ $ = - ; 3 u i d M ( ` w.w.c.S.OXzX;XY.L.5XW.J.f.XXoXz.zXoXT.^.^.,.,.K.$.$.&.f.'.f.' / x l e e e l T U P ' u.#.<.<.E D T } ! q } | w Q E ].5X<X7X5X..<X).o.J E ..1.3X1.$.,.[.[.:.@.J.xX$XW.:.I.7X8X[.o.H +.7.F.>XH C C K } K 9 C G H o.9.{.{.,.X.E G G o.>X9X9X).$.u.xXJXLXLXLXHXLXPXPXPXHXGXCXZXmXdXgXmXmXmXmXZXgXfXjXhXtX=XR.K.,...7.7.o.@.,...E <.[.X.P.[.h.,.:.J.7X/.-X-X*XL.~..XoX+XsXhXS.e.V u a < - ; - $ + + X X . .   .   o                                     ",
"                    o o . O O O O + @ @ = = ; ; ; > 2 i d b ( ` p.d.d.|.@XiXiXU.L.L.5X{.:.>.U.oXU.zXzXxX$X$.X.<X`.,.I.J.,.s.s.z.w.x e e e 8 0 y x U p.j._ #.*.G Z S Y | I 4.*.w R F.<.R >.).:.o.<X<X9.L o.:.:.[.@.....9.{.I.{.<X$X#.A J `.AX7X[.@.o.+.H 7.>XX.G E G D Z 8 9 ~ 6.<.o.o.:.1.=.~ E 1.).>X>X6.....&.c.bXFXHXLXLXPXUXUXUXLXHXGXVXMXgXgXNXmXZXNXCXdXBXBXjXfXrX.XR.I.1.7.7.o.o.,.>.E E 6Xf.a.`.[.1.X.,.I.L./.oX:X*X=XpX.X.XuXvXeXA.B g i 5 < > ; = % + + + X . . .                                         ",
"                . o o . . O O O @ @ = : - ; > 3 > 2 u s c m ( w.c.|.|.|.iXzX+Xz.~.L.W.W.s.U.f.U.R.pXlXxXY.J ..<X).1.).`.I.K.U.6Xc./ e z t 8 0 y l ( H.2Xi.Q R Z S S I b.5.F.] w Z D G >X4XH 8 o.2.).1...).<X,.s.o.H L o.J.`.`.[.AX,XX.J o.).J.:.{.9.@.+.2.o.E >.,X=.E R w 8 Z *.F.=.o.2.3.J A J X.n.6.H C C ..,.d.%XnXSXJXJXLXPXUXUXPXLXHXGXBXkXdXNXmXNXCXCXkXCXVXjXdXrXOX}.W.).2.).1.:.1.h.$.E [.^.s.P.3XP.:.J.s.K.J.L.lXpX=X:X.X.XrXhXhXS.q.B d 5 5 , > ; $ $ + + + X . .                                         ",
"                . . . X O O @ @ = : : ; > > 2 u u s g c m ( w.w.c.|.wX@XiXsX.X*X-X/.K.[.`.3Xf.a.oX*XR.^.>.$.,.I.1.:.1.).<X3X[.3X#Xp.Y z e 0 0 y k M H.G.[ W ^ I ! I R F.4.5.I 9 Z A 5.1X6.E G H ..2.1.o.<X7X1.).(.P.I.).[.<X).:.m.=.E A C H :.L.{.I.2.2.1.o.>.-X5Xh.$.*.S 8 8 D ^ G G +.^ A C C 9 G G A C H 2.`.$X|.@XbXSXSXJXLXPXPXPXPXLXHXGXFXvXMXMXMXGXVXGXGXCXjXdXyXrX=X;X3X:.I.1...H Q X.#.#.^.'.[.<XI.I.J./.J.>.Y.zXlX=X~.*X*X=XuXhXeXr.q.m c f i u > - = + + + + X .                                         ",
"                . . X O + @ @ * : ; > 3 3 a p s g v n q.q.w.p.c.S.OXaXaXrX+XR.pXoX~.Y.[.[.$X&.&.oX Xa.L.,.I.I.o.:.2.2.2.<X5X`.E.%X!.%.r 8 0 6 6 0 k x ( z P | 8.*.Q R 5.] ! w 9 D ~ F.5.C ^ 7.C O.2.=.E 2.1...(.1.(.).).).).o.A E G J G J J ..:.L.8X{.@.,.{.~. XL.o.E R w 8 w  .} K C J 3.3.K 9 Z Z A J +.+.2.`.^.a..XbXbXSXJXSXDXJXHXHXHXHXLXLXHXFXVXBXCXBXLXLXVXgXyXuXsXpX;X$XI.,.o.E A G #.g.E K.-X7X[.>.K.:.Y.s.~.:XbXlX;X~.;X*X=XtXvXcXeXA.q.m c d i , - : @ + + + X .                                         ",
"              . . . X + @ @ = = : ; > 3 a j h b v m q.w.y.l.c.S.OXwXsXcXtX}.z.=X~.Y.Y.'.$X$Xa.a.K.U.K.$XI.,.o.....2.2...1.`.h.P.-X$XV.Y 0 0 6 7 7 6 0 l z T 5.F.*.E A ~ R D 9 w F Z K 3.^ C C J ..E J H 6.m.$.X.G G G E X.X.G C 9 9 9 G +...I.[./.[.I.9.{.-X;X~...J A R w 9 q y 8.} K A K 3.H A D S Z 3.6.3...@.o.L.:XlX;XbXJXSX&X&XeXaXFXJXHXHXLXHXFXVXnXnXJXHXVXfXrXaXzXpX*XR.^.:.E ....E #.&.X.$.[.xX3X>.a.$.s.U.lXbXzX=X=X X*X*X=XtXcXBXcXOXl.e.m c s 5 1 : @ @ + + X o                                         ",
"          o o . . . X + @ = : - ; > 3 2 a h b B q.q.w.l.c.c.|.|.wXyXjXvXtXT.T. X XR.Q.W.3X'.&.a.a.~.~.6XW.:.....E $.:.E :.h.:.W.XX$X].b.l 6 7 7 < 7 6 l T T } 4.O.E A E R R w S S } D 9 A R G O.O.O.J =.>X1X1XX.X.A C G O.O.G A Z Z C 3.6.o.{.-XL.:.@.[.[.^.:X:Xo.J G } F 8 8 8 8 8 8 C G E X.=.R S Z ^ 3.E J L o.6XlX XR.;XbXbX=X.X}.@XzXSXFXFXHXHXFXVXeXwXbXbXBXyX@X;XiX;X.X~.~.:...o.+.X.X.E o.,.[.5X[.f.a.f.f.pXSXcXpXR.R.~./.~.*XrXuXvXvXeXS.A.q.n d 5 1 1 = % + O . o   .                                     ",
"          o o . . X + + % = : : 3 3 2 2 p h n q.r.l.c.z.|.|.|.OXeXdXjXBXrXz. X X.X*X6XQ.!.Q E >.~.;X-X6X[.`.>.o.o.2.$.X.1.>.X.P.f.!.].b.x 7 7 7 6 6 7 7 8 w R 6.=...A ^ ~ } S D ^ | ~ Z D 5.6.E O.F.E E G E 1XQ B.R C R *.~ D Z R ^ 3.0X9X5X7X5XL.L.[.8X9.J.:X-X2.H J } F 8 y  .y 8 8 ^ 6.1.$.$.5.~ Z 9 C A H $.`.xX^.>.oXoXoXiXsXpXpX*X.X@XnXnXHXHXFXbXbXwXyX@XhX.Xd.f.f.K.L.~.;X/.`.>X6.=.$.X...[.7Xs.>.K.a.z.}.SXFXpX+XU.U.~./.~.*X=XrXhXjXdXwXS.r.q.b f 5 1 = % @ O o o o .                                     ",
"          . . . X X O + @ $ : ; 3 2 a p p d m ( w.p.}.@XiXyXyXyXdXdXBXBXrXT..X.X;XlXlXQ.s.$.A ,.XX;X;X-X7X7XP.$.m.).o.E $.$.X.X.%.%.) x 0 7 6 6 6 7 6 e w D O.6.H ..3.3.5.^ ^ 8 T 0XG.,X*.#.N.R O.^ E G G D A 5.6.6.5.R ~ D 8 S R R Z F.,X).-XL.9.J.I.@.I.5X^.L.I.2.E S 8 q t  .t q Z 9 =.,X$.g.,XF.*.4.3.C G Q ].7X>.>.X.^.-XxXcXaXpX:X/./.Y.;XnXxXJXAX%X+XwXwX+X-XL.:.,./.:X:X:X-X5X<X5X<X$.:.7XL.J.,.&.$Xf.R.}.pXbXrXz.R.R.s.-X/.oX+X@XwXMXjXdXeXS.e.B h j 1 * @ @ O X o                                         ",
"        o . . . X X + + @ @ = ; > 2 a p s c n ( y.z..X=XtXhXjXBXMXMXBXjX@X X=X=X:XzX%Xz.f.>.o.:.-X;XK.>.$X5X(.X.X.$.E A R Q #.a._ ) / x 0 6 6 6 7 7 7 8 w Q 6.).7.3.3.3.} Z D 8 w ] W R W k.N.(.E E =.G Z D G O.*.*.*.R D Z 8 Z S Z 8 A =.h.W.,.:.:.9.o.2.[.W.J.$...R W q q e |  .S D C G X.X.R R *.B.1XF.G R W ,X<X$.h.a.$X6XxXbXaX*X/.9.9././.:.@.7X5X,.f.zXOXU.W.,.o.:.{.7X7X:X-X8X[.<X[.W.5X8X{.s.>.$X$XT.}.|.|.rX=X XoXR.Y.L.K.~.}.@XrXMXMXgXyXS.r.B c a 4 = * @ O O X o                                       ",
"o o o   o . . . X + + + @ @ = ; > , u p s c m q.y.z.oX=XrXfXMXCXCXCXVXfX@X=XsXsX.XlXoXXX'.$.@.:.-X:X,.X.[.7X3X&.Q E A Z Q >.a.j._ ) U l 0 6 6 6 6 6 0 0 w G X.o.....3.5.5.D D 8 9 S R S #._.E h.4X5.E G Z G G D 5.*.4.3.^ ^ D } ] W w w #.[.[./.,.,.0.@.2.).I.P.s.a.#.u.w./ x / { I ^ ^ A A O.C G E E Q D 9 S ! | W S Q &.k.3X$X$XoX X~./.L./.9.L L 0.8X@.J.xX%Xs.).1.@.@.@.9.J.L.I.{.9.o.J.[.7X-XJ.I.W.$X;XSXzXwXOX@XrX=X;XoX^.J.K.^.T.OXrXjXBXgXdXOXA.N g i 2 - = @ + O X X .                                     ",
"o o o o . . . X + + + + @ @ = - < < 2 u p c m w.d.R..X=XrXdXMXZXCXCXCXyX|.=XsXzXiXiX}. X$XJ.,.{.{.-X>.$.h.,X4X;.*.Q R Q g._._.V.b.[ U e 0 k k k 6 6 0 r I D D E H H 3.8.8.D S 8 w S Z 8 Q (.X.7XDX6.J G G R E ~ Q G ~ ^ D ^ } 5.5.Q D C X._.W.$XW.J.6.=.7.B.m.P.f.U.u.|.%X&Xl.' _ W E +.G ....J G G A D D S w q w 8 9 w R #.].`.@.{.-X-X*X~.:X9.9.0.L 8X@.I.W.7X[.<X0.1.@.L L L o.:.J.@.H $.K.s.`.I.3X[.Q.xXJXFXhXrXrX+X+X;X~.s.L.Y.XXU.}.tXfXMXgXdXeXA.q.g u 2 - = @ + O X X .                                     ",
"o . . . . . X X + + + @ @ @ = - > < , 2 i c ( w.z.}.=XrXyXdXgXNXCXCXVXeXOXtXsXpXpX=X.XoXAXAX9.@.J.J.:.>.X.<.0X~ W ~ 5.v.;.g._.2XF.-.U z U  .M M x  . .T T I D G 5.+.3.3.} 9 w 8 9 T S R *.<.$.5X0XE G X.E Q ;.F.R Z Z w 9 ^ } 5.~ D Z Z R $.>.^.P.$...G ..6.<.k.!.|.|.bXbXaXS.p.u.u.#.=.5.1X..6.G A Z S T T w 8 r 9 D 9 A o.<X[.9.8X8X).).h.6X^.,.9.7.7.L {.Y.:X[.).,.{.{.I.{.{.9.,.L.^.L.a.$.A $.5X5Xf.%XSXzXFXFXcXhXpX:X;X/.Y.Y.Y.Q.f.R.iXtXfXgXfXwXS.e.b i u > - * @ O O X . o o                                 ",
"o . o . . X X X + + @ @ @ = = - > , 2 u p v q.l.XX+XrXuXfXgXNXZXCXZXNXeXrXcXsXpX=X=X;XoXxXAX9.L `.:.X.$.G O.1XR R I ~ [ Q #.N.].n.*.W W [ t. .x | qX8.r r T Y R G G G G D 9 S 8 8 } | 1X6.E H o.o.J X.=.=.B.n.5.Q D S 9 w ^ ^ } I w Z R E X.s.W.s.X.G A H 5.;.g.V.x.%XJXFXrX@XOX}.XX[.3X5XAX$.B.6.^ D w w r q t y t } 9 A @.{.{.0.8X0.+...X.$X;X~.L.7Xo.E W.:X~.,.:.,.[.7X7X7X<X`.:.K.xXxXXXa.$.X.).h.#.$XFXbXJXvXwXwXrX.XL.,.{.Y.Y.W.Y.Y.iXtXuXgXfXaXOXl.N c p 2 ; = @ + O X . . .                                 ",
". . . . . X X X + + $ $ = = - ; , 5 u s g B t.D.;XpXsXhXjXNXCXCXCXZXVXdXsXcXpXpX=XpX+Xf.L.{.9.0.5X:.G G D D R S ^ w S I R _ &.%.*.Q W W _ ` U x e  .y 8 e x  .G.G H E D ^ S T 8 9 F } F.H G +...H E =.<.m.B.*.Q R R I 9 Z D w D D w w 3.O.6.3XE.h.X.E A D ~ W _ P ) c.SXcXaXvXcX=X=X;X-X5X5Xk.h.5.~ } } T F q y t w K A +.0.9.9.9.L.9.,.I.J.L.*X*X;XxXy.Y d.;X9.o.$.,.-XxX6X<X1.:.X.&.lXbX%X$X3X:.H H Q c.bXSXFXcX@X@XrX=X~.L./.L./.W.[.Y.;XtXrXfXhXsXeXD.r.B h u 4 - * @ + O X . .                                 ",
". o . . X X X + + + $ $ = = ; > < u s g B e.H.#X%X=XrXyXdXNXCXGXGXGXCXkXyXpX.X:X=X;XU.R.[.o.@.9.9X,XX.E O.G 9 ^ Z 9 I ! I I Q Q Q Q R I I P r e 0 0 7 7 0 7 8 G.1X,Xn.I D S } 8 w 8 } F.J H H C Q #.B.B.4.X.E F.R *.*.D ^ ^ w G ~ G A B.B.3XAX[.s.$.O.A Z S 9 q r W y.6X|.iXFXcXpX X~.:.$.E W.h.G 9 Z Z F F 8 t F w K +.<X8X9.9.@.L.J.[.5X-X:./.L.lX&Xc.` d.Y.Y.,.,.>.~.;X-X[.,.G o.$.~.lX%X;X7X>.X.G E 2X#XiXbXsXwXwX=X=X*XL.L.L.^.W.5XK. XtX+XfXjXhXwXD.A.q.c p 2 > = @ @ + + . . o                               ",
". . . . X X + + + $ $ = = - > , a j h V N r.Z.D.oX=XyXdXkXZXGXGXHXHXGXkXyXtXJ.-X-X^.#.&.$.J 7.=.1.<X).6.5.R ~ D w 9 W B.D D ! 5.*.Q D S S r q 0 0 0 0 0 7 7 k t.b.M.[ 5.! q 8.q r F ^ ^ ^ E H A G.G.Q 5.>X2.+.G O.*.! R R ~ ~ H ....C ..<Xs.$.5XW.h.).6.^ S q q S w M._.f.Q.L.XX^.6XP.>.o.o.`.P.G E A A 9 8 F 8 Z ^ 3.=.<X0.9.9.:.:.$.s.xX/./.L.Y.$XxXxX|.iX;Xa.>.W.s.Y.K.^.-X,.,.[.[.:.Y.-X;XL.E.G A X.6.O.(.a.zXbXOXz.pX:XL.L.L./.-X-X/.K.pXsXuXBXfXyXOXS.r.N c p 2 > = $ + X X X o o                             ",
". . . X X X + + + $ $ = = ; > 2 j j g B q.r.D.|.;XrXuXgXNXGXHXLXPXLXFXeXwX+XJ.8X-XW.X.(.X.H =...:.].m.X.Q ~ X.R S S -.,X~ D I ~ E Q Q ! I P T T  .e 7 6 0 0 M  .) W Q 5.| 8 F 8 r I ^ ^ E E H D w P S =.6.+.3.6.R I I ! W Q =.6.+.L 2.o.[.AX[.K.$.$.(.n.R S F 8.! D ;.g.<XW...,.I.P.#.<.$...,.o.P.1.2.E A K F w } ~ O.H 1.9.{.5X8X:.E K.7Xs.,.f.s.s.'.$X6XxXzXoXf.Q.K.K.>.*X;XJ./.5X[.[.L./.L.Y.#.&.&.H +.C +.$.AXbX.X}.zXpX~././.{./././.Y.lXiXyXjXgXdXwXOXl.q.n s u 3 ; $ + + X X . o o                           ",
"X X X X X X + + + $ = = - > 2 u a h v B e.l.|.XXiXpXfXgXZXGXLXPXUXPXFXeXOX XL.[./.s.X.$Xh.>.,.o.$.m.B.E E 5.Q R Q Q B.4X5.W ! 5.E O.*.5.*.| }  . .z 8 7 8 e T ( I D -.4.! 9 S 9 w I ~ ~ O.O.+.E Z S D 6.>X=...E *.I S S D D =.>X+.E 6.6.3XDXIXAXs.$.:.X.D Z S ! W W -.&.AX7X:.>.E.P.a.`.[.P.P.o.`.(.<XX.D ~ A K ~ E +.o.2.@.0.<X7X{.s.5X7X,.:.I.,.G E >.-X;X;XXX$X$X$XY.>.:X:XJ.L./.{.8X/.[.~.-X%XQ.>.X.1X....E xXxXz.}.bXzX-X/./.{.L.L.Y.U.;XrXrXfXMXdXyXOXl.r.B c p 2 > = @ + O O . o o                           ",
"X X X X X X + + $ $ = - ; > 2 u s g v N r.S.|..XlXsXfXgXZXGXPXUXUXUXSXeXOXoX5X5X-X~.a.XXXXs.$.$.#.&.n.R E *.D D _ *.;.B.R W ~ *.6.=.O.O.4.5.} S P T r 8 8 0 T ] #.#.(.W w w Z 9 w I ~ *.*.3.O...D Z C E 2...J D Q w 9 w R E 2.).3.3.G B.B.4XDXAX,.E ....X.=.*.*.I _ M.u.DXAX^.s.a.f.a.f.E.$X-Xs.J.<X7Xm.E E G O.E E 2.6.@.L ..o.5X3X<X3XJ.o.:.P.I.o.H X.W.K.L.~.L.W.7X-X$. X*XL.Y./.8X{.-X[.;X:X;X$X$Xs.).C H X.[.lXR.R.:XlX*XL.L.L.Y.L.s.s.oX;X@XyXMXfXdXwXS.l.q.v s u 3 ; $ @ O O X . o                           ",
"X X X X + + + % $ = - ; > 2 a p s c v q.l.|..X.XpXsXfXgXZXGXPXUXUXPXSX&XXXXX5X[.:X-Xf.a.;XK.a.^.#.Q X.D D R Z R <.B.*.Q D ~ ~ ^ 2.=.O.O.3.5.~ D I } } S 9 w ~ 4.7X'.7X*.D D S w S R ~ *.=.3.~ G 4.6.=.E H E E *.I 9 w w 4.<.1.o.G ^ w 5.~ 9 n.g.h.$.2.:.X.X.Q W Y ) C.j.6XXXXXR.&.&.f.T.Q.-X:X^.K.7X5X[.6.o.$.o.o.X.o.$.H J H E ).<X<XI...X.1.[.2.2.H o.,.J.:.K.X.>.xXxXY. X*X*XY.Y./.J.L.,./.;XlXxXxXK.:...,.C $.xXxX$XR.:XoXL.L.L.L.L.J.L.R.;XrXrXMXgXfXwXS.l.q.v s u 2 ; = = + + O X o                           ",
"X X X X + + + $ = = ; > 2 2 a p h c n q.l.|.+X=XiXsXgXgXNXGXPXUXUXPXSX&X|.U.Y.,.Y.R.f.u.xX^.K.$X&.Q R D D D D ;.F.,X;.Q D *.^ A H +.3.+.E +.O.O.3.5.5.Q R O.4.m.7XP.3X).=.D D R R ! ~ *.5.5.3.E o.6.6.....O.G D _ S S S ).,X5X,XR w I T I S 9 R <.X...H o.].3X2Xw.Y C.V.a.Q Q.6XQ.T.xXDXSXlX;X~.s.[.s.I.).>.2...o.o.H G A G G G o.:.).h.1.:.2.).o.2.H o.1.`.:.:.,.$.$XxX:X:X*X~.~.~.L.-XL.J.[.SXAXSXSX6Xs.:.`.$.E [.5X[.$XSX:X^././.L.J.K.^.Y.;XpXuXjXgXgXyXOXS.e.B g p 2 ; : = @ + + X X . .                       ",
"X X X + + + $ $ = ; > > 2 u p p g v B q.l.|.=XtXrXuXgXmXNXGXPXUXPXIXSX&Xz.f.J.,.Y.Y.Q.Y.7X'.&.#.#.#.R R R R *.B.n.n.Q R D R Z C J ..+...H ^ ~ O.5.O.E E X.=.4.<.:.E I.`.1.D G Q ~ *.*.*.*.5.5.=.L o.).6.>X,Xn.B.M._ %.Q (.(.7X9XB.S R S w Y D 5.1X>X).X.$.3X3X].p./ ' y.u.a.%XxX|.T.AXIXSX;XR.s.:.s.o.o.I.,.@.:.:.1.E R E 5.D Z C A <.$.).=.G E 6.6.2.2.6.).I.,.h.X.$.-X-X*X~.L.*XY.,.L.,.,.I.xXAX6XU.$X$X^.I.:.:.H $.>.[.JXlX;X-X*XL.J.s.^.K.-XlXsXfXMXgXyXwXS.r.B c p 2 > = = @ @ + O . . .                       ",
"X X O + + + @ $ = ; > 2 2 u p p g V B q.w.|.rXsXuXfXgXmXZXGXPXPXJXSXnX|.z.U.Y.Y.Y.s.U.'._.).<.E R &.Q Q ~ E 4.4.n.;.R Q Q Q D ~ H ....G G ^ E D ^ G A D R ..X.$.E X.[.3X).X.4.*.4.n.5.~ R R ^ ~ +.7.>X2.Q X.*.2X9X4X4X].N.C E :.n.D S W S | 0X0XR 6.,X1.#.g.u.Y ) / r S u.6X7X!.f.u.6XAX6XQ.Y.J.s.s.,.o.,.,...).`.3X&.Q *.F.S 9 D ~ F.R B.#.R E 6.6.6.H ....1.h.X.>.>.-XY.L.*X:XSXxX-XJ.^.s.h.a.&.E.X.>.s.L.,.1.1XA H E $.AXY.;X-X-X~.J.:.L.s.6XlXsXuXMXfXuXrXS.r.q.c s u > = $ @ @ + O . . .                       ",
"O O + + + @ $ = - ; > 2 u p p s g V N e.l.c.OXrXfXgXmXZXCXHXPXLXFXbXOXc.}. X.X*X:XU.$XxX<X<.4.#.R W C.1XB.A O.1XB.X.#.Q D *.b.5.^ E +.~ G D D D Q B.4.E E X.X.>.^./.'.h.(.#.;.4.Q Q I R ] I w A +.H ..E D S I W C.4X2Xi.#.Q E G X.X.D W ,X0X1X1X~ G R Q _ _ ) P / U r q _ xXAXx.%.g.j.].[.f.J.$X6X[.,.,.J.o...,.9XDXAX,XG.8.r w S ~ R S W ~ *.B.^ C Z G E E #.1.m.$.(.7XX.>.~.*XSXxX~.Q.W.G G &.;.#.Q $.W.5X[.H +.J G G $.E >.-X$X-X~.Y.L.>.s.-XpXsXuXfXjXfXrXOXl.q.n g i , ; = @ + + X . o .                       ",
"O O + + @ @ = = ; > , u p p h h V B q.r.l.S.OXrXfXdXmXZXCXHXHXFXbXeXc.z.}. X*XpXbX$X$X7X3Xm.;.Q I 2X9XC.;.G E =.n.;.;._ R I S S 3.O.~ ~ ~ ^ D w S >X4X>X<.=.$.>.W.Q.f.a.<.;.;.B.W W I R ] I w Z 6.5.5.5.W I I P Y i.g._ Q #.$.&.<X>.G D _ [ { ! D Z Z 5.v.) [ w.t.P S I %.2X4X%.i.i.i.g.>.X.:.{.5X5X[.J.,.:.I.3XAXDXAX4.I w 8 F | 8.~ S I _ ] *.} Z w Z A D E X.$.X.#.`.X.$.$.K.~.$X^.'.h.#.$.R R D E X.,.<X).H 7.3.A C X.a.XX;X6X6X XY.~.Y.L.$X;XpXuXgXgXfXyX@XS.r.m c p , - = @ + + X . o .                       ",
"O O + + @ @ = = ; > 2 u p s g c V B e.r.l.|.wXyXfXgXNXCXGXHXFXKXaX|.d.f.Q.U. XiXxXXXs.P.'.E.&.Q W 7XAX#.X.R A C G E Q ~ ~ D S } 3.3.~ ~ R D w 8 S G.4XB.*.#.$.&.$X$XE._.&.;.R _ _ _ W ) | I S D 5.5.5.5.W Y P q S -.g.#.#.u.j.N.7Xh.R R I S P W ! D Z b.G.Y U z { Y W _ R #.g.-._ W -.n.=...o.:.I.[.I.o...E X.m.3XAX4X-.I q 8 q T | ! w S _ ~ I D w 9 w Z R ~ Q <.g.D E X.$.G &.>.E.3X'.&.;.F.~ T D ~ =.X.1.1.H H F.B.=.R &.$XQ.6X-X~.Y.oX$X^.~.oXpXuXjXgXfXyXwXS.l.q.b s , - = @ + + X . o .                       ",
"O O + @ @ * = - ; > 2 i p d c b V N e.l.S.OXrXdXgXNXCXCXCXGXvXeXiX.Xf.a.E.U.T..X=XU.Q #.T.E.&.#.a.#X,XQ X.G G A =.X.E ] ! S T ! ^ 3.3.R Z 9 9 w ~ 4.4.Q Q #.$.#.6X6X].N.&._ R ] *.] ] ] ! T P T T !  .T P U P q I n.).n.i.i.p.j._.E D R P P Y ) -.] ] R Y Y / [ { { *.W D Q ;.-.W D _ B.;.o.@.o.:.,.:.o.o.E G D *.v.W w r e 8 q S ! ~ W Q *.] W R D ^ ^ ~ B.F.n.>XC.G G X.4.G Q #.a._.j.W I ] | } S } 4.E ..2.2.+.1X6.B.#.(.].R Q.$X XoX;X*XY.Y..XpXuXjXMXfXyXwXOXl.q.n s , - = $ + + X X o .                       ",
"O + @ @ @ = = - > , u i p s c v B q.r.S.OXrXfXgXgXNXVXNXBXBXkXOX=X*XP.>.E.XXoX.XoXU.#.$.U.f._ #.E.&.h.<.$.E =...6.E D *.I r | T ^ O.~ D w Z R ~ ] R R *.v.;.$.X.].!.j._ _ W -.G.[ { W Y r r r P q q e l z ( { P I 4.m.;.%.' ` w.i._ _ ' ) ` p.[ _ 1XAXv.S _ ' 2Xv._ Q #.g.M.-.I _ S D ~ O.+.2.@.o.L o.6.6.=.^ D I P 8 8 q q 8 8 ^ ^ O.*.Q R E ~ Z D D Z Z R *.Q ;.-.E *.5.5.G Z G #.u.%._ S 9 ! T q ^ B.O.H 2.).<.1X4.n.W 4.,XX.a.^.;X:XpX Xs.U..XrXrXfXMXgXfXyXOXS.w.n d u > = $ + + X . . .                       ",
"O + @ @ @ = = ; > 2 u i i d b n q.w.l.D.wXuXgXgXMXBXMXjXjXjXrX}..X.XI.,.`.%X+X XR.K.>.a.U.&.W %.f.X.P.(.:.X.m.=.H C 9 I S t | r R H G Z Z ^ 5.4.~ D R *.=.#.#.#.y.y.y.W [ P W ] 5.W U P q e t e 8 7 0 0 l ( { W ] B.6.#.W ) ( w.M.M.M.p.p.Z.Z.p.%.9XDXn.R i.-.,X-.W #.].3Xg.D Z D 9 9 R O.5.2.@.J J ..6.3.D D P q q 0 q r r r ! 3.^ O.=.E G X.6.5.4.5.G Z G ~ R Q R R } } } R Z R n.B._ _ I 9 T r r ~ F.<...$.).Q B.B.n.D Z 5.<.Q Y.;XiX:X XL.R.=XrXrXfXMXgXkXyXwX|.r.N c u > ; $ @ + X . . o                       ",
"O + @ @ @ = - ; > 2 i p i s c n q.r.l.|.wXuXgXgXjXvXkXyXgXfX=X X X X/.`.$X;X+X.XR.K.K.W.U.#._ M.f.&.P.h.1.o.6.o.X.=.w w T q q 8 G H H A A ~ 5.4.O.D G Q G G X.$._ ` ) ) { I r r b.Y r z z T  .0 7 7 6 k x x  .W 5.B.n.*.) / ( ( ` b.b.w.w.w.w.w.p.2Xg.D G <.].4XR Q a.].`.#.R *.S Z S ^ 5.3...o.L L 7.7.^ S F e z 0 0 q r S | 1X6.+.2.<.o.o.m.>X=.5.5.O.G E E D W R D K K F K } R ] v.I w r 8 w e Y [ -.<.$.$.P.&.#.W W *.^ F Z Q ^.;X.X=X=XoXoX;XtXrXfXMXMXgXdXaX&Xl.q.v p 2 ; $ @ + X X o o o                     ",
"O + @ @ @ = - ; , u p p s d c B q.r.l.D.@XyXfXfXyXaXwXwXuXuX=X=X~. X~.-X6X:X=XrX*X XXX3X'.&.g.2X[.s.>.$.(.o.X.$.6.4XI w | q 8 q A O.5.E A G 3.4.*.R E X.R E X.Q _ ) r P U | ! | G.P q z T |  .8 7 7 0 M M  . .{ ! 5.5.] { U x x U [ t.w.t.` U / P M.I Q >.E $.$.R #.&.a.s.f.k.].;.;.~ R O.H J +.@.@.6.7.^  . .8 e 0 e  .{ P S ~ 3...+.o.E o.6.2.G ..6.6.6.B.=.R D W R D } Z C } D Z 5.*.w w 9 w 8 ) ) D Q $.&.k.&.R I Z 4.} Z Z m.7X6X~..XpX;XR.=XrXrXfXVXBXMXjXaXeXS.e.v s 2 ; = @ + X X .                         ",
"+ + @ @ $ = ; > 2 2 u p p g v B q.r.Z.D.&XeXwXaXrXOXOXrXsXtX=X=X*X.X=XpXpX=X=X=XpX;X-Xs.P.h.h.g.>.>.X.>.>.Q X.&.9XDX5.9 S  .q w 5.5.4.R R S ~ _ <.X.$.=.O.^ D R S P Y { T ( | | b.T e P 8.8.r 8 8 q y T T U U P | T 0 8 0 0 k x (  .( U { b.b.) ) ' &.$.#.<.<.X.-._ g.3X-X~.$XxXxX_.#.Q G C C G ..<.6.D Z q  .t 8 0  .| T I Z 9 E G =.R C E E ..J H ..E 4.,Xn.;.<.<X;.R R A D D D 9 ~ 5.Z Z ~ Z S b.I I R ;.g.g.;.=.O.G D 5.9 R X.`.7X6XR.;X:X X=X+XrXfXMXVXmXgXaXeXS.r.B h 2 3 - = @ + X X     .                   ",
"+ + @ $ $ = ; > 3 2 u p s g v B q.r.l.D.D.&X&XOX|.S.|.rXsXpX=X+X=X=XtXtX=X=X=X.XzX:X%XU.K.#.X.X.X.(.h.h.>.E Q #.N.,XD 8 w } } F ^ O.5.~ ~ I R D n.X.#.X.*.~ D ^ I q r Y {  . .T T l 0 e T z 0 8 8 y F z e e z U U l 0 0 0 0 0 l x P z z U ) w.p.p.-.-.*.X.;.6.=._ _ j.3X6X;XoXoXf.#.W Q R A G 3.2.<.R Z F 8 8 t 0 0 T T S R D A R R R A *.>XO.G J G Q X.*.;.#.n.<.<Xn.Q A 9 G ~ } D ~ ~ A E 5.R ! b.I Z D #.m.B.6.=.5.3.3.F.A A ..,.[.7X-X:X;X.X=X=XrXuXjXVXmXdXyXeXS.e.B s u 3 ; = @ + X X .   .                   ",
"+ + + $ $ = ; ; 3 2 u p h c v B q.e.r.r.Z.A.l.l.l.c.|.rXsXpXrX=XrXtXsXtX=X=X=X=XlXoXXXXX'.$.$.o.o.`.s.>.P.>.#.#.;.;.Z w 9 I ^ 8 R R D S w I ~ ] n.<.B.<.~ R R 5.b.I r Y { Y z e 0 e 0 0 0 8 8 0 t e q 0 0 e P Y U e 0 z x x l x U U U ( U U U ` ` ) _ ' _ *.;.*.W -.N.`.^.XX$X$X%X!.g.i.*.R ^ =.;.Z 9 ~ w 8 q 8 r q r S I } ^ ^ ~ W R Q B.*.A X.E G E X.*.Q D ;.<.(.<.Q Z Z ~ 5.*.*.~ G D *.5.R I | ! D Q Q ;.#.X.O.6.5.E B.Q Q E ..,.3X$X;XoX.X=X=XrXyXjXNXmXgXyX@XS.e.B g u 3 ; = $ + + X o . .                   ",
"+ + + $ $ = ; ; 3 2 u p h c b v B N q.q.e.w.w.w.l.c.OXyXsXsXtXtXtXuXsXtX=X=X=X.XoXY.U.$X$Xs.h.$.>.`.>.$.P.s.&.a.].g.Q 4.W *.] Z D D w I S I S I 5.6.>X=.D S D 5.1X-.I W Y P z q 0 e l e e 0 0 l x 0 8 0 l / ` [ U P / b.b.T U / / ( { { U U U ( z r Y _ _ _ #._ I _ %.&.&.K.XX$XAX7XN.;.*.Q ^ *.B.Q S *.9 9 S q S q w w I I Z D ! ^ ~ 5.B.B.>X9X).;.=.;.4.Q Z Q <.$.Q E G R *.~ ^ 5.5.R ^ 5.O.D Z T | W *.R Q G G G 5.=.D *.Q Q X.o.$.P.U.$X~.R.=X=XrXyXjXNXmXgXyX@XS.w.n g u 3 ; = $ + + X o . .                   ",
"+ + + @ $ = : ; 4 3 u p h h g g b v B B N q.q.r.l.S.OXaXsXuXrXtXuXuXsXrX.X+X.XR.R.R.K.'.`.P.h.X.>.`.h.a.>.Q #.k.`.&.#.,XN.B.B.4.n.*.I ] S r 9 S ] Q Q D Z D S I v.-._ W I Y T r e l e l x l e l l 0 0 l U ` b.C.y.v.,X1Xb.I P ) / / U l x U | | r e z Y Y W %.-.Y I I Q &.f.f.a.3Xj.Q W R R ~ *.4XAXv.I R D 9 ! ~ I D S I D 9 D } ~ ~ R *.9XAX<X3X,X,Xn.*.R w R n.X.Q X.Q E R D D 4.4.~ O.5.O.R ^ ^ | R W D Q R G D E *.R %._ Q >.>.$.f.f.Y.K.Y.~.oXrXrXfXNXmXgXyX@XS.r.n d u 2 ; = $ + + X o . .                   ",
"X + + + $ $ : ; 3 3 u a p s s s g c v v n N e.r.l.S.wXsXhXyXrXtXuXtXtX=X+X.XoXY.a.$Xa.s.P.`.'.h.(.`.h.P.s.#.$.&.3X_.>.].h.&.&.;.3X,Xv.] P S P ! ! R Q D D W Y ! Q #.*._ I Y P 0 e e l x  . .l e 0 l U ( U U [ C.AX4XC.M.;._ Q %.Y / U x z / ( U T z z r r Y i.M._ W W #.&.$.#.#.Q W _ _ R D D W M.9XC.Q *.~ D *.Q I Z Z W I S | F.| Q W I C.4XW u.N.N._ D Z w W n.#.;.;.*.D w D ^ O.~ G O.5.=.O.} ^ 5.] W R W Q Q R R *.R _ g.2Xh.>.$.`.P.a.$.Y.Y.oXrXrXfXNXmXgXuXrXS.r.N g u 2 ; = $ + + X o o .                   ",
"X O + + + % : : ; 3 2 u u u i p s h c v B q.e.r.l.S.wXhXhXuXyXuXtXrXrX=X=X.XoXR.$.$X&.a.`.[.[.'._.a.$.h.k.(.P.X.7XAX`.h.$.X.E X.$.C.,X5.| | | T ! *.n._ W ] [ b.;.*.*.*.W I r 8 8 e l  . . .e 0 8 e ( [ / P ) i.AX]._ I _ &.g.i.' ' ' w.[ Y r q T T ! Y I ) i.i.-.4.;.#.Q Q Q Q W [ b.b.W S S D Q _ _ 4.n.#.<.#.#.R Z Z _ ! r | 5.D D 5.Q W N.g.W _ #.I S D D 5.<.&.n.<.4.R w ~ 4.^ Z A O.5.=.O.! D 4.F.*._ R W *.-.Q -.I I i.AX(.h.$.k.h.$.E P.Y.oXiXtXjXNXmXgXuXrX|.l.q.c i 2 > - = + + X o . . .                 ",
"X X + + + % $ : : 3 2 2 2 u u p s g g v B q.r.r.S.|.wXuXuXuXuXfXtXrXrXrX+X XR.K.a.7X>.s.`.P.>.s.$.X.X.$.&.(.3X$.[.AXh.G G E G X.E N.1XI P | G.} *.*.;.Q _ v.[ ) ,X;.X.*.! Y r 0 7 0 l x  .x 0 8 e P { b.[ Y W _ Y W W W W %.g.M.C.j.j.C.b.Y S S S  .F.F.b.n.v._ b.v.-.*.&.;.E w R ! Y Y Y I R W v._ D Q ,XX.$.h.3Xk.&.&.,XF.P | S Z 9 R R S %.j.j.%._ W _ *.] B.<.$.;.;.B.5.D F.1XR 9 D 5.m.2.Q Q D -.C._ %.I Q v.B._ B.*.D I V.(.`.>.&.$.&.X.s.L.XXiXrXfXMXmXgXuXrX|.l.q.v s u - = = + + X o . .                   ",
"X X X X + + @ $ : ; 3 2 2 2 u u s s c n q.q.w.l.S.OXrXuXuXuXfXfXuXuXuXtX=X.XY.f.P.E.P.`.a.X.a.s.&.X.#.G Q X.<.Q $.m.h.X.X.E E $.G R Z w Y { ! ] ] R W W Y ) [ Y #.$.#.D S ! T 0 7 0 x x x l 0 0 P B.4.~ ! ] I 4.i.W ' u._ W %.&.k.].V.;._ R D R 5.S I B.4.Q Q W R I Q ;.=.Q R ! I ! Y { S W #.N.%._ _ n.$.X.,.:.P.`.AXN.M.b.T w ^ D S I _ _ _ j.u.I I -.*.W ] *.].X.Q g.;.Q *.F.Q R D R ;.6.$.X.D W Q _ _ %.#._ C.,X5.F.v.Z R n.g.s.k.&.&.a.$.$.L.$X*X@XyXMXmXdXuXrXOXA.e.v s a > - @ + X X o . . .                 ",
"X X . X X + + @ = : ; > , 2 2 u s s c m q.e.r.l.|.@XtXhXuXtXuXuXtXuXsXsXpX*XY.a.a.f.a.s.s.>.E.[.k.3X3XQ Q >.m.Q <.(.h.>.<.>.o.$.R W D I [ [ { [ _ R W _ ) ' [ W ;.;.=.R S Y T 0 0 l 0 0 0 e 0 e v.C.*.*.} 3.! b.i.' C.4XC.w.i.i.&.'.].;.R D W B.*.^ *.F.F.*.E R D I *.C.B.Q D I [ b.{ { Y b.n.M.,X4Xi.Q <.>.P.5X`.'.7Xa.#.] I I 5.R Z I 4.C.i._ W I R #._ Q *.4.;.Q D D Q n.B.*.R G G X.<.$.X.$.Q R #.k.k.V.V.%.;._ ~ ~ *.Z S 4.a.s.`.P.a.a.>.K.W.-X;X+XyXgXmXgXuXrXOXA.e.v s u > = @ + X X o . . .                 ",
". . . . . X + + @ $ = - > > 2 u i s c n q.r.l.S.OXrXuXhXuXtXtXrXtXtXuXsXpX=X~.Y.U.W.a.a.K.s.W.3X'.AXAXa.$.g.(.;.1.<.$.:.(.m.>.>.<.#.R I _ ] -.B.i._ #.%._ ' ` Y *.=.-.] P U  .x e  . .x 0 0 l { F.<.R } K T S ! -.M.4X4XC.p.p.%.g.'._.$.R E =.F.4.*.Q Q X.E E $._ R Q B.C.*.R I [ | Y P Y n.M.%.2X4Xg.R #.$.(.3X5X3X7XN.%._ I { ! Q Q _ -.N.M._ I _ #.#.-.*.;.B.g.&.Q I _ ,X,XQ R Q #.<.m.$.>.(.h.Q a.'.k.!.3XC.%.S ~ S ~ D D n.>.s.$X3X'.!.f.'.L.^.oX+XyXgXmXgXuXrX|.A.q.v p , ; = @ + X X o . . .                 ",
". . o o . . X X + + @ = - > 2 a p d b B q.r.A.|.@XrXuXjXfXtXtXrXrXrXrXrX=X*XoX~.XX$Xf.s.W.s.f.$X'.5X3XP.h.<.g.N.<.X.E X.g.m.h.h.(.<.Q W W Y %.C.].k.g.u.' ) Y I _ _ *.] P z T  .0  .t. .x e z | v._ R } w w 9 w P ' C.p.Y ) [ W k.`.h.X.Q Q X.#.#.;.=.$.<.o.X.<.=.R D #.].,X;.I W W P r P -.;.#.i.u._ Q G Q N.&.k.g.V.%.W I r I D E 5.;.Q #.;.#._ i.-.Q &.;.;.g.g.&.%.#._ -.*.R *.n.N.h.<.>.h.[.h.&.f.'.f.a.!.2Xi.D Q D *.G ~ n.#.#.E.$X$XE.a.U.Y.Y.R.+XhXMXmXgXuXwXS.r.q.c p , ; = @ + X X . . . .                 ",
". o   . . . . X X + + @ = ; 3 a s d v B e.r.S.OXwXyXfXjXfXuXuXrX.X=X=XrX=X.X XR.R.XXf.f.^.K.f.Q.U.f.f.U.f.a.&.m.g.#.E Q #.g.N.(.<.>.<.g._ W ' j.3X#XE.d.%.W Y ) *.~ ] { r 0 e l 0 l x x  .( x z ) _ 5.b.r r w q e P ` ' Y ) -.%.&.k.g.#.Q R R W R &.;.<.m.>.o.<.;.X.E $.<X7X3Xi.W Y Y P Y W -.;.R D D Q Q #.n.#.R D I I D I I ] #.E Q *.*._ W I -.;.R D #.;.#.#.h.u.u.u.%.Q R D -.N.N.&.$.$.,.h.$.,.h.`.'.a.&.].g.Q Q D *.A n.<.>.a.Q.$X$XU.f.XX-XR.U.+XhXBXmXdXuX@XS.w.B g u > - = @ + X X . . . .                 ",
"      . . . . . . X + @ = ; 3 2 p d v q.e.l.S.OXyXuXfXjXjXuXuXrX=X=X=X=X=X.XoX XR.XXU.R.$XQ.W.XXU.f.z.XXT.!.k.&.<.#.#.Q Q &.N.h.=.$.1.n.#._ u.c.#X#XE.d.u._ ) b._ R Y Y e 0 0 0 0 0 0 l  .( U U / ` b.b.t t r e Y r ` c.u._ #.g.;.&.#.%.i.&._ Q _ %.&.g.m.h.>.1.=.Q G A E &.g.%.) Y ) Y W I _ &._ u.R R n.*.Q -.#.W I W W -.5.F.m.<.X.*.n._ D S v._ D D #.&.#.#.k.k.x.j.i.j.&.R #.g.<.#.&.>.,.,.:.m.:.>.'.s.#._.g.-.Q Q =.D N.g.'.Q.6X;X}.U.R.:X;XY.d.}.uXBXMXfXyX@Xl.q.v s u > = = @ + X X .   . .                 ",
"      . . . . . . O + @ = - > 2 p s v q.r.A.S.eXyXfXgXjXjXuXuXrXpXpXtX=X+X.X.X.XoX XY.XXXXQ.XXXX XT.oXlXQ.#XE.%.Q #.;.&._ u.j.&.2.o.;.;.#.u.!.!.T.T.a.u.u.' { b.! I P P e e l 0 6 k l l x x U w.` ( U  .e t z T ` U y.!.a.Q #.&.V.%.I %.C.].j.d.%.%.j.2X3X_.g.$.1XB.$.X.X.#.&.j.) ) [ Y W R *.X.a.<X;._ v._ I W -.i._ i.*.;.*.-.=.m.&.$.B.5.R ~ F.~ E ;.1.<.>.>.k.k.j.u.%.i.i.W ,Xg.#.#.k.P.K.I.I.6.o.X.a.&.&._.j.;.n.n.$.X.h.h.E.U.$X}.T.U.T.;X.XR.U..XuXjXMXkXwXOXl.q.v p , > = = @ + X X . . . .                 ",
"      . . . . X X O + @ = = > , u s v q.r.A.S.wXyXfXgXMXgXfXfXrXsXsXsXsXrX+XoX XoXR.U.Q.R.U.$XXXoXU.oXbXXXE.d.#.I _ M.j.u.j.x.#.#.Q &.g.a.x.!.d.T.c.%.%.u._ R ] -.! Y U x x l 0 0 0 6 0 x U x / Z./ e U z z U b.p.d.!.!.a.f.'._.M._ W %.M.j.V.2Xx._ _ u.%.#.;.$.B.$.#.m.).&._ _ #.%.i.W -.;.n._ i.).].C._ ] [ q I -.v.2XB.v.R D R m.$.X.>X>X=.n.F.~ ;.,X(.g.a.h._.f.k.u._ _ &.&.AX<X#.$.(.(.h.`.2.:.:.:.X.X.&.a.k.&.]._.#.&.$.a.!.f.T.}.%X;XoXoX X.X+XrXfXjXjXdXwX|.l.q.v i > ; = $ @ + + X . . . .                 ",
"      o   . . . X O + @ @ = - > u s c B e.A.OXeXhXfXgXmXgXdXkXyXuXuXuXuXuXtX.XU.XXf.Q.'.$XXXf.Y.oXU.R.XX$X%._ _ W p.M.u.u.c.!.d.' ) #.g.h.h.s.a.u.p.p.y.C.#.X.6.4._ ] ! T T e z e U { P e P U ` y.W W I Y _ _ %.%.2X3X$XQ.lX^.a.j.-.-._ _ ' p.AX2X' ' y.I _ V.g._.E -.F.W S W D Q &.`.3X].].C.y.M.' ' -.-.Y w Y W ) ] 5.b.{ P I ] W R E $.<.>.$.Q R W ,XC.i.#.h.W.'.#.#.x.d.u._ 3XX.<.,X&.X.m.B.(.I.,.:.>.$.&.K.T.f.f.'.'.f.&.#.&.f.R.R.=X.XoXoX;XiXtXuXfXMXfXfXrXOXr.m d u > : % @ + + X . . . . . .               ",
"      o . . . . X + + @ @ = - > u i c B e.l.D.%XaXfXgXmXmXfXkXfXyXuXuXtXrXrX=XoX6Xf.s.E.'.XXY.R.*XY.R.Q.'.W W ) ) %.%.%.k.$XXXu.' Y _ N.k.s.f.x.c.c.l.y.V.&.$.<.;.Q { !  .T e 0 P Y b.[ ) ) U ) M.#._ W Q #.#.&.a._.E.U.$X%Xf.W.].n.;.I I ' M.7XC./ ' C.%.Y &.V.&.Q ;.B.P w ~ *.X.h.$X5X'.V.p.` M.-.-.-.v.[ S S 5.-.] { ! S S ! F.5.*.X.X.$.$.$.&.W S _ _ _ Q &.s.^.P.u.%.d.x.Q k.#.$.m.=.G D E (.`.I.s.s.$.&.K.lXXX$X$XU.f.f.&.&.s.R.~.=X XoX;X;X=XrXfXfXMXgXdXwXOXr.m i , ; : % % + + X X . . . . .               ",
"o o   o . . . . X + + @ @ = - > < u d n q.r.D.OXaXfXgXmXmXfXfXhXuXfXhXtXrXtXiXoX$XU.f.T.U.Y.$X~.oXU.Y.Y.!.#._ i.i.%._ #.f.$X^.a.p.) %.N.N.k.`.'.#XC.l.w.j.&.<.<.;.W Y P U T e e r r ) ' [ [ Y Y [ i.C.v.-.&.&.N.a.k.h.f.7X$X&.'.].;.%.Q Y _ p.#Xy.) p.2Xj.W %.].#.#.-.-.I P ] 4.#.h.<X3Xk.%.' ) ) _ -._ %.-.I I _ _ _ ] ] P w S P I Q X.$.>.m.(.;.Q I -.-.i._ #.f.[.$Xf._ u.#X%._.h.X.X.$.R S Q `.[.`.I.s.>.a.R.;XU.$X$Xa.U.3XE.!.U.R.R.*X~.oX;X;X+XrXfXuXMXjXdXwX|.w.b i < - = @ @ + + X X . . . .                 ",
"o o o o . . . . X + + @ @ = - > < 5 s v N w.l.|.aXfXgXmXmXfXfXhXuXhXuXtXtXpX=XR.U.Q.E.W.f.R.;XK.~.K.L.W.`.h.g.].M.;.%.&.f.Y.Y.U.j.i.i.j.u.j.].].#Xc.p.Y _ _ g.M.v.Y P 0 0 x x { U q r Y [ w.U U Y b.1XG.-.#.#.N.#.#.&.Q _.a.Q &.N.W %.].j.' %.u.) p.x.j.u.u.u.N.g.&._ W ] [ ] _ Q $.h.g._ Y / Y I W Q D #.C.-.R W W W -.B.*.D Z 9 S ~ #.$.$.>.g.;.*.Q n.F.,Xi.#.`.W.'.k.%.u._.k.`.k.X.E X.*._ 4.(.I.s.s.s.s.K.XXXXR.$X$Xf.U.'.f.6XQ.U.U..X~.oX;X;X=XtXuXyXMXjXyXwXD.w.c 5 < - % @ # + + X . . . . .                 ",
"o o o o . . . . X + + @ $ = - > > 5 p c n q.l.S.wXhXgXmXmXfXyXuXuXuXtXtXtX=X XT.%XXXf.R.XXXX$X&.^.Y.K.`.`.h.<.m.m.&.&.P.W.L.L.[.u.i.%.) ) y.x.p.j.u.u.W Q _ C.G.b./ P 0 0 l ( b.G.) P Y [ b.Y P U b.G.B._ Q Q <.m.Q &.#.#.W _ _ g.Q a.4X4XV.x.u.y.V.x.y.u.x.k.g._.i.I P [ b.] _ _ Q #.#.W Y U U W Q Q R n.4Xn.R *.*.~ *.v.5.~ ] S R *.#.X.$.h.(.B.v.W -.i.B.&.#.>.k.a.&.x.].j.k.k.#.X.Q Q *.-.Q g.>.$.>.U.U.Y.XX$X;X;X$XXXR.f.f.3X!.T.U.oXY.R.oX;X=XrXuXuXMXgXyXeXD.w.c i > - = + + + + X . . . . .                 ",
"o o o o . . . X O + + @ $ = ; > > 2 p g b N r.S.OXhXgXmXmXfXyXuXuXtXtXtX=X}.}.%X6XQ.f.}.$Xz.d.f.^.W.J.`.P.h.#.$.m.<.h.[.[./.L.Y.>.&._ Y Y y.Z.p.j.g._.g.i.%.Z.Z.[ / U e 0 l x t.2Xb.) Y _ b.Y P { { [ { _ i.g.m.[.X.m.,Xv.W W _ &.h.f.'.#X3X3Xc.d.u.y.%.d.!.V.V.N.i.W P Y { [ b.-.Q Q *._ { / P R $.h.;.m.N.#.R *.*.*.*.] R R *.R ! Q Q X.g.<X9Xv.-.W [ W _ R R E a.h.u.2X4Xx.a.(.#.E E R _ -.W g.,.>.P.$X$XR.Q.~.-XXXQ.%XXXf.Q.!.!.$X XoXf.f.Y.oX=XrXuXfXBXfXyXeXD.e.b i < - = + + + + X . . . . .                 ",
"o o o o . . X X O + @ @ = = ; > 3 2 u s c n e.l.|.aXfXgXmXfXyXuXtXtXtX=X.XR. X%XoXQ.R.Q.XXf.%.Q.U.P.s.`.h.h.$.&.g.k.P.I.Y././.L.P.&._ ` w.p.Z.j.x.a.].].N.' w.` ( U U l l x l ( t.) ) W _ i.) U U x Y P _ V._.`.h.#.<.N.-._ P I u.!.a.f.!.#X#Xc.d.%.' u.x.V.k.k.%.%.%._ W Y ] b.5.W W ] [ | { P D $.].N.;.Q I ] R W ! ! ~ D Z I | *.*.#.#.&.N.,X_ _ _ b._ W S I R #.(.V.,X2Xg.&.(.g.X.E *.-.[ i.h.h.a.E.$X'.U.U.XX XR. X$XQ.f.f.z.!.$XoX;XY.U.U.oXpXrXtXfXMXuXaX&XD.e.b i , - = + + + + X . . . . .                 ",
"o o o . . . X X O + @ @ = = ; > 4 3 u p d b q.l.S.aXfXgXmXfXyXuXrXtX=X.X X XQ.R.f.R.R.f.XXXX&.U.E._.P.].g.k.&.g.#.k.E.$.$.Y.$X[.`.$._ y.l.r.l.c.u.Q <.m.g.) ` U U l x l l x x ( U / i.%.%.v.) U l x { Y ) i.h.k.k.(.&.W I b.Y ) f.'.a.f.$XU.z.u.c.u.d.c.x.j.&._ _ _ i.M.-.W W ] 5.I S Y ! { { Y *.#.-.-.;.-.I ] ! P q r ! ! S S I W *.&.&.#.#.Q I W ) b.) I D #.X.D M.,Xg.%._ #.#.g.X.X.,Xv.W v.g.>.$.>.P.f.a.f.Q.f.T.-X;X%X XU.f.c.U.T.:X;X-XXX;XzXrXwXuXjXyXaX&XD.q.b p , : % @ + + + X . . . . .                 ",
"o . . . . X X X + + @ $ = ; ; > 3 3 2 u i c n r.S.eXfXgXMXfXfXtX=X=X+X.XoX~.Q.XXR.U. XR.}.$Xf.a.d.u.k.&._ %.%.&.#.a.f.&.$.K.^.L.s.#.%.j.w.q.w.y.%.X.X.#._ Y l e U x U l x ( l l ` p.C.C.' ' ) ) l U z ` j.j.'.f.a.`.(.i.i.-.{ Y h.W.U.U.6X6Xz._ %.u.c.x.!.u._ j.%.%.-.v.4._ Y Y T Y r q r q r | B.B.-.Y P Y { T P q q P { { T S w I W &.h.#.W %.W I ) 2X0Xi.D #.D Q -.-._ I W M.Q #.R X.B._ r v.&.G Q #.#.[.7XT.f.XXT.%XlXoXoX$Xz.z.$XR. X;XxXXX;XrXtXtXgXjXuXwXD.r.N g i > : : $ $ + + + X . . .                   ",
"  o . . . X X X + + @ $ = ; ; > 4 3 2 u i d b q.r.OXyXgXMXfXuXrXtX=X.X.XXXXX$X$XU.T.oX}.R.Q.f.f.u.j.j.%.j.V.%.u.x.x.x.f.d.U.R.U.W.a.u.p.w.` w.y.W _ &.;._ P x ( ` { t.( x x 0 x / w.M.2XM.j.%.[ U ` ` p.p.u.d.a.&.d.h.a.i.-.[ M.f.Y.a.U.XXf.d.' d.c.C.!.V.y.%.p._ _ _ *._ W I Y |  .r 0 r r r ! b.[ Y Y !  . .T T z r T | | { ! W _ *.g.g.&.%.i._ ) ' B.G.-.R Q D *.*.I I _ -.;.Q E G R R W Y W W X.R G >.3X5XU.z.}.R.oXoX XoXoXz.z.}.U.U.;XxX$X.X=XuXyXgXfXyXOXS.r.n d u > : : $ $ + + + . . . o .                 ",
"      . . . X X + + @ $ = ; ; > 3 3 2 u p i k b q.S.yXfXjXfXuXrXtX=XoXR.~.XXXXXXXXoX}.R.T.T.'.!._ u.' W ].4Xu.u.x.d.d.z.U.T.T.Q.3XE.u.p.p.c.Z.j.W _ u.i.W r U b.b.t.t.{ m x l U / ` u.2Xj.p.%.y.` w.Z.p.%.%.%.u.Q _ #.u.i._ ' C.a.f.&.Q.U._ d.%.u.d.c.c.y.%.%.' W W Q Q Q R W !  .T 0 8 r T T Y | P r U  . .x x x e e z  .{ { { _ _ i.j.h.h.j.y.y.y.[ [ b.v.%.*.R ;.Q w S i.M.;.#.G #.4.D P { W *.m.X.Q ].7X[.Q.f.Q.}. XT.T..X XU.d.R.U.f.;X-X X X=XuXuXjXfXrXOXl.q.v s u > : : $ $ % + + X . o o .                 ",
"        . . . X + + @ $ = = ; ; 3 > 2 u p s d k m A.wXfXjXfXuXrXtX=X~.Y.Y.W.U.f.lX;Xz.z.T.T.#Xx.#._ W W #XxX!.u.d.d.d.z.!.|.!.|.6XE.u.d.#X4X2Xj.%.%.y.p._ Y ` C.Z.[ { ( x x U / ' ) _ x.u.%._ y.[ ` M.y.' %._ u._ Q #.N.C.%.#.V.&.a.T.6X#Xu.z.u.y.' u.p.%.p.M.' W Q _ Q Q Q Q ] T x 0 8 e  .{ I W r q U  .x e x x z e z P Y ) _ W Q i.V.k.x.x.' y.w.` ) ' i.g.n.v.4._ I Y _ -.F.;.E F.4X*.q U | B.B.;.m.4X].a.'.f.T.XX Xf.U.oXR.T.d.R.U.f.6XY.U.R.=XuXfXjXhXwXS.r.N c p 2 > : : $ $ + + + . . o o .                 ",
"        . . . X + + @ @ = = ; ; > > 2 u p h c b m l.OXyXgXjXyXrXtX=X XY.Y.L.f.a.;XoXf.T.}.U.V.%.a.#.a.a.f.3X$Xa.f.Q.Q.U.Q.#X!.!.!.z.d.z.'.6X3Xu.V.y.' w.p.M.M.C.b.' / / x x ` ` ` ) ' !.d.u._ y.%.) i.' ' %.) p.%.) _ j.].&.#.a.a.s.6X6X$X3X!.d.u.y.y.p.p.M.C.-._ *.&.&.#.Q W ! { T e 0 r  .! I I r z U x 0 e T (  .T U Y W _ -.W _ g.V.k.E.x.%.w.` ) ) W _ &.g.C.B.v.[ W S W C.=.=.F.1Xb.r q ( W Q 4.].N.%.&.x.U.U.XXR.f.R..X X XU.R.R.U.:XY.R.R.=XuXfXjXuXwXD.w.B d i , ; = $ $ $ @ + + . o o                     ",
"    o . . . X X + + @ @ = = ; ; > > 2 u p h M V q.r.S.yXfXvXuXrXsXtX*X~.Y.W.E.U.U.R.}.%X$Xz.u.Q _.a.$XQ.$.f.W.s.f.$XXXU.Q.|.z.z.u.z.Q.Q.U.W.`.d.V.w.U / p.C.C.M.-.[ [ ) e l w.p./ ) d.6X3X!.u.u.%._ %.-.-.[ ) ' y._ W %.g.&.$.>.f.f.5X$X#X6Xz.p.p.y.y.p.p.p.-.) 4.4.;.=.#.X.R I T e 0 0 e T ! I I Y Y T z e x  .T { { Y Y W #.;.#.%.g.j.a.d.d.y.' / / ' ) _ ;.g.n.G.B.[ I r D *.X.6.4.5.5.Y 0 e 9 D n.B.Q #.k.k.E.f.Q.T.U.oX*X;X;X XR.R. X6X$X$X X+XuXfXjXyXOXS.q.n s u , ; = $ $ $ @ + X . o o                     ",
"o o . . . X X X + + @ @ = = - ; > 3 2 u p h M V e.r.S.wXfXBXtXrXtXtX=XoXW.W.'.Q.U.U. XoX$X!.&.#.[.L.[.W.>.s.K.f.K.^.U.f.XXQ.d.z.c.c.$X^.J.J.P.k.d.` x z ` C.N.$.Q [ [ ` z / 2X2X) y.c.6X%X!.u.%.#.*.*.n.b.) Y U b.v.%.%.g.h.>.,.a.f.Q.d.x.#Xu.%.' ' ' w.[ Y P Y B.n.;.X.X.X.Q I P 8 0 e z T ~ I ! -.| Y U ( { / U { _ W W _ &.h.%.i.g.a.a.u.y.y.w./ ` y.%.u.g.&.%.b.-.W W W I R Q =.*.Q }  .e 0 w Q B.4.R Q h.k.f.z.XX XoX;X+XpX:XoXoX~.;X:X-XoXoX=XuXfXjXyXOXl.q.v s u 2 ; = $ $ $ + + X . o o                     ",
"o . . X X X + + + + + @ = = ; ; > , u a p p h V t.r.A.wXuXBXuXrX=X=X=XoX~.W.Q.R.$Xz.z.c.z.!.&.a.3XW.L.L.^.^.K.U.~.~.f.U.$XT.&.d.|.|.!.U.s.s.I.k.%.` U e Y i.g.X.R W W ) / C.AXxXy.u.c.%Xx.p.` ) Q &.#.C.b.Y Y r Y ] _ W #.&.X.Q &.k.d.d.V.x.u.' ) ' w.p.b.Y P [ G.b.*.Q X.$.*.] | q 0 T T { _ I i.M.b./ / [ [ z Y [ b.%.%.&.P.].&.k.k.x.E.d.%.u.j.w.w.y.' i.u.R _ W D I [ -.Q E G H X.;._ P r r W *.=.*.Q D Q a.a.U.%X;XpX:X.XpX;X=X.X.XlX;X-XU..X=XuXfXjXeXS.r.N b s u 2 ; : = $ @ + + X . . o                     ",
"    o . X X + O O + @ @ = = - > , 5 u u u u h b B r.S.OXtXfXuXtX XR.*XlX-XoXf.Q.XX$Xc._ u.x.f.s.h.f.P.a.Y.>.f. X-XT.d.Q.$Xf.%.V.c.C.x.#.a.P.#.N.i.Y Y Y S %.V.#._ I Y p.p.C.4X2Xx.x.x.d.' Y U ) W W %.C.-.I I S S W W S [ -.I %.2Xp.' %.u.g.%.D S _ i.[ / / / ) [ ] S S *.*.R ~ | e e P P S D i.N.].i.W ) ` U z { b.2XG.) _ j.j._.k.a.f.E.f.u.%.x.Y ' j.C.%._ S ~ R R Y S S ] B.E I.-X;XK.&.Z R *.6.X.Q Q Z Q !.f.R.;XlXpX=X=X=X.X.X*X*X*X*X*XR.=XyXuXgXfXwXS.e.B g p u > ; = = @ + + X X . o o                     ",
"    o . X O O O + @ @ = = = ; > 5 5 u u 2 u p g n e.A.&XsXhXfXtXoXU.=X;XoXK.f.U.z.|.z.u.d.z.Q.$X_._.E.&.f.&.U.lXxXT.U.XXd.%.j.j.p.y.u.u.#X[.&.m.N.-.-._ W %.d.#.-._ _ M.y.y.#Xx.u.k.].].p./ x U W _ u.2X2Xn.] w S 5.[ w W b.[ ) Z.` U P Y #.%._ S _ b.b.) U U U P Y I _ C.v.R ! Y P T P Y _ _ &._.4X3XC.i.) P U [ { b.b.) W M.2Xh.h.f.k.'.#XE.a.d.%.%.j.C.%.Y W O.E Q _ Y I 5.>X<X/.J.o.~.5X5.Z 1X>XX.E Q %.$X6X$XoX;X;X=X.X~. X X X.X=X=X;X;X.XrXuXfXgXfXOXA.q.v h u 2 > - = = @ + + X X o o o                     ",
"    o . X O O O @ @ * = = - ; > 5 u u u u u p s c q.l.&XaXcXfXyX=XR.=XoX XK.f.f.T.$X#Xc.a.d.Q.6X]._.k.a.f.a.Q.lX6XT.T.|.u.u.x.j.p.' ' d.#Xk.Q &.,X,XC.M.g.g.d.g.%._ %.p.` ) y.' _ &.j.x.p.' ` w.y.u.%.C.2XG.v.! I 5.5.r Y G.b.' ` / ) ' %.i.n.;.R _ n.B.[ z e P z Y Y _ B.v.] 5.| ! Y r I -.-.g.#.&.#.%.i.[ Y U U P ) [ _ _ g.].&.f.k.k._.#XE.%.x.V.%.y.M.%.W n.6.=.n.N.i._ 5.6.<X-X~.o.oX3X5.D 6.=.E E #._.6X$X$X$X}.R.oX*X*X*XU.R..X*X*X:X:X*X=XuXfXjXdXS.r.N c p u > > = @ @ + + X . . o o                       ",
"    o . X X O O @ @ = = = - ; > u u u a p s p s c m w.S.iXcXhXuXpX}. X~. X~.U.f.$X$X$X|.T.f.U.[.k.a.u.k.'.Q.Q.XXz.T.z.z.#Xx.j.j.c.p.p.d.a.Q R &.g.j.i.y.j.u.%.a.%._ %.y.` Y ' _ W #.a.k.j.p.Z.C.p.C.%.' i.-.4.5.I S I P S I I ) U / p.M.i.;.i.;.*.4.n.b.] U z z P Y Y W *.-.*.B.G.} ! Y ! -.*.N.a.$.Q Q ;.[ I r r Y ) W W %.i.&.u.d.h.a.k._.d.%.V.].u.%.%.W _ n.6.=.n.,XN.;.*.X.<X[.~.L.lX$XR A X.o...:.`.'.!.a.$X$XU.f.~.oX~.~.a.Q.oX~. X:XlX.X.XtXjXjXyXA.q.n g u , > - * @ + + + X . o   o                       ",
"      . X X O + + @ $ = = - ; > 2 u u p h h h c c m q.l.OXaXvXvXiX.X X XY. XY.U.}.Q.XX%X;XXXU.>.&.#.%._.#X$XQ.Q.d.z.d.d.!.!.d.p.c.C.x.z.a.#.>.P.Q _ ) ' j.a.u.!.d.%.y.p.y.y.y.u.&.f.].3X].M.p.Z.%.C.y.' i.) W I ] S [ -.I P R %.%.y.M.i.#._ i.n.*.5.5.) W ] { U P / ' i.;.*._ -.F.| | | b.v.#.;.a.h.(.N.*.Y Y { { { W I W %.<.;.g.%.%.u.j.j.j.j.k.k.j.j._ W i.$.2...X.g.n.<.#.E I.-X~.~.;X$XS R 2.1...:.[.h.$.>.f.U.a.>.^.^.J.J.f.P.Y.Y.~.;X;XoX+XuXjXhXeXr.m b p 2 > - = @ O O X . . . o . . .                     ",
"      . X X + + + @ @ = = - ; > 2 u a h h V V B n ( q.r.S.eXjXvXiX;X;X;XL. XY.XX%XT.T.$X%X%XR.>.#.Q #.V.k._.'.$X!.u.u.u.%.x.2Xp.c.#X!.!.U.U.'.P.#.%.%.j.#XE.!.6X!.u.u.c.c.c.y.d.!.'.[.'.k.&.y.j.y.p.' i.b.[ Y w W I B.B._ v.G.C.M.j.M.i._ _ ;.;.Q 5.*.I I 5.b.{ { [ v.M.;._ Q _ [ { ] Y ] v.;.<.Q >.].N._ I { | { ! Y W -.#.X.;.g.%._ %.p.u.i.j.V.k.N.M.;.&.7X<X<X2.X.>.<.:.X.H $.oXoXoX$X$XR R 1.1...,.`.$.$.`.$.s.>.s.[.W.,.s.`.&.>.R.~.R..X=XtXhXjXeXA.e.m b u > - = = @ O X . . o . .     o                     ",
"    . . . X + + @ $ = = = ; ; 3 2 a p h g V B e.w.r.l.A.S.eXkXBXaXiXiXoXR. X~.^.-XQ.T.R.R.oXoXU.%.Q _ V.u.x._.#X!.u.u.u.' d.#Xj.c.C.c.!.U.K.'.a.#.#.i.].].a.f.6XQ.d.c.c.c.c.' u.'.'.`.k.&.#.%.M.b.' U ' -.[ ] S P S b.4.R n.,Xj._ _ %.%._ Q Q R Q *.*.R Y [ b.| b.b.v.i.Q R Q _ [ I I S I -.<.).g.g.N.v.W W { U U  .! [ v._ R _ i.i.' ' ' %.%.#.j.N.N.$.).<.9X3X<X1.$.1.h.,.:.X.K.^.oX~.6X3XQ Z h.o.:.<X`.,.[.3XP.[.P.`.3Xs...:.(.&.>.Y.Y.Y.=XpXsXhXhXeXr.q.c f u > = = = + + X . o . o   o o                       ",
"    . . . X + + + $ $ = - ; ; 3 , a p s g B q.r.D.D.OXS.S.eXdXMXhXwXiX}.oXoX~.s.U.U.Q.oX X*X=XR.&.W Q C.j.V.d.u.k._.d.u.j.p.y.p.y.c.d.x.f.a.E.h._ #.M.,Xk._ &.$XQ.c.c.c.c.c.) %.f.E.`.(.<.#.#.%.y.U r ) ) Y [ Y v.W B.v.R i.C._ %._ %.%.#.%.#.Q #.-.-._ W ) [ | b.b.b.i.Q R W W _ r S W *.*.&.<X<.&.-.W S Y | P T 8.| Y ] -.Q _ ' p.y.' ' i.%.W W N.N.Q <XQ m.E H A H 2.I.I.I.s./.-XxX-X'.Q R $.J.H ,.[.$...[.J.s.`.h.(.3Xh.o.).>.h.K.f.s.~.tXsXuXuXhXOXe.N f i 2 ; = = $ + + X . o o       o                       ",
". . . . . X + + + @ $ = - ; 3 3 , u i s g v q.r.D.eXcXvXjXMXZXVXFXaX|.@X.XU.~.s.s.U.XXQ. X:X;XR.d.#.W _ _ g.#.V.x.V.x.u.%.' ' ) ) p.u.'.f.&.`.a.Q #.i.g.#.W &.Q.E.|.z.%XxX%X|.y.u.&.[.>.$.(.Q %.) / P P P Y ] G.G.[ I P W %.-.%.%.x.x.j._ _ N.#.Q i.M._ W W ) Y Y [ [ ) W R I W W I w ) _ R <.;.#._ _ I q r  .e l  .T | { -.-.Y P ) b.b.) I I W *.*.*.&.$.Q G A A o.L 2.:.J.W.-X-X:XxX^.&.Q Z h.xX-XL.:.:.J.P.s.I.,.s.I.`.(.$.[.>.E.[.Y.~.=XrXhXyXjXaXA.e.B s u > : = @ @ + X . . .                                 ",
". . . . . X + + + @ $ = - ; 3 3 a a s s d c N e.S.OXaXhXjXNXZXCXGXBXwXOX=X~.Y.L.Y.Y.^.Q.R.oX*XR.&.%.%.W R %.#.V.h._.].j.u.%.' ) ) ' u.x.a.>.P.(.&.g.v.%.#.a._.$Xa.f.c.#XxX%Xc.y.&.&.(.&.&.(.&.i.B.b.) Y / ) _ b.[ W I W _ _ _ _ %.u.x.3X].u.k.%._ u.i._ W ) ) Y / Y P P I Q %.i.W ) Y -.;.R E E #.Q W P q e z 0 0 l e z q P ' Y / { [ Y P ) -.v._ *.;.n.m.1.=.$.=.)...H H ,.^.;X X$X-XE.&.Q $.7XxX6X/.s.J.{.I.,.o.:.I.h.(.k.$.h.'.Q.Y.XX:XiXtXuXuXjXeXA.N b i , > - = @ + + X . . .                                 ",
"    . . . . X + + @ $ = = ; ; 3 j j j h h b B q.l.S.wXyXdXmXZXCXGXGXhXOX@XoXs.~.^.Y.U.Y.R.oX;X;X#X].k.I Q a.a.&.&.k._.x.u.' ' ' ' ' ].#X'.[.(.(.;.;.#.W _ a.(.!.&.a.f.c.#X#Xc.d.a.h.a.$.&.g.i.%.b.b.` Y Y Y ) b.) I P Y ) ) ' i.y.d.V.4X4X].V._ %.u.y.' ' y.y.' { P Y _ #.g.N.u._ i._ i.M.X.E X.&._ W W P P z 0 0 0 e e r P v.' ) / ( { { { ] 5.R R R E Q X.$.$.g.>Xo.L ..I.$X*X*X;X'.f.#.Z X.[.6X-XL.s.Y.^.,.$.H ,.P.$.$.>.#.$.U.$X^.;XpX=XtXyXfXhXeXe.v g u > ; = @ @ + X . . .                                   ",
"      . . . X X + + $ $ = = ; > , a j h g V N e.r.S.OXwXyXfXmXZXCXGXBXOX@X;XY.-X$XY.f.K.R.-X;X-X7X3XE.Q &.&.&.#.&.&.d.x.a._ _ y.y.y.j._.[.3X[.>.g.#.Q ;.g.a.a.E.>.a.d._ y.#XV.].].2Xk.g.&.#.&.W Y ) ) P P z Y -.[ ) ) [ _ ) [ M.p.V.C.C.C.].C.) %.' _ ' y.p.i.y.z 0 Y M.,X3X4X].i.C.y.%.g.&.$.P.&._ _ _ { P e 0 e e T ( [ [ ,Xi.) z U b.b.Y P ] I R R R R Q X.#.Q ;...o.2.I.~.Y. X6Xf.#.E R (.[.$X-XK.,.L.K.o...,.P.h.X.E #.&.&.$.-X-X;X:X=XuXrXjXaXS.q.c s u > - = @ + + X . .                                     ",
"      . . . . X + + @ @ $ = = ; > , a j h b V B t.A.&XeXwXyXgXMXCXVXVXyXOX;X;X6X^.W.K.f.Q.;XoXd.T.U.U.a.a.R #.a.P.&.&.x.x.%.%.x.C.].%.&.E.5X7X>.$.Q _ g.k.a.a.P.s.a.u.I _ C.C.#XC.4XV.N.;.Q i._ Y ) W I Y I P Y ' [ b.C.b.) Y ' i.j.p._ _ i.%.' %.) Y Y ' [ ' ` U q I b.M.].3X].V.].i._ u.a.a.$XW.!.V.C.M.[ P z q r b.B.i.y.4XM.Y z P { { I ! b.D R ~ X.X.#.#.Q _ -.X.<.`.{.~.~.oXAX_.R Q m.7X5X-X-XL.,.I.s.o.o.[.).<.#.Q #.g.a.u.oX~.;XpX=XuXrXvXaXA.N d i 2 > = @ @ O O X . .                                     ",
"        . . . . + + @ @ @ @ = = - - > 3 2 p h c B q.l.S.|.OXyXdXNXmXBXkX|.}.oX~.K.K.K.P.Q.$XR.#.U.f.d.!.'.#.#.a.`.&.#.k.x.u.u.c.V.#X_ &.W.6XAX>.$.&.&.%.%.a.s.s.`.E.a.W ) p.y.' _ M.g.M.&.Q -.' ' ' W W -.p.) ) Y ) p.p.` / ) [ _ I I W W P S p.p.W P ) [ ' W Y | z Y -.#._ #._ u.p.p.%.h.E.K.^.6X6X3X].].b.{ { q P C.C.%.%.3XC.P { | T S T | } R Q ~ Q Q #.&.&.i.b.6.>X5X{.~.~.;XSX3X#.=.).<X$.W.`.s.,.I.I.1.(.).1.X.#.#.%.M.u.f.~.~.:X:X.XrXfXvXeXr.B s u > - * @ @ O O O X .                                     ",
"          . . . X + + + + @ @ $ = = = - ; 3 2 u f k m w.p.c.OXeXkXmXNXBXwXz.R.U.K.s.f.f.f.Q.$XQ.6XXXu.}.$Xf.>.s.E.k.a.f.k.d.d.u.y.y.#.u.T.$X$X#.f.k.j.u.u.f.E.W.$X[.&._ %.w.` P S _ ;.i.-._ ' ' %.v.-._ ' [ ' [ ) ) ) U P U { | ) S I ! ] P w B.b.) Y w.b.[ W Y T r I 4.i._ W _ ' %.x.k._.$XY.Y.$X$XU.&.u.%.W Y Y Y M.,X%.a.XXd.P  .| T r S S S 5.4.4.*.Q &.g.g.Y _ 5.5.).,.K.f.R.%Xj._ 4.6.,.E >.$.$.:.(.).).).:.X.E #.#.-.B.%.z.R.oX:X:XoXrXvXhXS.e.n f 5 > = * @ + O O O X .                                     ",
"          . . . X X + + O + + @ @ @ $ $ = - ; > 5 6 k ( w.c.|.wXdXNXCXGXjXOX@X*X^.L.P.f.&.d.%XxXxX;Xu.T.f.a.f.[.P.'.'.x.x.].x.y.u.%.u.d.f.'.U.a.&.#.#.a.k.f.Q.3X[.,X_ _ p.y.p.W D _ g.M.i.%._ _ ' C.C.y.I r P [ ' -.' Y P P Y P ) R ~ W *.W I n.i.W ) b.G.b.{ Y | { { v.n._ W _ u.y.2X#X$X3XL.s.^.^.a.Q $.&._ _ %.W _ ].&.!.Q.Q I e w P r q 9 I } 5.F.v.-.*.W S P ) _ R &.$.U.U.z.d.I S ~ X.$.s.h.$.o.,.I.).1.$.o.$.X.$.#.u.].&.~.~.oX;XpXtXuXvXaXA.q.v f , , - * @ + O O O X .                                     ",
"                . . . X X + + + + + + @ $ = : - > 5 f k q.S.@XrXjXmXCXCXCXkXwXsX:X[.$Xa.d.d.Q.xXbXxX!.W R a.<X`.3X3XE.E.E.k.].N.j.j.%.&._ &.&.k.R #.Q #.&.E.&.#.N.*._ _ %.i.Q R #.k.j.g.;.2X,XN.E.3XV.Y P Y / ) Y %.%._ _ W W W _ W W #.N.P.$.>.<.;.G.b. .t.m x z | b.v.%._ _ y.' ) c.4X3X[.[./.5X[.,.>.s.a.h.&.a.&.#.k.5X`.#.;.S q P P  .t  .T |  .G.Y S w D S Y Y I ) %.%.y.!.u.Y ] 9 I I B.;.#.>.s.J.I.:.`.I.1.$.$.a.a.U.XXXX~.oX=XrXsXyXhXvXOXA.B d i < - = @ + + O X X . o .                                   ",
"                  . . . X X X + + + @ @ $ = : : > u s b q.c.@XrXyXgXZXZXZXZXjXcXlX-XL.Q u.!.U.T.%X#Xk._ D E h.<X`.Q.f.T.x.a.N.M.C.M.%.-.R W Q g.3XV.#.#.>.h.a.g.-.W _ -.n.N.;.#.#.h.a.&.&.,X2X].U.$Xx.' [ b.b.b.' u.#X7X3X-.R ] b.[ _ #.h.E.$.X.7Xn.-.Y U ( k 0 z [ v.%._ %.%.y.p.w.y.z.U.L.[.[.,.$.:.P.P.s.s.`.P.#.Q [.AX<XX.Q S q t  . . . .T t q T P { [ _ I I { Y ) / c.x.c.M.W D 9 R W v.#.R #.s.W.[.9.[.9.,.$.&.f.U.R. X X*X.X=XtXuXuXvXaXS.r.v s u > - = + # + X . . . o                                     ",
"                    . . . X X + # + @ @ % = : : 3 , i c ( l.%XsXyXgXNXZXNXCXBXsX:X-XY.$._ k.f.Q.XXU.d.f.#.R $.[.a.a.a.U.f.#.&.M.i.i.y.M.Q I R &.3XN.#.Q h.k.a.g.W I -.v.;.N.h.a.#.a.&.#.Q g.g.u.a.d.%.) | b.b.b.I _ 4X4Xj.;.W ! Y P _ _ g.3X3X].3X#.R Y U U x / / v.v.-.&.;.&.u.x.x.u.a.f.K.L.L.s.$.h.h.>.&.$.E.`.&.$.3XAX4Xg.#.9 q r } T T S r S 8 I ~ b.B.i.*.~ *.W u.%.%X!.u.%.Q D Z D R Q &._ g.3X5X<X,.9.o.:.X.&.f.U.R. X~.*X.X=XuXrXfXvXeXA.q.c i , > = @ + # + X . . . o                                     ",
"                    . . . X X X + + + @ @ = : : ; > u d m w.S.iXuXgXVXCXZXCXjX@X*X;X[.W.#.#.a.;X;XR.a.Q.E.a.$.P.U.a.a.U.a.Q Q g.y.%.%.M.%._ _ N.N.g.&.Q (.(.h.#.W I v.v.Q %.u.&.&.k.k.k._ &.#.#.&.#.W I W { { ) W W 3XV.W -.] ! T P | [ _ N.].3Xg.R R _ ) Y ) b.y.M.M.M.N.g.<.a._.].d.&.E.^.L.J.X.$.].>.&._.#.&.h.a.a.g.k.(.h.Q w S I 5.S w 9 S w 9 ~ 4.n.<.&.g.;.;.#.$X6X6Xd.&.#.;.~ O.~ E G $.Q N.9X7X[.o.:.X.$.X.$.k.U.Y.~.~. X=X*XtXrXhXhXS.r.N d i , ; = @ + + + X . . . .                                     ",
"                  . . . . X X X + + + + @ % = : = > u g m ( l.|.sXyXVXGXCXjXfX@X=X:X^.W.>.>.&.Y.$X Xs.^.[.[.>.s.7XQ.U.R.f.#.Q u.M.%.) j.%.u.i.,X3XN.g.$.(.>.h.h._ W 4.-._ &.&.#.#.f._.].a.u._ #.a.&.&.-.] Y Y W %.S V.V.#.*.I  . .e  .[ ) ' %.p.g.#.Q _ Q _ %.%.%.%.;.V.,Xh.>.h.`._.&.#.P.[./.[.`.g.m.Q Q N.&.&.h.k.m.&.#.&.$.R ] } } b.I D Z S 9 9 Q <.$.$.$.P.<.>.h.3XSX-X&.>.>.m.O.6.6.B.E Q w W ,X,X).:.,.>.$.#.a.'.[.^.^.Y.~.pX=XrXuXvXyXS.e.B d u , - = @ + + + X . . . .     .                               ",
"                . . . . . . X X X X X + @ @ % = : > 2 i c q.D.nXzXyXBXCXCXdXyXrXoX;X/.K.f.P.f.$.K.oXL.^.^.$XK.^.7X^.Y.T.f.u.#.g.y.' ) M.M.M.%.g.3Xg.$.g.(.o.$.].-._ Q W i.].u.#.%.d.k.'.k.a._ _ a.a.N.C.-.Y W W W S #._ W ] T T T 8 z | b.p.) ) %.%.Q Q R &.3X3Xp.[ -.N.,X1.o.,.P.P.a.&.f.P.K.s.4Xg.#.R Q &.#.j.g.a.g.M.m.;.#.Q b.} T } ! ^ S w D Z Q g.>.h.,.I.1.P.P.K.xXY.#.X.$.6.+.6.6.B.X.E S Z ;.$.>.,.s.,.$.$.k.3X$XQ.Y.Y..XsX=XtXjXhXwXS.q.n s u < = @ @ + + X X . . . .     .                               ",
"                        . . . . . X X O + @ % = : > > , d e.4XAXaXcXjXBXBXdXyXrXY.*X~.L.^.W.Y.$.a.$XY.^.L.[.L.5X^.L.U.f.f.x.&.g.W ) ) M.M.M._ Q &.#.E <.h.>.$.N.4.-.W S ;.].u.h.#X!.x.#X!._.%.%.k.h.].C._ I ! W I _ *.I P | |  . .T { b.Z.p.Y Y ) ' Q Q Q <.7X9X' [ _ *.6.<.:.>.1.>.g.a.#.#.$.#._ D R ;.B.g.#.&.#.#._ #.g.-.Q *.| D S I T S D Z ~ R X.m.h.`.s.s.I.I.W.,.Y.>.>.X.X.$.+.O.E 6.6.*.} S *.Q X.:.s.s.s.a.!.$X'.U.W.~.=XtXtXsXvXaXOXr.N c i , - % @ # + + X X . . . . o o .                               ",
"                          . o . . . X + + @ % = $ ; > , s q.H.&X&XcXaXhXdXdXyXrX+X*X~.^.7XXXY.#.s.-XY.^.J./.J.5XL.I.[.P.k._.&.&.W Y P ) ) %._ #.R &.Q E X.).).m.-.b.W 9 W &.&.].3XE.%.k.x._.u.&.].`.,XN.W I ] [ W -.*._ ! r r P S ! 5.[ b.p.) p.C.v.W _ -.;.(.-.r U P S E 4.6.6.2.#.;.#.D D &.g.*.[ R W Q Q -.%.;.C.;.R Q _ Q 5.I S  .T T w ! ! S Z R 1.<.[.s.s.`.,.I.P.&.a.'.P.$.E G G ^ >X1X5.T S 5.R E #.K.XX'.E.'.$XW.K.^.-XtXtXsXcXvXwXS.e.B g u > : @ # # + + X X . . . .   o .                               ",
"                          o o . . . X X + + @ % % : > , i g B e.l.l.|.OXwXBXvXOX=X*X=X~.lX^.~.U.:.o.:.W.[.J.,.K.,.:.`.3Xk.].g.%.Y ' i.%._ _ %.&._ &.X.X.m.>.o.m.-.[ _ W I R g.4XAX$XQ Q _.k.#.g.>.g.g.;._ -.4._ Q R E R S w q q ^ *.*.W Y Y ) p.w./ P { [ ] Q W z x Y q R E 6.6.R R R W v.n.v._ [ ! W W W R ;.4XB.-.#.#._ *.*.~ r S b.| r t S | I D 5.R $.(.X.I.3X$.(.P.R #.3X_.;.*.E R R *.5.I T G.4.D G a.^.^.Q.U.XXf.s.^.W.~.=X=XuXvXsXOXl.q.c s u < = % # + X X X X o                                           ",
"                          o o . X X . X + + @ % % = ; > , i g n w.w.l.|.wXvXvXyX+X.X*X:X:XlX:X$X,...o.[.5X,.$.,.,...$.(.(.,Xg.&._ p.M.j.%.%.&.g.#.m.g.m.).<.X.;._ ] _ Q R R &.(.AXAX5X_.k.#.Q <.g.m.<.R W n.,Xv.Q Q X.~ R P T T Q =.$.R I I ' M.p.Y r U { { I S l x T q S D 4.F.~ I P Y { [ ] ! ] ] ! I I I _ B.n.i.v.v.*.#.Q I w r | P q T T  .T | B.4.;.&.$.P.`.g.#.Q k.g.g.i.&.R R R Z D R w 5.| W R &.J.Y.XX$XQ.T.a.a.Y.L.~.+XuXjXvXaXS.r.m c p , - = % # + X X X X o                                           ",
"                          o o . . X X X + + @ % @ % : : > < u f m m w.|.wXhXBXvXwX X*X:X:XlXlXXXI.:...<X5XJ.,.,.,.$.$.X.m.N.&.#.%.%.p.i.&.&.g.].V.<X].<.<.X.R Q ;.5.;.*.Q R R E h.3X3X].<.&.<.g.X.g.N.u.%.%.#.I =.*.O.~ R I T ! Q <.&.R D W y.C.[ Y P T  .U r e 0 l T S I I } } R r q q r P ! ! ! | { I I W W _ _ *.n.B.;.#.Q R w r  .t r | } S Z I W 4.X.E &.g._.N.W D ,X].&.&.#.I W Q D R _ I ] ! R #.K.^.^.-X;X$Xf.&.T.$XY.R.+XfXvXhXeXA.q.v d i , - = @ + + X X X X o o                                         ",
"                          o o . . X X X + + + @ + @ % : - > , i v m l.|.OXyXBXVXhX|.=X*X=X.XpXR.`.).o.`.$X^.[.,.o.h.(.E $.$.#.&.u.#._ #.%.%.i.N.].,XB.$.#.X.R R D Q *.#.#.$.$.$.X.#.>.<.&.;.$.G $.<.j.j.%.I I %.&.X.Q E R I P I #.n.&.R R _ %.M.) [ | | T r r z z z U Y ! ! ! S | ! r 8 q T | 5.I ! ! W ] _ W R R W *.4.;.;.=.~ S S T T T | ! w ! D S *.Q X.h.m.].%.%.#.n.M.].g.&.R Q #.W i.N._ Z -.g.&.s.[.-X-X-X$Xf.f.;X-XY.U.=XhXvXaXOXA.q.B s u > = = @ + X X X X X o o                                         ",
"                              . o o X X + + + + + # # $ = - > u d m l.S.|.yXvXVXVXwX=X.X=X~.iX%Xh.1...>.W./.^.s.,.`.3X1.(.>.a.3XN.&._ #.&.#.Q Q Q #.*.*.n.n.#.R D E #.#.#.>.1.h.>.E E X.$.=.$.X.R R W %.%.I I g.#.E G E ~ ~ Y I -.n.%.Q #.%._ W 4.5.5.} P r z T | { { ! I ! ! Y { | ( e q I *.~ I I I ] b.[ I I W R Q *.#.=.;.*.! I D T I S D Z 5.R R ;.E &.>.(.V.Q &.&.#.#.].g.k.%.#.#.#._.].Q D N.`.a.s./.^.~.XX$XU.U.%X XU. XuXjXhXeXD.r.q.V s a , ; = @ + X X X X X o o o o                                     ",
"                            o . o . . X X O O O + + + + @ = > , s v q.p.|.yXjXjXVXhX=X=X*X*X+XiXa.E E >.Y.Y.K.K.s.s.P.h.`.$.X.'.N.g.&.;.g.;._ R R R R Q ;.n.-.Q #.=.=.$.X.o.:.,.:...E o.$.$.>X4X%.#.) u.!.d._ _ $.X.E E *.~ I S _ -._ %.M.M.&._ F.5.I w w r P Y [ -.b.b.I R ] { P { | Y I ~ O.R S S S ] F.v._ _ R I R Q X.=.;.*.*.Q D R Z 9 D R Q ~ ;.B.X.>.$.(.a.&.&.Q g.#.&.&._.k.a.a.f.$X'.a.&.f.P.K.L.Y.Y.~.XX;XXXQ.U.a.~.iXvXhXyXOXS.e.n M h a 2 > : = @ + O O X X o o o o                                     ",
"                              . o   . . X . X X X X X + + $ - > a b ( y.|.wXyXdXjXjXrX=X=X=X.XiXg.Q &.&.f.Y.f.^.$X[.`.[.[.Q.a.'.h.g.&.&.$.&.#._ #.W W #.-.;.-.Q X.E E $.<.1.(.).1.1.o.o.=...=.1XAX2Xd.!.xX3Xd.d.<.$.X.O.*.Q I S U / ' v.C.M.&.;.F.5.R S S Y ) ) W Q ;.B.R _ _ Y Y { b.b.*.*.=.=.D S S ! 4.v.*.*.D R #.;.#.#.X.E X.X.E Q D Z O.O.R B.n.<Xh.I.,.P.&.j.&.Q ).<.#.f.f.Y.U.R.$XXXY.^.f.f.K./.^.Y.L.*X;X-XU.T.z.f.=XzXhXyXwXS.r.q.v d s a , ; - = @ + O X X X o o                                         ",
"                              . o   . . X . . o X X X + $ = : ; , h m w.l.l.S.wXyXvXsX XzXpX=XlXk.&.(.Q #.^.U.XXK.^.W.s.>.'.a.a.h.h.&.E G E #.#.%._ ;.].,XB.g.$.=.E ..2.).).).).).1.....6.O.A ~ 4XM.j.xXDX4X%.d.&.$.=.=.=.] ! { P / ' i.-.W D Q n.n.5.-.[ p.v.M.*.I D *.R -.-.Y Y Y { | Q A G +.R ! I Z I ] R S R Q n.B.=.E D Z G X.X.X.H G ;.X.R ,XQ ,Xg.&.#.E &.a.a.#.k.&.h.`.>.K.U.^.$Xf.>.^.Q.XX$X$XoXY.Y.-X7XXX&.f.U.R.pXsXaXOXS.r.N B v i u , ; - = $ @ + X X X . o                                           ",
"                                o o . . . . . . o X + + @ $ = ; 3 p v n ( ` p.c.+XsXcXrX.XpXlXz.&.i.N.$.R s.$XJ.K.$XW.a.#.$.n.=.#.k.a.Q Q #.#.g.#.&.g.g.m.m.>.$.1.1.2.o.o.:.2.$.B.$.E E *.~ ^ D } 4.*.y.xXc.W d.&.X.H =.R ~ ) ' &.j.2Xj.Q R I -.-.W ) _ ) ' p.p._ W I D _ v.) ) Y P U _ _ R E =.O.R ~ S r Y r I ^ 5.5.^ R ! I w Q A 4.6.H E X.Q N._ ) [ [ ) Y I R h.&.&.E.k.E.[.Q.f.^.SXlX~.Y.R.R.}.XXXXXX$XoX*XoXY.Y.R. XrXsXaXS.r.q.B v g p 2 > ; = = @ @ + + X . . . .                                           ",
"                                o o . . . . . . o X + + @ $ = - ; 2 s c m / w.d.z.@XzXcXpX;X Xa.%.#.;.&.X.s.W.L.Y.$XK.$.$.n.F.5.Q >.;.#.#.%._ W Q $.m.m.>.:.,.).:.o.....o.:.2.$.m.X.G G R ] *.| F.5.I W #X#X#X!.a.&.X.5.R R S S u.E.3X&._ g.n.B.v.' I %.) p.y.j._ _ _ I Q -.) [ P P ) b.B.<.<.6.>X*.] { { T ! F.D ~ ~ G R ! I w D A =.$.X.P.).h.-.-.t.{ P U T P R &.&._.7X3X!.E.'.XX$XxX$X$X-X~.U.R.}.XX$X$XoX*X~.Y.Y. X=XsXuXwXr.q.v g s p 2 > : : = $ @ + + + . X . . .                                           ",
"                                  o     . .   . o X + + @ @ $ = ; > 5 f k U ` ' y.c.rXcXcX+XU.Q.$.Q X.&.>.>.J./.L.$X>.Q X.#.#.Q Q #.&.&.g.N.g.Q #.&.m.(.h.$.,.`.1.1.2.:.o.o.o.$.2.X.Q R R Q ~ R G G Q %._ x.#Xf.a.$...=.*.4.' ) _ u.M.%.%.C.B.i.W I W u.y.j.d.d.u.-.%.W Q -.Q [ P P Y _ i.m.).m.H X.~ _ W Y { I 9 C A G O.5.5.| D ^ =.E o.<X].n._ [ | ( P T / P _ &.&.'.6X'.f.f.'.$XQ.R.s.XX6XY.Y.R.XXXX}.Q.XXoX~.~.~..XsXcXyXS.e.n d i u , > ; = % @ + + + O X . o . . .                                           ",
"                                          .     o X + + + @ @ $ = - < 5 d x ( / w.p.|.aXcXrXR.}.&.X.X.<.(.,.J.$XK.$XY.s.a.Q #.g.&.#.%.&.&.N.).&.i.#.#.m.(.<.$.,.:.>.<.<.m.).(.h.<.<.m.g.#.#.;.Q 9 A Q &.Z W &.#.h.<.2.=.E Q _ ) ) ) ' %.v.n.v.v.D D g.%.'.x.$X!.C.M.&.Q *.n.-.-.[ ) Y I #.m.m.:.2.6.R D S Y b.*.R G E O.5.5.| } I 3.*.G o.).<.#.-.I P ! ! Y Y Y Q a.h._.`.&.>.f.'.U.>.a.a.U.$XY.XXXX X XT.U.U.Y. X.X.X=XhXsXOXl.q.v s i , > - : @ # + + O X X X . . . .                                             ",
"                                        . . o o o X O + O + + @ @ = < 5 6 k x ( ( w.l.wXcXsX}.a.&.#.X.>.).I.`.5XI.^.W.W.s.Q &.<X_.d.g.&.Q &.g.%.%.R W <.(.g.$.X.$.>.$.$.(.<X).#.$.&.(._.$.#.<.$.O.O.R Q I _ Q X.$.).<X).X.R %.j.p.` U / [ v.F.,X-.&.(.#.$X6XAX6X_.N.j.#.&.g.;.B.C.M.%._ i._.I.o.1.o.R n.N.W _ *.=.+.=.5.*.! I R Z } 3.E 2.6.E Q W Z r T Y Y ! W D >.k._.h.&.a.f.E.s.$.a.U.R.$XQ.W.Y.Y.R.U.z.f.Y.oX=X=XuXcXrXl.w.n g i 5 > - @ @ + + # X X . . . .   .                                               ",
"                                        . .   o . X O O X O + + @ * - < 5 6 k m b q.r.S.aXcXtXT.u.#.#.>.K.P.[.-X[.W.s.a.#.R &.k._._._.h.#.#.%.#.%.&.;.g.g.&.X.E E <.m.<.#.$.#.E E X.<X7Xh.#.#.E =.=.X.n.).j.Q Q ..:.,X).(.k.].C.U / U z Y -.G.n.g.g.>.s.W.xX7XW.&.g.N.&.#.#.#.N.2X,Xi._ %.m.P.:.).2.G Q Q R #.g.#.X.X.X.Q R I I Z ^ } ~ =.X.A Q D I { Y I ! 5.*.#.g.<.>.&.&.f.a.a.s.>.>.Q.$X6XQ.s.s.s.U.R.R.R.~..X=XuXhXhXOXl.q.c s u , > = @ @ # X o o . . . .                                                     ",
"                                                . . X X X X X + @ * - < < 5 f c v B q.r.OXsXcXpXT.&.a.Q.~.Y.^.[.$X[.P.s.Q _ x.a.a.E._.k.g.%.%.%.%.C.].g.#.X.X.E C Q n.g.Q D Q g.#.&.7XAX[.$.:.X.X.X.n.].,Xg.;.$...o.I.>.k.k.z.) P / U Y ) _ -.I Q &.$.`.I.5XY.#.Q %.g.&.$.&._ u.2X,Xj._ R $.h.).o.1.(.$.#.h.;.Q m.1.=.X.E R D Z T ! *.~ X.Q D Q W _ [ { I ] 4.;.N.g.$.>.>.&.f.&.&.f.s.$.Q.$X6XY.K.s.K. X$XoXQ.R.+XrXuXsXwXS.r.n s u , > - = @ # X . o o o o . .                                                     ",
"                                                . . X X X X X O @ * - < , j j h c c N r.l.OXzXzXiXT.}.iX=X X*XoXK.W.[.s.R &.$Xa.&.f.k.a.g.%.Q %.W M.N._ R #.&.Q *.Q Q 4.*.R R -.&.#.<X7X,.X.s.I.(.Q #.R Q #.,X,X..1.<XP.a.&.x.d.M.v.) i.v._ #.Q W #.h.(.h.>.>.$.%.&.a.>.k.(.#._ V.].].i.#.#.h.`.:.,.(.$.X.a.$.<.<.<.$.X.#.5.;.] | | 4.*.X.#.X.*.;.W I _ Q Q #.#.;.&.<.,X].h.k.a.f.P.a.$.Q.Q.$XY.^.Y.^.-X6XoXR.U.=XuXhXwXl.r.t.v p 2 > - = @ O + X . o o . . .                                                       ",
"                                                . . . . . . . X O = - ; , j j j j s g B e.A.&XiXbXpXsXsXrX.X.X X-X-XW.>.&.h.3X3XU.U.d.&.a._.j.W %.u.g.%.X.g.N.&.4.5.*.4.5.Q I Q #.n.,Xh...$.{.{.h.>.g.&.R #.).>X$...o.:.`.'.u.%.g.k.N.N.N.n.;.%.&.g.j.g.g.j.g.#.&.x.E.a.&.#.#.&.V.j.d.%._ X.&.h.h.$.$.<.>.h.m.h.(.N.;.#.*.;.5.5.] ] W _ &.&.$.g._ W i.i.%.g.&.$.$.&.<.g.a.>.a.h.s.&.>.U.Q.Q.XX;XY.~.-XlX6X}.T.}.sXuXrX|.l.q.n d a 2 > = = @ + X X . . .                                                             ",
"                                                . . . . . . . . X @ = : 4 j j j 2 < u g m q.l.OXcXuXuXyXrX=X=X.X;X-XW.s.>.a._.!.Q.U.T.f.&.'.4Xu.W #.u.g.g.N.(.g.4.n.5.*.] ~ R R R #.).).,.I.{.I.s.a.N.N.*.#.$.X.h.P.[.[.3X$Xd.u.E.`.`.h.#.Q &._.].g.#.W _ u.%._ %.k.a.$.$.&.>.k.u.%.) Y W Q #.$.;.$.$.&.>.P.(.a.N.g.%.Q Q Q X._ 4._ I R &.h.a.g.u.i.,XC.&.g.k.`.m.m.<.#.#.&.h.f.>.f.Y.Y.f.a.s.K.oXoX$XXXT.T.+XuXhXuXOXl.e.B c p 2 3 ; = $ + + X . . . .                                                             ",
"                                                    . . . . . . X + $ ; 4 4 4 3 - - > i c m e.l.wXfXfXuXuXuXrXrX:X-XW.P.>.$.a.a.f.s.$X$Xf.$X3X_ &.&.g.k.g.g.a.#.4.B.5.~ ! ] ] R Q Q n.).`.`.`.I.s.a.a.;.#.#.&.$.:.s.W.P.'.'.u.%.>.s.I.W.h.&.$.&.].N.&._ _ ' p.M.M._.k.&.a.P.`.].j.y._ _ %.i.<.&.-.#.#.$.&.h.h.&.;.%._ W I R X.*.-._ D D #.h.g.g.C.M.C.%.#.h.s.h.m.g.#.Q Q #.a.k.E.'.^.U.s.s.f.f..X*X%XXX}.+XuXjXjXaXS.w.n c s u 3 ; = $ + + X X . . . .                                                             ",
"                                                    . . . . . . X + @ - 4 3 ; = - - > a d b N e.S.yXjXjXgXuXtXtX=XoXW.E.h.#.>.s.K.U.:XxX6X6X$X&.a.&.a.k.g.k.N.h.Q Q R S Z I W I v.;.;.h.h.I.{.[.K.a.&.%.%.i.N.].>.>.>.&.f.!.%.Q >.:.,.s.s.>.>.h.k.k.j.V.p.y.j.2Xj.j.a.#.>.k.k.k.%.' _ ' i.M.;.Q W Y _ &.&.<.g.u.%.%.' ) W Q =.n.-.i.#.Q #.a.d.k.u.y.i.Q R a.I.s.&.Q Q X.X.Q &.E.'.Q.Y.Y.Q.XXoX X X.X;X;XiXsXhXhXsXeXl.m c s u 3 ; = $ @ + + X . . . . .                                                             ",
"                                              .       . . . . . X + + = ; : = @ = = ; 2 i d v N r.wXhXvXBXfXrXrX X XW.[.`.>.f.U.Y.~.oX:XxX6X$X#XP.a.h.k.h.P._.m.&.Q R I S D W W 4.-.&.&.>.>.,.W.P.x.k.N.M.g.N.].f.s.s.&.a.k.) R E o.s.I.s.$.a._.'.x.x.2X4X#XV.x.j.C.N.h._.`.k.g.W ) ) ' -.v.-._ P r W v.;.&.g.C.j.p.p.' _ Q X.=.n.C.j.&.d.k.j.j.i.C.2Xi.R #.,.P.X.#.$.#.#.&.s.E.f.f.Y.$X;X-XXX X X.X+XrXuXjXjXuXwXD.r.m d u 3 ; = $ @ + + + X X . . . .                                                             ",
"                                              .         . . . . o o O @ : = @ @ @ = - > 2 p g v r.S.eXvXBXjXtX+XT.R.Y.[.`.a.f.K.Y.~.L.~.6X$Xf.T.E.f.k.f.a.a.h.$.N.&.;.*.I W v.v.W _ #.>.s.>.:.s.U.E.k.j.j.u.g.!.a.U.^.Q.E.j._ %.X.:.h.(.P.h.s.f.#.Q _ d.E.d.&.%._ %.%.&.h.k.&.Q _ ' ' ) _ -.v.b.( U { b.;.#.&.i.' ` ` ) W Q Q X.n.i.#.&.k.k.&._ -.i.F.-.R $.,.h.$.(.(.$.$._.'.f.U.U.^.XXXXR.R. X~..X=XuXjXjXfXwXS.l.t.M s 2 ; : $ @ + + O O . . o o o                                                               ",
"                                              .           . .   o   . @ @ @ @ @ @ * = - > u s c e.A.eXaXjXvXhXrX.XoXL.E.P.>.s.s.~.~.~.oX;X$XK.a.#.&.a.>.&.h.P.a.a.%.i.#.I _ C.C.W _ #.>.`.W.s.s.W.x.%._ %.%.u.#Xf.R.%X$X$XV.i.,X,X(.g.&.a._.`.P.$.&.f.Q.$X$XR.x.%.u.%.#.g.m.g.&.y.p.[ Y I W ] [ ( ( | [ _ *.%.) U U U Y ) *.=.4.;.#.Q #.h.h.%.#.W S I R *.).).).h.).N.>.h.`.E.&.Q.Q.Q.Y.U.Y. XoX~.+XtXgXgXgXyXOXl.w.m c p 3 = $ @ # + # # X . o o o                                                                 ",
"                                              .           . .   o o . O O O O + + @ * = ; 2 p s n r.D.eXyXjXBXhXsX=XU.s.a.>.P.f.~.~.oXoXXX-X$Xf.a.s.f.&.#.a.(.a.&.&.N.u.W M.4X4Xu.u._ &.$X5X'.W.'.E.%._ u.u.u.'.T.z.R.T.x.u._ M.g.].,X_.N._._.a.f.a.a.Q.6X6XQ.&.#.%.Q Q #.g.;.&.C.C.M.' W ) _ ) r z Y Y W v.v.W Y Y U ) -.B.>X>X&.&.#.>.m.k.k.].C.;.v.;.*.g.>.>.m.&.$.h._.k.&.Q f.T.U.K.R.*X*X~.oX=XuXfXgXyXwXOXl.q.k s u > $ % # # # X X X o                                                                       ",
"                                                                  o . . . X X . + @ @ = - > a p n q.A.S.eXwXjXBXyXrX+Xz.&.U.[.s.Y.~.oX-X;X$X}.$X'.f.h.h.&.E Q n.&.u._ u.W i.DX9Xj.i.i.j.V.V.k.x.d.d.d.u.%._ a.!.Q.Q.U.d.u.%.%.%.g.&.Q _ ;.#.Q u.g.#.a.f.XX6XQ.L.a.&.<.#.<.(.g.g.g.M.M._ Q &.&.*.D ~ W R %.&.Q W 5.] I W ] -.v.M.g.&.&.h.(.`.h.X.Q g.N._.k.&.a.&.>.X.$.$.h.#.&.h._.f.f.R..X*X=X=X.XtXsXuXyXwXOXA.e.B g u > ; = @ + X X . . . . .                                                                     ",
"                                                                . . . . . . . X # + @ * = > 3 p c N e.A.S.OXyXjXBXyXOX@X%XT.f.W.L.Y.Y.}.%X$XT.f.%.>.>.&.&.;.*.W %.u.j.V.W S N.g.u.&.u.u.u.%.%.u.u.u.d.x.d.a.d.z.f.z.!.!.x.d.j.j.&.u.%.;.B.v.%.j.j.d.E.U.Q.$XQ.f.&.$.<.&.&.g.&.g.i.&.i.%.#.#.%.n.5.=.Q Q &.%.#.B.*.! D S P Y _ %.V._ Q >.h.>.h.P.>.`.'.[.E.>.a.#.$.s.h.&.h._.].k.!.$XQ.d.U.*X=X XtXuXsXrXOXS.A.r.N V s 2 > : = @ + X X . . . . .                                                                     ",
"                                                                  o   . . . . X # O @ @ = ; 3 u d n q.e.r.S.wXyXvXhXrXrX=XoXU.K.Y.^.~.U.Q.R.u.Q #.a.a.&.<.g.;.W _ %.g.M.%._ %._ ;.#._ %.%._ _ #.%.&.j.V.!.x.d.d.d.d.d.u.%.%.&.g.%.&._ R R W Q &.j.!.E.U.T.Q.W.a.g.%.i.&.&.&.#.%.&.W W _ %.%.C.4XB.B.4.;.M.i.%.;.5.5.~ P S W y.p.V.#.#.k.P.>.s.`.s.`.'.[.P.>.a.#.#.h.h.a.k.5X5XQ.}.$X.XT.T..X=XtXhXsXtX@XS.l.e.q.B g p , ; : % + X X . . .   . .                                                                     ",
"                                                                      . . . . . X + + @ = ; > u s b B q.e.A.S.wXyXvXcXrX+X+X}.U.U.~.R.Y.XX$XT.U.'.`.E.k.a.&.&.u.Q _ u._ %.C.u.g.N.#.Q #.u.u.&.&.%.%.u.x.x.x.d.u.V.k.g.&.#.#.%.i.%.i._ I I R #.g.k._.a.a.a.&.P.g.M._ ' %.i.j.%.&.%.R S W ) Y ) b.B.F.n.#.%.i.#.D W *.5.~ W _ y.%.#.#.g.k.h.s.s.s.s.K.s.P.(.k.N.a.a.g.&.x.E.$X$XoXR..X=X+X X+XsXcXcXsXwXOXS.e.N v g p 2 > ; = $ + X . . . .                                                                           ",
"                                                                          . . . X + @ @ = - > 2 i f c n B e.A.S.wXsXcXhXsX+X}..XY.K.s.K.XXXXQ.XX$X$X$X'.a.#.&.j._ _ M.%._ _ I i.C.g.%.&.g.h.h.g.#.&.u.j.g.u.%.%.u.u.&.i.n.v.;._ Y _ 4.4.*.;.m.N.$X!.#.&.&.Q &.%.) U ) ' i.j.u.V.Q %._ y.` z U P 5.;.Q I R _ _ D Z ~ 4.5.-.%.%.W #.$.g.N.>.>.K.W.>.>.$.f._._.].g.V.g.%.!.T.oX X=X}.rXtX+X@XsXcXsXaXwX|.S.r.m c d i u > ; : $ @ + X . .                                                                               ",
"                                                                          . . . X + + @ = = ; > , i h c v q.r.A.S.OXaXcXcXyX@X+X*XY.>.f.XXXXY.Y.f.$X3X!.a.u.u.u.j._ p.C.M._ S %.j.k.k.g.a.a.a.a.Q &.g.g.u.%._ W -._ Q Q _ ] ~ ! Y ) -.4._ *.m.(.3XW.&.&.&.Q _ ) U U ) ) W _ %.V.k.3X,XC.) e ( ( ] S I -.-._ Q Q W ] *._ _ %.%.%.g.#.h.<Xk.X.$.L.$.&.#.a.P.h.g.%.%.u.%.d.T.+X=X=X=XrXrXrXsXcXsXeXeXD.A.r.q.c f i 5 > - = $ $ + + X . . .                                                                             ",
"                                                                        . . . . . X + + @ = = ; < 5 p h c B e.r.l.A.OXwXsXhXuX+X=X.XR.R.*X-X-X-XU.'.#XE.d.a.a.a.C.%.%.M.].C.u.u.&.j.k.h.h.k.f.&._ &.i.i.%.-.*._ v.5.~ I D R ~ *.b.{ [ -.R Q g.P.W.P.E.s.h.g._ I ( / { I I Q #.a.4X7XC.i.P 8 e 0 S w _ ,XC._ W Q -._ W R W _ u.u.;.Q ;.`.a.E #.K.f.f.&.a.&.#.&.%.W %.u.a.R.=XtXtXtXrXrXhXcXaX@X&XS.A.r.q.b d i 5 < ; = $ + + + X X X . .                                                                             ",
"                                                                          . . . . X + + @ $ = - ; < a p h c B q.r.e.l.OXeXhXvXhX+X=X=X~.L.L.Y.Q.6X'.k.x.x.u.h.].N.].C.%._ M.].j.#.&.&.&._.3X`.#.%.&.&.-.-.-.4.-.! ! ! I D D ^ ] Y r Y ] R G #.>.#.a.[.k.V.,X-.I [ / Y S R <.>.>.(.N.Q -.b.P T 8 r S v.1Xv.W W R ;.-.i.N.].].k.j.g.;.g.g.&.a.$XlX%X$Xf.a.#.Q &.j.u.u.E.U..X=XtXtXrXuXhXhXaXOXS.l.e.e.q.n d f 5 < - = @ + + X X X X X . .                                                                             ",
"                                                                          . . . . . X + + @ @ @ : > > 2 a s g c n N w.l.S.eXaXcXcXiX+X=X*XY.K.Y.$X$X!.x.V.j.a.g.g.M.].C.&.Q #.j.k.u.k.a.&.k._.3XN.g.i.i.-.I I ! S S ! ^ Z Z ^ *.P q P I W *.X.&.E P.[.k.g.v.] I [ { Y -.).<.X.>.X.Q Z Q 5.| b.| ,XB.-._ _ W _ _ ;.M.]._.V.k.k.k.;.i.N.k.&.f.%X;X%X;X$XU.z.!.'.].3X$X$XoX.X.X=X=XsXsXsXrXOXS.l.w.N v c g s u < 1 @ # + + X . . . X X . . o                                                                           ",
"                                                                            . . . X X X + + @ @ = ; ; 3 2 a p s d c n q.r.A.&XeXcXcXpX.X~. X~.L.R.T.d.d.x.N.g.N.#.u.k.j.%._ g.3X2Xa.k.E.&.Q E a.u.N.g._ Y ) ! I w S I ! I ^ *.*.{ S I S D *.#.$.#.s.f.&.Q Q *.F.b.) S _ ].N.X.E m.<.G R R P { ! Y Y W ) _ W Q _ i.j.k.d.a.u.&.#.u.g.k.a.&.f.XX$X;X;X}.f.d.T.$X%Xz.Q.oX*X=X=X=XtXsXsXrXOXS.l.w.m b g s p u , 1 : # # # + . . . . X X . o                                                                             ",
"                                                                              . . . X X + + + + $ = = ; > 2 2 u i s c v N q.r.A.&XiXzXlX;X XY.U.z.c.u.p.x.N.a.&.#.%.&.u.%.#.k.2XV.g._.j.#.#.#.a.k.).g.W I W Y r S S I R ! *.4.*.] P I S I v.C.].#.#.#.a.N.;.~ *._ *._ &.N.m.$.$.m.m.X.Q I S P S ) W Y I P I _ ;.%.%.u.a.d.f.k.d.j.V.k.a.f.U.R.oX%XoX}.U.z.}.XXXXT.R.oX=X=XpXpXsXiX@X|.l.r.e.N c s p u , > ; : = # # # X . . . . . . o o                                                                             ",
"                                                                                . . o X X + # + @ $ $ = = - - > , u i d c v B N q.l.%XxXlX;X~.U.z.c.c.c.!.].h.>.&.#.Q #.>.h.k.k.g.V.4X3X_.,X].].<Xj.#._ W P P I P S S w w Q ;.*.Q P I I S W %.i.u.%._ &.N.n.#.X._ g.V.N.;.&.;.n.n.n.;._ W I ! W C.p.) I S I -.M.g.j.k.f.f.E.E.E.x.].E.k.Q.Q.Q.%XoXoX X}.}.+X+X.X=X.X.X=XpXpXiXiX|.S.l.w.q.N v g u 2 > - = = @ @ # # X . . . . . o o                                                                                 ",
"                                                                                  . . . X X X + + @ @ @ @ * = = - < , u i s s c m w.c.T.-XxXlX XT.|.c.c.|.#XW.P.a.$.X.#.a.k._.'.j.&.,X4X,Xj.&.j._.%.W #.' I P { | [ [ W W n.,X].Q R Q -.W I ) %.W y.j.j.N.<.$.$.(.V.N.i.u.i.-.W ) W W R D I W _ p.' ) W ) ] 4.v.j.k.x.z.f.U.W.`.E.#X!.z.XXQ.R.$XoX.X.X.X+X=XrX@XrXrX=XtXiX%X&XS.l.e.q.B v b g s 2 > ; = $ @ + + + X X . . o o o                                                                                     ",
"                                                                                      . . X . X + + + + @ @ @ @ = = - > , 2 u i k ( w.j.'.;XpXiX+X@X|.c.z.R.Y.Y.W.P.f.a.>.s.'.3Xh.#.u.%.W _ %.j.g.&.#._ _ W I P r P Y Y I #.g.a._ #.i.F.b.) b.b.P ' y.&.h.m.<.$.P.a.u.%.' i.[ P ) { b.b.b.v.*.i.) Y P U W ] [ -.u.d.f.f.z.E.'.Q.z.!.T.T.T.z.f.R. X X.X=XrXuXrX@XrXuXsXsXwXS.l.r.q.N v g s u u 2 > ; = = @ + + X X X .   o o . .                                                                                     ",
"                                                                                        . . . X # O O O # + + + $ $ = = ; > > , 5 k ( C.k.s.R.:XiXsXaXOX|.}.Y.Y.^.$X[.P.>.&.k.'.k.g.u.I S p.C.C.u.d.j.u.i.p.{ P P P ) ' _ %.u.&.a.N.n.v._ Y [ U b.' P w Q h.(.P.&.%.%.' / ` b.t.x 0 U { -.-.W %.p.` Y P P Y _ i.].!.z.f.z.U.f.a.z.T.XXXXU.d.z.T.R. X=XsXhXhXuXrXuXuXuXwX|.l.e.q.v g s p u > ; ; = = @ @ + + X X . . .       . .                                                                                     ",
"                                                                                        . . . . X . X X # # # + + + + @ = = = - 5 6 k x ) p.c.c.aXcXcXaXiX+X.X X~.$X^.Y.s.a.a.a.h.#.&.%._ _ W _ %.a.x.C.C.C.M.-.p.[ i.j.u.%.&.%.&.V.i._ ) [ Z./ w.w.W I Q $.,.s.&.#.%.%./ ` b.t.t.e l U ) i.i.3XM.p.%._ W W %.j.x.d.u.a.U.Q.U.a.U.T.$X%XT.z.}.}.@X=XrXhXvXvXjXhXhXyXOXS.l.e.N b g p u 2 4 ; - = @ @ + + + + X . . . .       . .                                                                                     ",
"                                                                                            . . . . o . X X X X X + + + @ $ $ $ ; - < 5 i f b q.D.eXcXvXvXfXuXrXpX6X$XXX^.U.a.#.&.a.a.a.u.%.W P P y.V.j.u.d.c.z.d.u.u.g.i.-._ _ ' %.%.' y.i.' I ) W W W Q Q #.$.L.Y.T.a._ / ` t.( / ` ` ) i.]._.h.P.f.&.a.E.!.x.d._ _ d.c.c.u.d.$X%X%X$X}.T.}.+XOXrXhXhXjXhXhXuXaXeXS.r.q.B c s u 2 3 ; ; = = @ + + O O O X . . . . o                                                                                               ",
"                                                                                            . . o o o o . . . . X X + + + + % $ $ @ = ; > 2 s B e.A.eXaXhXjXfXfX+X+X+XoX X XR.R.f.d.a.a.x.].x.u.' %.u.d.c.!.|.XXz.f.d.u.&.;.i.i.%.y.y.' _ %.y.' -.i.%.W Q &._.$X$X$X^.E.u.' Y z / ` [ ) Y _ a.h.s.K.E.W.Q.T.d._ #.%.d.c.d.y.c.$X$X$XXX}.}. X@XrX@XyXuXfXuXuXrXwXD.A.r.q.v g p u 2 3 ; - = = @ @ O + X X X X o o . .                                                                                                 ",
"                                                                                                        o . . . . . . X + + + + @ @ = ; > , i g B q.r.D.aXhXjXjXhXrX+X.X+X+X.X}.R.U.f.a.k.).M.&.i.%.%.d.E.!.Q.XXf.U.U.a.u.g.M.x.3X%X#Xd.' _ ' %.C.N.u.#.u._.`.>.L.L.f.k.V.C.w.Y / { ) Y ) _ _ %.,X].V.!.!.!.c.d.E.E.!.!.T.T.XX;XoXR.R.R..X=XpXsXsXhXhXuXyXwXOXS.r.w.q.n c s u , ; - = $ @ @ @ O O X X X . o o o o                                                                                                   ",
"                                                                                                              . o o . . X X + + @ @ = : ; > u s g b N r.S.eXaXaXhXjXhXuX@X|..X+X;X;X;X$X'._.h.g.&.a.k.E.P.f.f.K.s.U.Q.f.f.E.!.!.%X6X$XU.u.d.x.V.%.%.#.&._.3XE.$.K.s.a.&.i.i.' Y Y / z P b.b.) ) G.b.y.p.p.c.!.#X4X3X'.E.R. XoX.XoX X X.X=XpXzXzXhXhXaXaXwXOXS.l.q.N v c s i , > - = @ @ + O O O . . . o o       o                                                                                                   ",
"                                                                                                                . . . . . X X X + + @ % = - > , p g v B q.r.A.S.OXyXvXvXhXrXwXrX+X=X*XXXT.f.s.s.s.!.'.W.U.Y.Y.K.s.U.R.U.U.}.$X}.$X$XQ.d.u.z.#X3Xu.u.a.j.k.E.!.'.k.k.g.&.%.%._ ) Y Y z U b.b.U U  .{ t.b.p.p.j.#XV.'.'.f.>.a.Y..X=X=X=X=XiXiXpXaX@X@XOXOXS.D.l.w.N v d i 5 , < - = * @ + O O . o o o             o                                                                                                   ",
"                                                                                                                  . o . . . X X X + + @ @ * - - , i s c v n q.e.A.S.OXaXvXvXhXyXtXtX=X.XoX$XXX^.XX$X^.Y.^.-X-X/.L.Y.U.K.Y. XoXoX%X$XU.%._ u.x.V.,XC.j.j.k.j.k.V.%.v.v.v.v.v.v.v.) { {  .|  .l x l x  .t.` / ` y.%.u.d.a.&.>.Y.=XrXrXiXrX@X@XOXOXS.S.A.l.l.r.q.N n c s 5 , < - = = % @ O O O . o o o                                                                                                                 ",
"                                                                                                                      . . . . . X + + + + @ = - - > u i s d c v N e.A.S.S.eXaXvXsXsXrX+X.X.X XR.*XoX~.Y.Y.XX$X^.Y.L.f.U.~.oXoXR.T.T.c.%.' u.M.C.C.i.' ' j.C.M.-.b.b.5.-.v.v.-._ ) Y ( ( l 0 0 k 6 0 k k 0 l U ` y._ _ u.z.T.}.oX@X@XOX|.S.c.l.l.l.r.e.e.q.B n b h j a , < ; : * @ # + # # O . o o o                                                                                                                 ",
"                                                                                                                        o o o . . X X X O + @ $ : - - > , u i i c v n q.r.D.eXaXcXvXcXsXrX+X+X.X.XoX XR.f.a.s.U.W.f.f.R.$XoXR.z.d.c.c.d.y.y.p.b.G.G.t.P P ) ' / |  .U Y [ b.-.) Y q 0 0 7 6 6 7 k k k l x ( Z.H.w.Y Y y.C.C.D.|.&XS.l.l.w.w.q.q.N n v v b g f j a u , > > : = @ + + # X X X . . o o                                                                                                                 ",
"                                                                                                                        . . . . . . . X + + + + @ @ = = - > > , p s d c B r.A.OXeXeXaXsXsXsXrX+X}..X}.z.f.z.U.f.!.d.a.x.Q.Q.U.d.%.' ' ` ` ` { ( | |  .( e e z l e 0 e r I Y Y P z r e 0 6 7 5 6 6 k x x ( w.t.w.( ( U ( w.Z.Z.Z.r.r.w.q.m n b b g s s p p u u 2 > > > : : = $ % + + + X X X o o o                                                                                                                   ",
"                                                                                                                          . . . . . . . X X X + + + @ $ = = ; > , u i s c B e.r.r.A.S.OXeXeXeX@X@X@X@X|.c.c.x.c.d.%._ %.d.E.z.c.' w.' / U x x l x x x l 0 0 l 0 0 0 l { b.Z.b.b./ x l k 6 5 5 5 6 k k x m q.q.m t.t.( m m m n B B B n v b g s s p u 2 2 3 > ; ; ; ; ; = = $ $ + + + X X X . o                                                                                                                       ",
"                                                                                                                          o o .   o . . X X X X X X + + @ $ = = - > u p s g v v n q.e.r.A.A.A.A.S.S.D.S.S.D.D.C.p.w.) ) y.u.u.y.' w.` U x l x x 0 0 0 0 6 6 0 6 7 6 0 x ( w.w.w.U x k 6 6 5 5 5 6 k m m q.q.q.n B M M b d s s p s s s p a u 2 , > 3 ; ; - = = $ = = $ $ $ + + + + X X X . . o                                                                                                                       ",
"                                                                                                                              o         . . . X o X X X + + @ $ = ; 3 2 u p s d c v n B n n B q.q.w.r.r.l.Z.H.H.w.w.` w.' ` ) / ) ` / U l l l l x k 0 0 0 k M k k k k x x ( ` w.( x k k c d h h b M M B B q.B n c d f f a a 2 2 2 2 2 4 4 < < ; ; ; - = $ $ % % % $ + + + + + + X X X . . . .                                                                                                                       ",
"                                                                                                                                        . . . . . . . X X + + + $ = ; > > 2 u u p s f f f f h b b n N N q.q.q.q.t.H.H.H.H.H.2X2Xc.c.Z.w.w.w.q.( x 0 6 6 6 k m k k k k k k m ( q.w.q.n V V V V V M M M b c c c d s p u 2 3 3 ; = - ; ; ; 1 : : : = = $ $ $ @ # # + + + + + + X X X X . . . .                                                                                                                         ",
"                                                                                                                                            .   o o o . X X + + $ $ = = = - < > > , , , , 2 a a s d c c c c b v B e.t.r.r.Z.H.2X%X%X%X&X2X2X2XH.t.q.m m q.t.qXH.e.t.e.t.t.Z.Z.Z.t.q.q.V V V M h h j p p i s s i p u < > ; ; $ $ $ $ $ $ % % % % $ $ + + + + # # + + O O O X X X . . . .   o                                                                                                                         ",
"                                                                                                                                o o         o   . . . . . X X O + @ % % @ * * = - - - - ; ; ; > 5 5 i i i s d c v B N m ( q.l.l.S.|.|.S.c.D.H.H.t.q.( m q.t.H.H.e.e.e.e.t.t.q.q.m n b b c d i i u 2 , , 2 u u i < > - - - = $ $ + + + + + + # # + + + + O O O O # O O X X X o o . . . . o o o                                                                                                                       ",
"                                                                                                                                o o o           . . . . . . . X o X + + + + @ @ @ @ @ = - ; ; : 1 < , , , u u p s g c c b N q.q.l.A.A.w.q.w.e.q.N m c c c B q.B B B B B B B n c c d s s s i i u 4 4 > > > > > > < - ; = $ % $ $ + + + + + + + + + + O O O O O O # X X . o o     . . .   o o o                                                                                                                       ",
"                                                                                                                                                o o o o o . o o X X X X + + + + + + + $ $ $ $ = : : - - ; > , 2 u u u p s c V V e.e.N n n B B V g s i p s g h h g h g h g h s s i u u u , , > > ; : = = = = = = = = = $ @ @ + + X X X . X X X X X X X X . X X X   . . . . .                                                                                                                                         ",
"                                                                                                                                                o o o o o o o o . . . . X X X X + + + + + $ $ $ : = = = : : > > 2 2 2 u u j h b b V c s s g g h p u 2 2 u p p p p p p p p a a 2 2 2 2 > > ; - = = = $ $ $ $ @ $ @ @ @ @ @ + O O X X . . . . . . . . . . . . . .     o o   o                                                                                                                                         ",
"                                                                                                                                                                o o o . o . . . X X X + + + + + @ @ @ @ = = - - - ; > > 2 u p s s s p i p s s p 2 > - > > 2 2 2 2 2 2 2 2 , > > > > ; ; - = = = $ $ + + + + + + + + + + + X X X . . . . . . . . o o o o o o . .                                                                                                                                                     ",
"                                                                                                                                                                        o   o . X X X X O + + + + + + + @ @ = = = = - > > 2 2 u u u u , u a a 2 > - - - ; > > > > > > > > > - - - - - = = @ @ @ + + + + + + + + + + + + X X X . . . . . o o o o               .                                                                                                                                                     ",
"                                                                                                                                                                          o o o . . X X X X O O O O + + + @ @ @ @ = = - ; > > > > > > < > > > ; - = * * = : : - - - < - - - - = * * * @ @ @ + + + X X X X X X X X X X X X X X . .   o o                                                                                                                                                                             ",
"                                                                                                                                                                          o o o . . X X X X X X X X X + + + + + @ @ = = ; ; ; ; - - - - ; - = = @ @ @ @ @ % % @ * * = = = * @ @ @ @ @ @ + + O O X X X X . . X X . . . X . . . .                                                                                                                                                                                     ",
"                                                                                                                                                                                o . o o o o o o . . . X X X + + + @ @ $ = = = = = = = = : : % % + + + + # # # + @ @ @ @ @ @ @ @ O O + O O O X X X o . . . . . o . . . . . . . .                                                                                                                                                                                     ",
"                                                                                                                                                                                . o     o o o     . . . X X X X + + + + @ @ @ @ @ + + @ % % # + X + + # # # # + + @ @ @ + + + + X X # # X X . . . . . . . . . .     . . . .   .                                                                                                                                                                                     ",
"                                                                                                                                                                                    o o         .   . . . . . . X X + + + + + + + + + + + + X X . . . . . X X X X O O O + + X X o o . . o o . . .           . .                                                                                                                                                                                                     ",
"                                                                                                                                                                                    o o         .     . . . . . . X X + + + + + X X X X X X X X . . . . X . X X X X X X X X X . . . o . . . o o .           . .                                                                                                                                                                                                     ",
"                                                                                                                                                                                                .           . . . . . X X X X X X X X X X X X o . . . . . . X X . . . . . . . .       .         .             .                                                                                                                                                                                                     ",
"                                                                                                                                                                                                            . . . . . . . . . . o o o o o . . .     . . . . . . . .   o o o                                                                                                                                                                                                                                         ",
"                                                                                                                                                                                                        . . . .     o . . .   . . . . . . . .       . . . . . .                                                                                                                                                                                                                                                     ",
"                                                                                                                                                                                                            . .       o           . . . .                               . .                                                                                                                                                                                                                                         ",
"                                                                                                                                                                                                                      o o           . . o                       .       . .                                                                                                                                                                                                                                         ",
"                                                                                                                                                                                                                    . . o         . . . o                       .       . . .                                                                                                                                                                                                                                       ",
"                                                                                                                                                                                                                                                                                                                                                                                                                                                                                                                    ",
"                                                                                                                                                                                                                                                                                                                                                                                                                                                                                                                    ",
"                                                                                                                                                                                                                                                                                                                                                                                                                                                                                                                    ",
"                                                                                                                                                                                                                                                                                                                                                                                                                                                                                                                    ",
"                                                                                                                                                                                                                                                                                                                                                                                                                                                                                                                    ",
"                                                                                                                                                                                                                                                                                                                                                                                                                                                                                                                    ",
"                                                                                                                                                                                                                                                                                                                                                                                                                                                                                                                    ",
"                                                                                                                                                                                                                                                                                                                                                                                                                                                                                                                    ",
"                                                                                                                                                                                                                                                                                                                                                                                                                                                                                                                    ",
"                                                                                                                                                                                                                                                                                                                                                                                                                                                                                                                    "
};
